MODULE Module1
    CONST robtarget Target_drawing_origin:=[[290,10,-2],[1,0,0,0],[0,0,0,0],[9E+09,9E+09,9E+09,9E+09,9E+09,9E+09]];


! Main procedure
PROC main()


! Draw grey
MoveJ Offs(Target_drawing_origin,0,0,0),v100,fine,PencilHolder\WObj:=PAPER;
MoveL Offs(Target_drawing_origin,0,0,0),v50,fine,PencilHolder\WObj:=PAPER;
MoveL Offs(Target_drawing_origin,0,20,0),v50,fine,PencilHolder\WObj:=PAPER;
MoveL Offs(Target_drawing_origin,0,48,0),v50,fine,PencilHolder\WObj:=PAPER;
MoveL Offs(Target_drawing_origin,0,68,0),v50,fine,PencilHolder\WObj:=PAPER;
MoveL Offs(Target_drawing_origin,-1,0,0),v50,fine,PencilHolder\WObj:=PAPER;
MoveL Offs(Target_drawing_origin,-1,20,0),v50,fine,PencilHolder\WObj:=PAPER;
MoveL Offs(Target_drawing_origin,-1,48,0),v50,fine,PencilHolder\WObj:=PAPER;
MoveL Offs(Target_drawing_origin,-1,68,0),v50,fine,PencilHolder\WObj:=PAPER;
MoveL Offs(Target_drawing_origin,-2,0,0),v50,fine,PencilHolder\WObj:=PAPER;
MoveL Offs(Target_drawing_origin,-2,20,0),v50,fine,PencilHolder\WObj:=PAPER;
MoveL Offs(Target_drawing_origin,-2,48,0),v50,fine,PencilHolder\WObj:=PAPER;
MoveL Offs(Target_drawing_origin,-2,70,0),v50,fine,PencilHolder\WObj:=PAPER;
MoveL Offs(Target_drawing_origin,-3,0,0),v50,fine,PencilHolder\WObj:=PAPER;
MoveL Offs(Target_drawing_origin,-3,20,0),v50,fine,PencilHolder\WObj:=PAPER;
MoveL Offs(Target_drawing_origin,-3,44,0),v50,fine,PencilHolder\WObj:=PAPER;
MoveL Offs(Target_drawing_origin,-3,74,0),v50,fine,PencilHolder\WObj:=PAPER;
MoveL Offs(Target_drawing_origin,-4,0,0),v50,fine,PencilHolder\WObj:=PAPER;
MoveL Offs(Target_drawing_origin,-4,20,0),v50,fine,PencilHolder\WObj:=PAPER;
MoveL Offs(Target_drawing_origin,-4,44,0),v50,fine,PencilHolder\WObj:=PAPER;
MoveL Offs(Target_drawing_origin,-4,74,0),v50,fine,PencilHolder\WObj:=PAPER;
MoveL Offs(Target_drawing_origin,-5,0,0),v50,fine,PencilHolder\WObj:=PAPER;
MoveL Offs(Target_drawing_origin,-5,20,0),v50,fine,PencilHolder\WObj:=PAPER;
MoveL Offs(Target_drawing_origin,-5,38,0),v50,fine,PencilHolder\WObj:=PAPER;
MoveL Offs(Target_drawing_origin,-5,78,0),v50,fine,PencilHolder\WObj:=PAPER;
MoveL Offs(Target_drawing_origin,-6,0,0),v50,fine,PencilHolder\WObj:=PAPER;
MoveL Offs(Target_drawing_origin,-6,20,0),v50,fine,PencilHolder\WObj:=PAPER;
MoveL Offs(Target_drawing_origin,-6,38,0),v50,fine,PencilHolder\WObj:=PAPER;
MoveL Offs(Target_drawing_origin,-6,80,0),v50,fine,PencilHolder\WObj:=PAPER;
MoveL Offs(Target_drawing_origin,-7,0,0),v50,fine,PencilHolder\WObj:=PAPER;
MoveL Offs(Target_drawing_origin,-7,20,0),v50,fine,PencilHolder\WObj:=PAPER;
MoveL Offs(Target_drawing_origin,-7,38,0),v50,fine,PencilHolder\WObj:=PAPER;
MoveL Offs(Target_drawing_origin,-7,80,0),v50,fine,PencilHolder\WObj:=PAPER;
MoveL Offs(Target_drawing_origin,-8,0,0),v50,fine,PencilHolder\WObj:=PAPER;
MoveL Offs(Target_drawing_origin,-8,14,0),v50,fine,PencilHolder\WObj:=PAPER;
MoveL Offs(Target_drawing_origin,-8,26,0),v50,fine,PencilHolder\WObj:=PAPER;
MoveL Offs(Target_drawing_origin,-8,84,0),v50,fine,PencilHolder\WObj:=PAPER;
MoveL Offs(Target_drawing_origin,-8,212,0),v50,fine,PencilHolder\WObj:=PAPER;
MoveL Offs(Target_drawing_origin,-8,232,0),v50,fine,PencilHolder\WObj:=PAPER;
MoveL Offs(Target_drawing_origin,-9,0,0),v50,fine,PencilHolder\WObj:=PAPER;
MoveL Offs(Target_drawing_origin,-9,14,0),v50,fine,PencilHolder\WObj:=PAPER;
MoveL Offs(Target_drawing_origin,-9,26,0),v50,fine,PencilHolder\WObj:=PAPER;
MoveL Offs(Target_drawing_origin,-9,84,0),v50,fine,PencilHolder\WObj:=PAPER;
MoveL Offs(Target_drawing_origin,-9,212,0),v50,fine,PencilHolder\WObj:=PAPER;
MoveL Offs(Target_drawing_origin,-9,232,0),v50,fine,PencilHolder\WObj:=PAPER;
MoveL Offs(Target_drawing_origin,-10,0,0),v50,fine,PencilHolder\WObj:=PAPER;
MoveL Offs(Target_drawing_origin,-10,14,0),v50,fine,PencilHolder\WObj:=PAPER;
MoveL Offs(Target_drawing_origin,-10,26,0),v50,fine,PencilHolder\WObj:=PAPER;
MoveL Offs(Target_drawing_origin,-10,86,0),v50,fine,PencilHolder\WObj:=PAPER;
MoveL Offs(Target_drawing_origin,-10,210,0),v50,fine,PencilHolder\WObj:=PAPER;
MoveL Offs(Target_drawing_origin,-10,232,0),v50,fine,PencilHolder\WObj:=PAPER;
MoveL Offs(Target_drawing_origin,-11,0,0),v50,fine,PencilHolder\WObj:=PAPER;
MoveL Offs(Target_drawing_origin,-11,14,0),v50,fine,PencilHolder\WObj:=PAPER;
MoveL Offs(Target_drawing_origin,-11,26,0),v50,fine,PencilHolder\WObj:=PAPER;
MoveL Offs(Target_drawing_origin,-11,90,0),v50,fine,PencilHolder\WObj:=PAPER;
MoveL Offs(Target_drawing_origin,-11,206,0),v50,fine,PencilHolder\WObj:=PAPER;
MoveL Offs(Target_drawing_origin,-11,236,0),v50,fine,PencilHolder\WObj:=PAPER;
MoveL Offs(Target_drawing_origin,-12,0,0),v50,fine,PencilHolder\WObj:=PAPER;
MoveL Offs(Target_drawing_origin,-12,14,0),v50,fine,PencilHolder\WObj:=PAPER;
MoveL Offs(Target_drawing_origin,-12,26,0),v50,fine,PencilHolder\WObj:=PAPER;
MoveL Offs(Target_drawing_origin,-12,90,0),v50,fine,PencilHolder\WObj:=PAPER;
MoveL Offs(Target_drawing_origin,-12,206,0),v50,fine,PencilHolder\WObj:=PAPER;
MoveL Offs(Target_drawing_origin,-12,236,0),v50,fine,PencilHolder\WObj:=PAPER;
MoveL Offs(Target_drawing_origin,-13,0,0),v50,fine,PencilHolder\WObj:=PAPER;
MoveL Offs(Target_drawing_origin,-13,90,0),v50,fine,PencilHolder\WObj:=PAPER;
MoveL Offs(Target_drawing_origin,-13,132,0),v50,fine,PencilHolder\WObj:=PAPER;
MoveL Offs(Target_drawing_origin,-13,154,0),v50,fine,PencilHolder\WObj:=PAPER;
MoveL Offs(Target_drawing_origin,-13,200,0),v50,fine,PencilHolder\WObj:=PAPER;
MoveL Offs(Target_drawing_origin,-13,242,0),v50,fine,PencilHolder\WObj:=PAPER;
MoveL Offs(Target_drawing_origin,-14,0,0),v50,fine,PencilHolder\WObj:=PAPER;
MoveL Offs(Target_drawing_origin,-14,90,0),v50,fine,PencilHolder\WObj:=PAPER;
MoveL Offs(Target_drawing_origin,-14,132,0),v50,fine,PencilHolder\WObj:=PAPER;
MoveL Offs(Target_drawing_origin,-14,156,0),v50,fine,PencilHolder\WObj:=PAPER;
MoveL Offs(Target_drawing_origin,-14,200,0),v50,fine,PencilHolder\WObj:=PAPER;
MoveL Offs(Target_drawing_origin,-14,242,0),v50,fine,PencilHolder\WObj:=PAPER;
MoveL Offs(Target_drawing_origin,-15,0,0),v50,fine,PencilHolder\WObj:=PAPER;
MoveL Offs(Target_drawing_origin,-15,90,0),v50,fine,PencilHolder\WObj:=PAPER;
MoveL Offs(Target_drawing_origin,-15,132,0),v50,fine,PencilHolder\WObj:=PAPER;
MoveL Offs(Target_drawing_origin,-15,156,0),v50,fine,PencilHolder\WObj:=PAPER;
MoveL Offs(Target_drawing_origin,-15,200,0),v50,fine,PencilHolder\WObj:=PAPER;
MoveL Offs(Target_drawing_origin,-15,242,0),v50,fine,PencilHolder\WObj:=PAPER;
MoveL Offs(Target_drawing_origin,-16,0,0),v50,fine,PencilHolder\WObj:=PAPER;
MoveL Offs(Target_drawing_origin,-16,52,0),v50,fine,PencilHolder\WObj:=PAPER;
MoveL Offs(Target_drawing_origin,-16,60,0),v50,fine,PencilHolder\WObj:=PAPER;
MoveL Offs(Target_drawing_origin,-16,90,0),v50,fine,PencilHolder\WObj:=PAPER;
MoveL Offs(Target_drawing_origin,-16,124,0),v50,fine,PencilHolder\WObj:=PAPER;
MoveL Offs(Target_drawing_origin,-16,160,0),v50,fine,PencilHolder\WObj:=PAPER;
MoveL Offs(Target_drawing_origin,-16,194,0),v50,fine,PencilHolder\WObj:=PAPER;
MoveL Offs(Target_drawing_origin,-16,242,0),v50,fine,PencilHolder\WObj:=PAPER;
MoveL Offs(Target_drawing_origin,-17,0,0),v50,fine,PencilHolder\WObj:=PAPER;
MoveL Offs(Target_drawing_origin,-17,52,0),v50,fine,PencilHolder\WObj:=PAPER;
MoveL Offs(Target_drawing_origin,-17,60,0),v50,fine,PencilHolder\WObj:=PAPER;
MoveL Offs(Target_drawing_origin,-17,90,0),v50,fine,PencilHolder\WObj:=PAPER;
MoveL Offs(Target_drawing_origin,-17,124,0),v50,fine,PencilHolder\WObj:=PAPER;
MoveL Offs(Target_drawing_origin,-17,160,0),v50,fine,PencilHolder\WObj:=PAPER;
MoveL Offs(Target_drawing_origin,-17,194,0),v50,fine,PencilHolder\WObj:=PAPER;
MoveL Offs(Target_drawing_origin,-17,242,0),v50,fine,PencilHolder\WObj:=PAPER;
MoveL Offs(Target_drawing_origin,-18,0,0),v50,fine,PencilHolder\WObj:=PAPER;
MoveL Offs(Target_drawing_origin,-18,52,0),v50,fine,PencilHolder\WObj:=PAPER;
MoveL Offs(Target_drawing_origin,-18,60,0),v50,fine,PencilHolder\WObj:=PAPER;
MoveL Offs(Target_drawing_origin,-18,90,0),v50,fine,PencilHolder\WObj:=PAPER;
MoveL Offs(Target_drawing_origin,-18,124,0),v50,fine,PencilHolder\WObj:=PAPER;
MoveL Offs(Target_drawing_origin,-18,160,0),v50,fine,PencilHolder\WObj:=PAPER;
MoveL Offs(Target_drawing_origin,-18,194,0),v50,fine,PencilHolder\WObj:=PAPER;
MoveL Offs(Target_drawing_origin,-18,242,0),v50,fine,PencilHolder\WObj:=PAPER;
MoveL Offs(Target_drawing_origin,-19,0,0),v50,fine,PencilHolder\WObj:=PAPER;
MoveL Offs(Target_drawing_origin,-19,46,0),v50,fine,PencilHolder\WObj:=PAPER;
MoveL Offs(Target_drawing_origin,-19,60,0),v50,fine,PencilHolder\WObj:=PAPER;
MoveL Offs(Target_drawing_origin,-19,90,0),v50,fine,PencilHolder\WObj:=PAPER;
MoveL Offs(Target_drawing_origin,-19,114,0),v50,fine,PencilHolder\WObj:=PAPER;
MoveL Offs(Target_drawing_origin,-19,166,0),v50,fine,PencilHolder\WObj:=PAPER;
MoveL Offs(Target_drawing_origin,-19,194,0),v50,fine,PencilHolder\WObj:=PAPER;
MoveL Offs(Target_drawing_origin,-19,242,0),v50,fine,PencilHolder\WObj:=PAPER;
MoveL Offs(Target_drawing_origin,-20,0,0),v50,fine,PencilHolder\WObj:=PAPER;
MoveL Offs(Target_drawing_origin,-20,46,0),v50,fine,PencilHolder\WObj:=PAPER;
MoveL Offs(Target_drawing_origin,-20,60,0),v50,fine,PencilHolder\WObj:=PAPER;
MoveL Offs(Target_drawing_origin,-20,90,0),v50,fine,PencilHolder\WObj:=PAPER;
MoveL Offs(Target_drawing_origin,-20,114,0),v50,fine,PencilHolder\WObj:=PAPER;
MoveL Offs(Target_drawing_origin,-20,166,0),v50,fine,PencilHolder\WObj:=PAPER;
MoveL Offs(Target_drawing_origin,-20,194,0),v50,fine,PencilHolder\WObj:=PAPER;
MoveL Offs(Target_drawing_origin,-20,242,0),v50,fine,PencilHolder\WObj:=PAPER;
MoveL Offs(Target_drawing_origin,-21,0,0),v50,fine,PencilHolder\WObj:=PAPER;
MoveL Offs(Target_drawing_origin,-21,46,0),v50,fine,PencilHolder\WObj:=PAPER;
MoveL Offs(Target_drawing_origin,-21,60,0),v50,fine,PencilHolder\WObj:=PAPER;
MoveL Offs(Target_drawing_origin,-21,90,0),v50,fine,PencilHolder\WObj:=PAPER;
MoveL Offs(Target_drawing_origin,-21,108,0),v50,fine,PencilHolder\WObj:=PAPER;
MoveL Offs(Target_drawing_origin,-21,170,0),v50,fine,PencilHolder\WObj:=PAPER;
MoveL Offs(Target_drawing_origin,-21,190,0),v50,fine,PencilHolder\WObj:=PAPER;
MoveL Offs(Target_drawing_origin,-21,242,0),v50,fine,PencilHolder\WObj:=PAPER;
MoveL Offs(Target_drawing_origin,-22,0,0),v50,fine,PencilHolder\WObj:=PAPER;
MoveL Offs(Target_drawing_origin,-22,42,0),v50,fine,PencilHolder\WObj:=PAPER;
MoveL Offs(Target_drawing_origin,-22,60,0),v50,fine,PencilHolder\WObj:=PAPER;
MoveL Offs(Target_drawing_origin,-22,90,0),v50,fine,PencilHolder\WObj:=PAPER;
MoveL Offs(Target_drawing_origin,-22,108,0),v50,fine,PencilHolder\WObj:=PAPER;
MoveL Offs(Target_drawing_origin,-22,172,0),v50,fine,PencilHolder\WObj:=PAPER;
MoveL Offs(Target_drawing_origin,-22,190,0),v50,fine,PencilHolder\WObj:=PAPER;
MoveL Offs(Target_drawing_origin,-22,242,0),v50,fine,PencilHolder\WObj:=PAPER;
MoveL Offs(Target_drawing_origin,-23,0,0),v50,fine,PencilHolder\WObj:=PAPER;
MoveL Offs(Target_drawing_origin,-23,42,0),v50,fine,PencilHolder\WObj:=PAPER;
MoveL Offs(Target_drawing_origin,-23,60,0),v50,fine,PencilHolder\WObj:=PAPER;
MoveL Offs(Target_drawing_origin,-23,90,0),v50,fine,PencilHolder\WObj:=PAPER;
MoveL Offs(Target_drawing_origin,-23,108,0),v50,fine,PencilHolder\WObj:=PAPER;
MoveL Offs(Target_drawing_origin,-23,172,0),v50,fine,PencilHolder\WObj:=PAPER;
MoveL Offs(Target_drawing_origin,-23,190,0),v50,fine,PencilHolder\WObj:=PAPER;
MoveL Offs(Target_drawing_origin,-23,242,0),v50,fine,PencilHolder\WObj:=PAPER;
MoveL Offs(Target_drawing_origin,-24,0,0),v50,fine,PencilHolder\WObj:=PAPER;
MoveL Offs(Target_drawing_origin,-24,42,0),v50,fine,PencilHolder\WObj:=PAPER;
MoveL Offs(Target_drawing_origin,-24,60,0),v50,fine,PencilHolder\WObj:=PAPER;
MoveL Offs(Target_drawing_origin,-24,90,0),v50,fine,PencilHolder\WObj:=PAPER;
MoveL Offs(Target_drawing_origin,-24,102,0),v50,fine,PencilHolder\WObj:=PAPER;
MoveL Offs(Target_drawing_origin,-24,172,0),v50,fine,PencilHolder\WObj:=PAPER;
MoveL Offs(Target_drawing_origin,-24,190,0),v50,fine,PencilHolder\WObj:=PAPER;
MoveL Offs(Target_drawing_origin,-24,216,0),v50,fine,PencilHolder\WObj:=PAPER;
MoveL Offs(Target_drawing_origin,-24,222,0),v50,fine,PencilHolder\WObj:=PAPER;
MoveL Offs(Target_drawing_origin,-24,242,0),v50,fine,PencilHolder\WObj:=PAPER;
MoveL Offs(Target_drawing_origin,-25,0,0),v50,fine,PencilHolder\WObj:=PAPER;
MoveL Offs(Target_drawing_origin,-25,42,0),v50,fine,PencilHolder\WObj:=PAPER;
MoveL Offs(Target_drawing_origin,-25,60,0),v50,fine,PencilHolder\WObj:=PAPER;
MoveL Offs(Target_drawing_origin,-25,90,0),v50,fine,PencilHolder\WObj:=PAPER;
MoveL Offs(Target_drawing_origin,-25,102,0),v50,fine,PencilHolder\WObj:=PAPER;
MoveL Offs(Target_drawing_origin,-25,172,0),v50,fine,PencilHolder\WObj:=PAPER;
MoveL Offs(Target_drawing_origin,-25,190,0),v50,fine,PencilHolder\WObj:=PAPER;
MoveL Offs(Target_drawing_origin,-25,214,0),v50,fine,PencilHolder\WObj:=PAPER;
MoveL Offs(Target_drawing_origin,-25,222,0),v50,fine,PencilHolder\WObj:=PAPER;
MoveL Offs(Target_drawing_origin,-25,242,0),v50,fine,PencilHolder\WObj:=PAPER;
MoveL Offs(Target_drawing_origin,-26,0,0),v50,fine,PencilHolder\WObj:=PAPER;
MoveL Offs(Target_drawing_origin,-26,42,0),v50,fine,PencilHolder\WObj:=PAPER;
MoveL Offs(Target_drawing_origin,-26,60,0),v50,fine,PencilHolder\WObj:=PAPER;
MoveL Offs(Target_drawing_origin,-26,90,0),v50,fine,PencilHolder\WObj:=PAPER;
MoveL Offs(Target_drawing_origin,-26,102,0),v50,fine,PencilHolder\WObj:=PAPER;
MoveL Offs(Target_drawing_origin,-26,172,0),v50,fine,PencilHolder\WObj:=PAPER;
MoveL Offs(Target_drawing_origin,-26,190,0),v50,fine,PencilHolder\WObj:=PAPER;
MoveL Offs(Target_drawing_origin,-26,214,0),v50,fine,PencilHolder\WObj:=PAPER;
MoveL Offs(Target_drawing_origin,-26,222,0),v50,fine,PencilHolder\WObj:=PAPER;
MoveL Offs(Target_drawing_origin,-26,242,0),v50,fine,PencilHolder\WObj:=PAPER;
MoveL Offs(Target_drawing_origin,-27,6,0),v50,fine,PencilHolder\WObj:=PAPER;
MoveL Offs(Target_drawing_origin,-27,36,0),v50,fine,PencilHolder\WObj:=PAPER;
MoveL Offs(Target_drawing_origin,-27,60,0),v50,fine,PencilHolder\WObj:=PAPER;
MoveL Offs(Target_drawing_origin,-27,90,0),v50,fine,PencilHolder\WObj:=PAPER;
MoveL Offs(Target_drawing_origin,-27,102,0),v50,fine,PencilHolder\WObj:=PAPER;
MoveL Offs(Target_drawing_origin,-27,176,0),v50,fine,PencilHolder\WObj:=PAPER;
MoveL Offs(Target_drawing_origin,-27,190,0),v50,fine,PencilHolder\WObj:=PAPER;
MoveL Offs(Target_drawing_origin,-27,214,0),v50,fine,PencilHolder\WObj:=PAPER;
MoveL Offs(Target_drawing_origin,-27,222,0),v50,fine,PencilHolder\WObj:=PAPER;
MoveL Offs(Target_drawing_origin,-27,248,0),v50,fine,PencilHolder\WObj:=PAPER;
MoveL Offs(Target_drawing_origin,-28,6,0),v50,fine,PencilHolder\WObj:=PAPER;
MoveL Offs(Target_drawing_origin,-28,36,0),v50,fine,PencilHolder\WObj:=PAPER;
MoveL Offs(Target_drawing_origin,-28,60,0),v50,fine,PencilHolder\WObj:=PAPER;
MoveL Offs(Target_drawing_origin,-28,90,0),v50,fine,PencilHolder\WObj:=PAPER;
MoveL Offs(Target_drawing_origin,-28,102,0),v50,fine,PencilHolder\WObj:=PAPER;
MoveL Offs(Target_drawing_origin,-28,176,0),v50,fine,PencilHolder\WObj:=PAPER;
MoveL Offs(Target_drawing_origin,-28,190,0),v50,fine,PencilHolder\WObj:=PAPER;
MoveL Offs(Target_drawing_origin,-28,214,0),v50,fine,PencilHolder\WObj:=PAPER;
MoveL Offs(Target_drawing_origin,-28,222,0),v50,fine,PencilHolder\WObj:=PAPER;
MoveL Offs(Target_drawing_origin,-28,248,0),v50,fine,PencilHolder\WObj:=PAPER;
MoveL Offs(Target_drawing_origin,-29,6,0),v50,fine,PencilHolder\WObj:=PAPER;
MoveL Offs(Target_drawing_origin,-29,36,0),v50,fine,PencilHolder\WObj:=PAPER;
MoveL Offs(Target_drawing_origin,-29,56,0),v50,fine,PencilHolder\WObj:=PAPER;
MoveL Offs(Target_drawing_origin,-29,90,0),v50,fine,PencilHolder\WObj:=PAPER;
MoveL Offs(Target_drawing_origin,-29,102,0),v50,fine,PencilHolder\WObj:=PAPER;
MoveL Offs(Target_drawing_origin,-29,182,0),v50,fine,PencilHolder\WObj:=PAPER;
MoveL Offs(Target_drawing_origin,-29,190,0),v50,fine,PencilHolder\WObj:=PAPER;
MoveL Offs(Target_drawing_origin,-29,214,0),v50,fine,PencilHolder\WObj:=PAPER;
MoveL Offs(Target_drawing_origin,-29,222,0),v50,fine,PencilHolder\WObj:=PAPER;
MoveL Offs(Target_drawing_origin,-29,248,0),v50,fine,PencilHolder\WObj:=PAPER;
MoveL Offs(Target_drawing_origin,-30,54,0),v50,fine,PencilHolder\WObj:=PAPER;
MoveL Offs(Target_drawing_origin,-30,90,0),v50,fine,PencilHolder\WObj:=PAPER;
MoveL Offs(Target_drawing_origin,-30,102,0),v50,fine,PencilHolder\WObj:=PAPER;
MoveL Offs(Target_drawing_origin,-30,130,0),v50,fine,PencilHolder\WObj:=PAPER;
MoveL Offs(Target_drawing_origin,-30,146,0),v50,fine,PencilHolder\WObj:=PAPER;
MoveL Offs(Target_drawing_origin,-30,182,0),v50,fine,PencilHolder\WObj:=PAPER;
MoveL Offs(Target_drawing_origin,-30,190,0),v50,fine,PencilHolder\WObj:=PAPER;
MoveL Offs(Target_drawing_origin,-30,214,0),v50,fine,PencilHolder\WObj:=PAPER;
MoveL Offs(Target_drawing_origin,-30,222,0),v50,fine,PencilHolder\WObj:=PAPER;
MoveL Offs(Target_drawing_origin,-30,248,0),v50,fine,PencilHolder\WObj:=PAPER;
MoveL Offs(Target_drawing_origin,-31,54,0),v50,fine,PencilHolder\WObj:=PAPER;
MoveL Offs(Target_drawing_origin,-31,90,0),v50,fine,PencilHolder\WObj:=PAPER;
MoveL Offs(Target_drawing_origin,-31,102,0),v50,fine,PencilHolder\WObj:=PAPER;
MoveL Offs(Target_drawing_origin,-31,130,0),v50,fine,PencilHolder\WObj:=PAPER;
MoveL Offs(Target_drawing_origin,-31,146,0),v50,fine,PencilHolder\WObj:=PAPER;
MoveL Offs(Target_drawing_origin,-31,182,0),v50,fine,PencilHolder\WObj:=PAPER;
MoveL Offs(Target_drawing_origin,-31,190,0),v50,fine,PencilHolder\WObj:=PAPER;
MoveL Offs(Target_drawing_origin,-31,214,0),v50,fine,PencilHolder\WObj:=PAPER;
MoveL Offs(Target_drawing_origin,-31,222,0),v50,fine,PencilHolder\WObj:=PAPER;
MoveL Offs(Target_drawing_origin,-31,248,0),v50,fine,PencilHolder\WObj:=PAPER;
MoveL Offs(Target_drawing_origin,-32,54,0),v50,fine,PencilHolder\WObj:=PAPER;
MoveL Offs(Target_drawing_origin,-32,86,0),v50,fine,PencilHolder\WObj:=PAPER;
MoveL Offs(Target_drawing_origin,-32,98,0),v50,fine,PencilHolder\WObj:=PAPER;
MoveL Offs(Target_drawing_origin,-32,130,0),v50,fine,PencilHolder\WObj:=PAPER;
MoveL Offs(Target_drawing_origin,-32,152,0),v50,fine,PencilHolder\WObj:=PAPER;
MoveL Offs(Target_drawing_origin,-32,182,0),v50,fine,PencilHolder\WObj:=PAPER;
MoveL Offs(Target_drawing_origin,-32,190,0),v50,fine,PencilHolder\WObj:=PAPER;
MoveL Offs(Target_drawing_origin,-32,210,0),v50,fine,PencilHolder\WObj:=PAPER;
MoveL Offs(Target_drawing_origin,-32,222,0),v50,fine,PencilHolder\WObj:=PAPER;
MoveL Offs(Target_drawing_origin,-32,248,0),v50,fine,PencilHolder\WObj:=PAPER;
MoveL Offs(Target_drawing_origin,-33,54,0),v50,fine,PencilHolder\WObj:=PAPER;
MoveL Offs(Target_drawing_origin,-33,84,0),v50,fine,PencilHolder\WObj:=PAPER;
MoveL Offs(Target_drawing_origin,-33,98,0),v50,fine,PencilHolder\WObj:=PAPER;
MoveL Offs(Target_drawing_origin,-33,130,0),v50,fine,PencilHolder\WObj:=PAPER;
MoveL Offs(Target_drawing_origin,-33,152,0),v50,fine,PencilHolder\WObj:=PAPER;
MoveL Offs(Target_drawing_origin,-33,182,0),v50,fine,PencilHolder\WObj:=PAPER;
MoveL Offs(Target_drawing_origin,-33,190,0),v50,fine,PencilHolder\WObj:=PAPER;
MoveL Offs(Target_drawing_origin,-33,210,0),v50,fine,PencilHolder\WObj:=PAPER;
MoveL Offs(Target_drawing_origin,-33,222,0),v50,fine,PencilHolder\WObj:=PAPER;
MoveL Offs(Target_drawing_origin,-33,248,0),v50,fine,PencilHolder\WObj:=PAPER;
MoveL Offs(Target_drawing_origin,-34,54,0),v50,fine,PencilHolder\WObj:=PAPER;
MoveL Offs(Target_drawing_origin,-34,84,0),v50,fine,PencilHolder\WObj:=PAPER;
MoveL Offs(Target_drawing_origin,-34,98,0),v50,fine,PencilHolder\WObj:=PAPER;
MoveL Offs(Target_drawing_origin,-34,130,0),v50,fine,PencilHolder\WObj:=PAPER;
MoveL Offs(Target_drawing_origin,-34,152,0),v50,fine,PencilHolder\WObj:=PAPER;
MoveL Offs(Target_drawing_origin,-34,182,0),v50,fine,PencilHolder\WObj:=PAPER;
MoveL Offs(Target_drawing_origin,-34,190,0),v50,fine,PencilHolder\WObj:=PAPER;
MoveL Offs(Target_drawing_origin,-34,210,0),v50,fine,PencilHolder\WObj:=PAPER;
MoveL Offs(Target_drawing_origin,-34,222,0),v50,fine,PencilHolder\WObj:=PAPER;
MoveL Offs(Target_drawing_origin,-34,248,0),v50,fine,PencilHolder\WObj:=PAPER;
MoveL Offs(Target_drawing_origin,-35,48,0),v50,fine,PencilHolder\WObj:=PAPER;
MoveL Offs(Target_drawing_origin,-35,80,0),v50,fine,PencilHolder\WObj:=PAPER;
MoveL Offs(Target_drawing_origin,-35,98,0),v50,fine,PencilHolder\WObj:=PAPER;
MoveL Offs(Target_drawing_origin,-35,122,0),v50,fine,PencilHolder\WObj:=PAPER;
MoveL Offs(Target_drawing_origin,-35,156,0),v50,fine,PencilHolder\WObj:=PAPER;
MoveL Offs(Target_drawing_origin,-35,182,0),v50,fine,PencilHolder\WObj:=PAPER;
MoveL Offs(Target_drawing_origin,-35,190,0),v50,fine,PencilHolder\WObj:=PAPER;
MoveL Offs(Target_drawing_origin,-35,214,0),v50,fine,PencilHolder\WObj:=PAPER;
MoveL Offs(Target_drawing_origin,-35,228,0),v50,fine,PencilHolder\WObj:=PAPER;
MoveL Offs(Target_drawing_origin,-35,248,0),v50,fine,PencilHolder\WObj:=PAPER;
MoveL Offs(Target_drawing_origin,-36,48,0),v50,fine,PencilHolder\WObj:=PAPER;
MoveL Offs(Target_drawing_origin,-36,80,0),v50,fine,PencilHolder\WObj:=PAPER;
MoveL Offs(Target_drawing_origin,-36,98,0),v50,fine,PencilHolder\WObj:=PAPER;
MoveL Offs(Target_drawing_origin,-36,122,0),v50,fine,PencilHolder\WObj:=PAPER;
MoveL Offs(Target_drawing_origin,-36,156,0),v50,fine,PencilHolder\WObj:=PAPER;
MoveL Offs(Target_drawing_origin,-36,182,0),v50,fine,PencilHolder\WObj:=PAPER;
MoveL Offs(Target_drawing_origin,-36,190,0),v50,fine,PencilHolder\WObj:=PAPER;
MoveL Offs(Target_drawing_origin,-36,214,0),v50,fine,PencilHolder\WObj:=PAPER;
MoveL Offs(Target_drawing_origin,-36,228,0),v50,fine,PencilHolder\WObj:=PAPER;
MoveL Offs(Target_drawing_origin,-36,248,0),v50,fine,PencilHolder\WObj:=PAPER;
MoveL Offs(Target_drawing_origin,-37,48,0),v50,fine,PencilHolder\WObj:=PAPER;
MoveL Offs(Target_drawing_origin,-37,78,0),v50,fine,PencilHolder\WObj:=PAPER;
MoveL Offs(Target_drawing_origin,-37,98,0),v50,fine,PencilHolder\WObj:=PAPER;
MoveL Offs(Target_drawing_origin,-37,122,0),v50,fine,PencilHolder\WObj:=PAPER;
MoveL Offs(Target_drawing_origin,-37,156,0),v50,fine,PencilHolder\WObj:=PAPER;
MoveL Offs(Target_drawing_origin,-37,182,0),v50,fine,PencilHolder\WObj:=PAPER;
MoveL Offs(Target_drawing_origin,-37,190,0),v50,fine,PencilHolder\WObj:=PAPER;
MoveL Offs(Target_drawing_origin,-37,214,0),v50,fine,PencilHolder\WObj:=PAPER;
MoveL Offs(Target_drawing_origin,-37,228,0),v50,fine,PencilHolder\WObj:=PAPER;
MoveL Offs(Target_drawing_origin,-37,248,0),v50,fine,PencilHolder\WObj:=PAPER;
MoveL Offs(Target_drawing_origin,-38,44,0),v50,fine,PencilHolder\WObj:=PAPER;
MoveL Offs(Target_drawing_origin,-38,74,0),v50,fine,PencilHolder\WObj:=PAPER;
MoveL Offs(Target_drawing_origin,-38,98,0),v50,fine,PencilHolder\WObj:=PAPER;
MoveL Offs(Target_drawing_origin,-38,122,0),v50,fine,PencilHolder\WObj:=PAPER;
MoveL Offs(Target_drawing_origin,-38,156,0),v50,fine,PencilHolder\WObj:=PAPER;
MoveL Offs(Target_drawing_origin,-38,182,0),v50,fine,PencilHolder\WObj:=PAPER;
MoveL Offs(Target_drawing_origin,-38,190,0),v50,fine,PencilHolder\WObj:=PAPER;
MoveL Offs(Target_drawing_origin,-38,214,0),v50,fine,PencilHolder\WObj:=PAPER;
MoveL Offs(Target_drawing_origin,-38,228,0),v50,fine,PencilHolder\WObj:=PAPER;
MoveL Offs(Target_drawing_origin,-38,248,0),v50,fine,PencilHolder\WObj:=PAPER;
MoveL Offs(Target_drawing_origin,-39,44,0),v50,fine,PencilHolder\WObj:=PAPER;
MoveL Offs(Target_drawing_origin,-39,74,0),v50,fine,PencilHolder\WObj:=PAPER;
MoveL Offs(Target_drawing_origin,-39,98,0),v50,fine,PencilHolder\WObj:=PAPER;
MoveL Offs(Target_drawing_origin,-39,122,0),v50,fine,PencilHolder\WObj:=PAPER;
MoveL Offs(Target_drawing_origin,-39,156,0),v50,fine,PencilHolder\WObj:=PAPER;
MoveL Offs(Target_drawing_origin,-39,182,0),v50,fine,PencilHolder\WObj:=PAPER;
MoveL Offs(Target_drawing_origin,-39,190,0),v50,fine,PencilHolder\WObj:=PAPER;
MoveL Offs(Target_drawing_origin,-39,214,0),v50,fine,PencilHolder\WObj:=PAPER;
MoveL Offs(Target_drawing_origin,-39,228,0),v50,fine,PencilHolder\WObj:=PAPER;
MoveL Offs(Target_drawing_origin,-39,248,0),v50,fine,PencilHolder\WObj:=PAPER;
MoveL Offs(Target_drawing_origin,-40,44,0),v50,fine,PencilHolder\WObj:=PAPER;
MoveL Offs(Target_drawing_origin,-40,74,0),v50,fine,PencilHolder\WObj:=PAPER;
MoveL Offs(Target_drawing_origin,-40,92,0),v50,fine,PencilHolder\WObj:=PAPER;
MoveL Offs(Target_drawing_origin,-40,122,0),v50,fine,PencilHolder\WObj:=PAPER;
MoveL Offs(Target_drawing_origin,-40,156,0),v50,fine,PencilHolder\WObj:=PAPER;
MoveL Offs(Target_drawing_origin,-40,182,0),v50,fine,PencilHolder\WObj:=PAPER;
MoveL Offs(Target_drawing_origin,-40,190,0),v50,fine,PencilHolder\WObj:=PAPER;
MoveL Offs(Target_drawing_origin,-40,214,0),v50,fine,PencilHolder\WObj:=PAPER;
MoveL Offs(Target_drawing_origin,-40,228,0),v50,fine,PencilHolder\WObj:=PAPER;
MoveL Offs(Target_drawing_origin,-40,248,0),v50,fine,PencilHolder\WObj:=PAPER;
MoveL Offs(Target_drawing_origin,-41,44,0),v50,fine,PencilHolder\WObj:=PAPER;
MoveL Offs(Target_drawing_origin,-41,74,0),v50,fine,PencilHolder\WObj:=PAPER;
MoveL Offs(Target_drawing_origin,-41,92,0),v50,fine,PencilHolder\WObj:=PAPER;
MoveL Offs(Target_drawing_origin,-41,122,0),v50,fine,PencilHolder\WObj:=PAPER;
MoveL Offs(Target_drawing_origin,-41,156,0),v50,fine,PencilHolder\WObj:=PAPER;
MoveL Offs(Target_drawing_origin,-41,182,0),v50,fine,PencilHolder\WObj:=PAPER;
MoveL Offs(Target_drawing_origin,-41,190,0),v50,fine,PencilHolder\WObj:=PAPER;
MoveL Offs(Target_drawing_origin,-41,214,0),v50,fine,PencilHolder\WObj:=PAPER;
MoveL Offs(Target_drawing_origin,-41,228,0),v50,fine,PencilHolder\WObj:=PAPER;
MoveL Offs(Target_drawing_origin,-41,248,0),v50,fine,PencilHolder\WObj:=PAPER;
MoveL Offs(Target_drawing_origin,-42,44,0),v50,fine,PencilHolder\WObj:=PAPER;
MoveL Offs(Target_drawing_origin,-42,74,0),v50,fine,PencilHolder\WObj:=PAPER;
MoveL Offs(Target_drawing_origin,-42,92,0),v50,fine,PencilHolder\WObj:=PAPER;
MoveL Offs(Target_drawing_origin,-42,122,0),v50,fine,PencilHolder\WObj:=PAPER;
MoveL Offs(Target_drawing_origin,-42,156,0),v50,fine,PencilHolder\WObj:=PAPER;
MoveL Offs(Target_drawing_origin,-42,182,0),v50,fine,PencilHolder\WObj:=PAPER;
MoveL Offs(Target_drawing_origin,-42,190,0),v50,fine,PencilHolder\WObj:=PAPER;
MoveL Offs(Target_drawing_origin,-42,214,0),v50,fine,PencilHolder\WObj:=PAPER;
MoveL Offs(Target_drawing_origin,-42,228,0),v50,fine,PencilHolder\WObj:=PAPER;
MoveL Offs(Target_drawing_origin,-42,248,0),v50,fine,PencilHolder\WObj:=PAPER;
MoveL Offs(Target_drawing_origin,-43,44,0),v50,fine,PencilHolder\WObj:=PAPER;
MoveL Offs(Target_drawing_origin,-43,74,0),v50,fine,PencilHolder\WObj:=PAPER;
MoveL Offs(Target_drawing_origin,-43,86,0),v50,fine,PencilHolder\WObj:=PAPER;
MoveL Offs(Target_drawing_origin,-43,118,0),v50,fine,PencilHolder\WObj:=PAPER;
MoveL Offs(Target_drawing_origin,-43,156,0),v50,fine,PencilHolder\WObj:=PAPER;
MoveL Offs(Target_drawing_origin,-43,182,0),v50,fine,PencilHolder\WObj:=PAPER;
MoveL Offs(Target_drawing_origin,-43,194,0),v50,fine,PencilHolder\WObj:=PAPER;
MoveL Offs(Target_drawing_origin,-43,214,0),v50,fine,PencilHolder\WObj:=PAPER;
MoveL Offs(Target_drawing_origin,-43,228,0),v50,fine,PencilHolder\WObj:=PAPER;
MoveL Offs(Target_drawing_origin,-43,248,0),v50,fine,PencilHolder\WObj:=PAPER;
MoveL Offs(Target_drawing_origin,-44,44,0),v50,fine,PencilHolder\WObj:=PAPER;
MoveL Offs(Target_drawing_origin,-44,74,0),v50,fine,PencilHolder\WObj:=PAPER;
MoveL Offs(Target_drawing_origin,-44,86,0),v50,fine,PencilHolder\WObj:=PAPER;
MoveL Offs(Target_drawing_origin,-44,118,0),v50,fine,PencilHolder\WObj:=PAPER;
MoveL Offs(Target_drawing_origin,-44,156,0),v50,fine,PencilHolder\WObj:=PAPER;
MoveL Offs(Target_drawing_origin,-44,182,0),v50,fine,PencilHolder\WObj:=PAPER;
MoveL Offs(Target_drawing_origin,-44,194,0),v50,fine,PencilHolder\WObj:=PAPER;
MoveL Offs(Target_drawing_origin,-44,214,0),v50,fine,PencilHolder\WObj:=PAPER;
MoveL Offs(Target_drawing_origin,-44,228,0),v50,fine,PencilHolder\WObj:=PAPER;
MoveL Offs(Target_drawing_origin,-44,248,0),v50,fine,PencilHolder\WObj:=PAPER;
MoveL Offs(Target_drawing_origin,-45,44,0),v50,fine,PencilHolder\WObj:=PAPER;
MoveL Offs(Target_drawing_origin,-45,74,0),v50,fine,PencilHolder\WObj:=PAPER;
MoveL Offs(Target_drawing_origin,-45,86,0),v50,fine,PencilHolder\WObj:=PAPER;
MoveL Offs(Target_drawing_origin,-45,118,0),v50,fine,PencilHolder\WObj:=PAPER;
MoveL Offs(Target_drawing_origin,-45,156,0),v50,fine,PencilHolder\WObj:=PAPER;
MoveL Offs(Target_drawing_origin,-45,182,0),v50,fine,PencilHolder\WObj:=PAPER;
MoveL Offs(Target_drawing_origin,-45,194,0),v50,fine,PencilHolder\WObj:=PAPER;
MoveL Offs(Target_drawing_origin,-45,214,0),v50,fine,PencilHolder\WObj:=PAPER;
MoveL Offs(Target_drawing_origin,-45,228,0),v50,fine,PencilHolder\WObj:=PAPER;
MoveL Offs(Target_drawing_origin,-45,248,0),v50,fine,PencilHolder\WObj:=PAPER;
MoveL Offs(Target_drawing_origin,-46,44,0),v50,fine,PencilHolder\WObj:=PAPER;
MoveL Offs(Target_drawing_origin,-46,118,0),v50,fine,PencilHolder\WObj:=PAPER;
MoveL Offs(Target_drawing_origin,-46,156,0),v50,fine,PencilHolder\WObj:=PAPER;
MoveL Offs(Target_drawing_origin,-46,182,0),v50,fine,PencilHolder\WObj:=PAPER;
MoveL Offs(Target_drawing_origin,-46,194,0),v50,fine,PencilHolder\WObj:=PAPER;
MoveL Offs(Target_drawing_origin,-46,214,0),v50,fine,PencilHolder\WObj:=PAPER;
MoveL Offs(Target_drawing_origin,-46,228,0),v50,fine,PencilHolder\WObj:=PAPER;
MoveL Offs(Target_drawing_origin,-46,248,0),v50,fine,PencilHolder\WObj:=PAPER;
MoveL Offs(Target_drawing_origin,-47,44,0),v50,fine,PencilHolder\WObj:=PAPER;
MoveL Offs(Target_drawing_origin,-47,118,0),v50,fine,PencilHolder\WObj:=PAPER;
MoveL Offs(Target_drawing_origin,-47,156,0),v50,fine,PencilHolder\WObj:=PAPER;
MoveL Offs(Target_drawing_origin,-47,182,0),v50,fine,PencilHolder\WObj:=PAPER;
MoveL Offs(Target_drawing_origin,-47,194,0),v50,fine,PencilHolder\WObj:=PAPER;
MoveL Offs(Target_drawing_origin,-47,214,0),v50,fine,PencilHolder\WObj:=PAPER;
MoveL Offs(Target_drawing_origin,-47,228,0),v50,fine,PencilHolder\WObj:=PAPER;
MoveL Offs(Target_drawing_origin,-47,248,0),v50,fine,PencilHolder\WObj:=PAPER;
MoveL Offs(Target_drawing_origin,-48,48,0),v50,fine,PencilHolder\WObj:=PAPER;
MoveL Offs(Target_drawing_origin,-48,112,0),v50,fine,PencilHolder\WObj:=PAPER;
MoveL Offs(Target_drawing_origin,-48,156,0),v50,fine,PencilHolder\WObj:=PAPER;
MoveL Offs(Target_drawing_origin,-48,182,0),v50,fine,PencilHolder\WObj:=PAPER;
MoveL Offs(Target_drawing_origin,-48,194,0),v50,fine,PencilHolder\WObj:=PAPER;
MoveL Offs(Target_drawing_origin,-48,214,0),v50,fine,PencilHolder\WObj:=PAPER;
MoveL Offs(Target_drawing_origin,-48,228,0),v50,fine,PencilHolder\WObj:=PAPER;
MoveL Offs(Target_drawing_origin,-48,248,0),v50,fine,PencilHolder\WObj:=PAPER;
MoveL Offs(Target_drawing_origin,-49,48,0),v50,fine,PencilHolder\WObj:=PAPER;
MoveL Offs(Target_drawing_origin,-49,112,0),v50,fine,PencilHolder\WObj:=PAPER;
MoveL Offs(Target_drawing_origin,-49,156,0),v50,fine,PencilHolder\WObj:=PAPER;
MoveL Offs(Target_drawing_origin,-49,182,0),v50,fine,PencilHolder\WObj:=PAPER;
MoveL Offs(Target_drawing_origin,-49,194,0),v50,fine,PencilHolder\WObj:=PAPER;
MoveL Offs(Target_drawing_origin,-49,214,0),v50,fine,PencilHolder\WObj:=PAPER;
MoveL Offs(Target_drawing_origin,-49,228,0),v50,fine,PencilHolder\WObj:=PAPER;
MoveL Offs(Target_drawing_origin,-49,248,0),v50,fine,PencilHolder\WObj:=PAPER;
MoveL Offs(Target_drawing_origin,-50,48,0),v50,fine,PencilHolder\WObj:=PAPER;
MoveL Offs(Target_drawing_origin,-50,112,0),v50,fine,PencilHolder\WObj:=PAPER;
MoveL Offs(Target_drawing_origin,-50,156,0),v50,fine,PencilHolder\WObj:=PAPER;
MoveL Offs(Target_drawing_origin,-50,182,0),v50,fine,PencilHolder\WObj:=PAPER;
MoveL Offs(Target_drawing_origin,-50,194,0),v50,fine,PencilHolder\WObj:=PAPER;
MoveL Offs(Target_drawing_origin,-50,214,0),v50,fine,PencilHolder\WObj:=PAPER;
MoveL Offs(Target_drawing_origin,-50,228,0),v50,fine,PencilHolder\WObj:=PAPER;
MoveL Offs(Target_drawing_origin,-50,248,0),v50,fine,PencilHolder\WObj:=PAPER;
MoveL Offs(Target_drawing_origin,-51,54,0),v50,fine,PencilHolder\WObj:=PAPER;
MoveL Offs(Target_drawing_origin,-51,112,0),v50,fine,PencilHolder\WObj:=PAPER;
MoveL Offs(Target_drawing_origin,-51,156,0),v50,fine,PencilHolder\WObj:=PAPER;
MoveL Offs(Target_drawing_origin,-51,182,0),v50,fine,PencilHolder\WObj:=PAPER;
MoveL Offs(Target_drawing_origin,-51,190,0),v50,fine,PencilHolder\WObj:=PAPER;
MoveL Offs(Target_drawing_origin,-51,214,0),v50,fine,PencilHolder\WObj:=PAPER;
MoveL Offs(Target_drawing_origin,-51,228,0),v50,fine,PencilHolder\WObj:=PAPER;
MoveL Offs(Target_drawing_origin,-51,248,0),v50,fine,PencilHolder\WObj:=PAPER;
MoveL Offs(Target_drawing_origin,-52,54,0),v50,fine,PencilHolder\WObj:=PAPER;
MoveL Offs(Target_drawing_origin,-52,112,0),v50,fine,PencilHolder\WObj:=PAPER;
MoveL Offs(Target_drawing_origin,-52,156,0),v50,fine,PencilHolder\WObj:=PAPER;
MoveL Offs(Target_drawing_origin,-52,182,0),v50,fine,PencilHolder\WObj:=PAPER;
MoveL Offs(Target_drawing_origin,-52,190,0),v50,fine,PencilHolder\WObj:=PAPER;
MoveL Offs(Target_drawing_origin,-52,214,0),v50,fine,PencilHolder\WObj:=PAPER;
MoveL Offs(Target_drawing_origin,-52,228,0),v50,fine,PencilHolder\WObj:=PAPER;
MoveL Offs(Target_drawing_origin,-52,248,0),v50,fine,PencilHolder\WObj:=PAPER;
MoveL Offs(Target_drawing_origin,-53,54,0),v50,fine,PencilHolder\WObj:=PAPER;
MoveL Offs(Target_drawing_origin,-53,112,0),v50,fine,PencilHolder\WObj:=PAPER;
MoveL Offs(Target_drawing_origin,-53,156,0),v50,fine,PencilHolder\WObj:=PAPER;
MoveL Offs(Target_drawing_origin,-53,182,0),v50,fine,PencilHolder\WObj:=PAPER;
MoveL Offs(Target_drawing_origin,-53,190,0),v50,fine,PencilHolder\WObj:=PAPER;
MoveL Offs(Target_drawing_origin,-53,214,0),v50,fine,PencilHolder\WObj:=PAPER;
MoveL Offs(Target_drawing_origin,-53,228,0),v50,fine,PencilHolder\WObj:=PAPER;
MoveL Offs(Target_drawing_origin,-53,248,0),v50,fine,PencilHolder\WObj:=PAPER;
MoveL Offs(Target_drawing_origin,-54,60,0),v50,fine,PencilHolder\WObj:=PAPER;
MoveL Offs(Target_drawing_origin,-54,106,0),v50,fine,PencilHolder\WObj:=PAPER;
MoveL Offs(Target_drawing_origin,-54,152,0),v50,fine,PencilHolder\WObj:=PAPER;
MoveL Offs(Target_drawing_origin,-54,182,0),v50,fine,PencilHolder\WObj:=PAPER;
MoveL Offs(Target_drawing_origin,-54,190,0),v50,fine,PencilHolder\WObj:=PAPER;
MoveL Offs(Target_drawing_origin,-54,214,0),v50,fine,PencilHolder\WObj:=PAPER;
MoveL Offs(Target_drawing_origin,-54,228,0),v50,fine,PencilHolder\WObj:=PAPER;
MoveL Offs(Target_drawing_origin,-54,248,0),v50,fine,PencilHolder\WObj:=PAPER;
MoveL Offs(Target_drawing_origin,-55,60,0),v50,fine,PencilHolder\WObj:=PAPER;
MoveL Offs(Target_drawing_origin,-55,106,0),v50,fine,PencilHolder\WObj:=PAPER;
MoveL Offs(Target_drawing_origin,-55,152,0),v50,fine,PencilHolder\WObj:=PAPER;
MoveL Offs(Target_drawing_origin,-55,182,0),v50,fine,PencilHolder\WObj:=PAPER;
MoveL Offs(Target_drawing_origin,-55,190,0),v50,fine,PencilHolder\WObj:=PAPER;
MoveL Offs(Target_drawing_origin,-55,214,0),v50,fine,PencilHolder\WObj:=PAPER;
MoveL Offs(Target_drawing_origin,-55,228,0),v50,fine,PencilHolder\WObj:=PAPER;
MoveL Offs(Target_drawing_origin,-55,248,0),v50,fine,PencilHolder\WObj:=PAPER;
MoveL Offs(Target_drawing_origin,-56,60,0),v50,fine,PencilHolder\WObj:=PAPER;
MoveL Offs(Target_drawing_origin,-56,106,0),v50,fine,PencilHolder\WObj:=PAPER;
MoveL Offs(Target_drawing_origin,-56,152,0),v50,fine,PencilHolder\WObj:=PAPER;
MoveL Offs(Target_drawing_origin,-56,182,0),v50,fine,PencilHolder\WObj:=PAPER;
MoveL Offs(Target_drawing_origin,-56,190,0),v50,fine,PencilHolder\WObj:=PAPER;
MoveL Offs(Target_drawing_origin,-56,214,0),v50,fine,PencilHolder\WObj:=PAPER;
MoveL Offs(Target_drawing_origin,-56,228,0),v50,fine,PencilHolder\WObj:=PAPER;
MoveL Offs(Target_drawing_origin,-56,248,0),v50,fine,PencilHolder\WObj:=PAPER;
MoveL Offs(Target_drawing_origin,-57,64,0),v50,fine,PencilHolder\WObj:=PAPER;
MoveL Offs(Target_drawing_origin,-57,102,0),v50,fine,PencilHolder\WObj:=PAPER;
MoveL Offs(Target_drawing_origin,-57,152,0),v50,fine,PencilHolder\WObj:=PAPER;
MoveL Offs(Target_drawing_origin,-57,182,0),v50,fine,PencilHolder\WObj:=PAPER;
MoveL Offs(Target_drawing_origin,-57,190,0),v50,fine,PencilHolder\WObj:=PAPER;
MoveL Offs(Target_drawing_origin,-57,214,0),v50,fine,PencilHolder\WObj:=PAPER;
MoveL Offs(Target_drawing_origin,-57,228,0),v50,fine,PencilHolder\WObj:=PAPER;
MoveL Offs(Target_drawing_origin,-57,248,0),v50,fine,PencilHolder\WObj:=PAPER;
MoveL Offs(Target_drawing_origin,-58,64,0),v50,fine,PencilHolder\WObj:=PAPER;
MoveL Offs(Target_drawing_origin,-58,102,0),v50,fine,PencilHolder\WObj:=PAPER;
MoveL Offs(Target_drawing_origin,-58,152,0),v50,fine,PencilHolder\WObj:=PAPER;
MoveL Offs(Target_drawing_origin,-58,182,0),v50,fine,PencilHolder\WObj:=PAPER;
MoveL Offs(Target_drawing_origin,-58,190,0),v50,fine,PencilHolder\WObj:=PAPER;
MoveL Offs(Target_drawing_origin,-58,214,0),v50,fine,PencilHolder\WObj:=PAPER;
MoveL Offs(Target_drawing_origin,-58,228,0),v50,fine,PencilHolder\WObj:=PAPER;
MoveL Offs(Target_drawing_origin,-58,248,0),v50,fine,PencilHolder\WObj:=PAPER;
MoveL Offs(Target_drawing_origin,-59,70,0),v50,fine,PencilHolder\WObj:=PAPER;
MoveL Offs(Target_drawing_origin,-59,96,0),v50,fine,PencilHolder\WObj:=PAPER;
MoveL Offs(Target_drawing_origin,-59,152,0),v50,fine,PencilHolder\WObj:=PAPER;
MoveL Offs(Target_drawing_origin,-59,178,0),v50,fine,PencilHolder\WObj:=PAPER;
MoveL Offs(Target_drawing_origin,-59,184,0),v50,fine,PencilHolder\WObj:=PAPER;
MoveL Offs(Target_drawing_origin,-59,214,0),v50,fine,PencilHolder\WObj:=PAPER;
MoveL Offs(Target_drawing_origin,-59,228,0),v50,fine,PencilHolder\WObj:=PAPER;
MoveL Offs(Target_drawing_origin,-59,248,0),v50,fine,PencilHolder\WObj:=PAPER;
MoveL Offs(Target_drawing_origin,-60,70,0),v50,fine,PencilHolder\WObj:=PAPER;
MoveL Offs(Target_drawing_origin,-60,96,0),v50,fine,PencilHolder\WObj:=PAPER;
MoveL Offs(Target_drawing_origin,-60,152,0),v50,fine,PencilHolder\WObj:=PAPER;
MoveL Offs(Target_drawing_origin,-60,176,0),v50,fine,PencilHolder\WObj:=PAPER;
MoveL Offs(Target_drawing_origin,-60,184,0),v50,fine,PencilHolder\WObj:=PAPER;
MoveL Offs(Target_drawing_origin,-60,214,0),v50,fine,PencilHolder\WObj:=PAPER;
MoveL Offs(Target_drawing_origin,-60,228,0),v50,fine,PencilHolder\WObj:=PAPER;
MoveL Offs(Target_drawing_origin,-60,248,0),v50,fine,PencilHolder\WObj:=PAPER;
MoveL Offs(Target_drawing_origin,-61,70,0),v50,fine,PencilHolder\WObj:=PAPER;
MoveL Offs(Target_drawing_origin,-61,96,0),v50,fine,PencilHolder\WObj:=PAPER;
MoveL Offs(Target_drawing_origin,-61,152,0),v50,fine,PencilHolder\WObj:=PAPER;
MoveL Offs(Target_drawing_origin,-61,176,0),v50,fine,PencilHolder\WObj:=PAPER;
MoveL Offs(Target_drawing_origin,-61,184,0),v50,fine,PencilHolder\WObj:=PAPER;
MoveL Offs(Target_drawing_origin,-61,214,0),v50,fine,PencilHolder\WObj:=PAPER;
MoveL Offs(Target_drawing_origin,-61,228,0),v50,fine,PencilHolder\WObj:=PAPER;
MoveL Offs(Target_drawing_origin,-61,248,0),v50,fine,PencilHolder\WObj:=PAPER;
MoveL Offs(Target_drawing_origin,-62,152,0),v50,fine,PencilHolder\WObj:=PAPER;
MoveL Offs(Target_drawing_origin,-62,172,0),v50,fine,PencilHolder\WObj:=PAPER;
MoveL Offs(Target_drawing_origin,-62,184,0),v50,fine,PencilHolder\WObj:=PAPER;
MoveL Offs(Target_drawing_origin,-62,210,0),v50,fine,PencilHolder\WObj:=PAPER;
MoveL Offs(Target_drawing_origin,-62,228,0),v50,fine,PencilHolder\WObj:=PAPER;
MoveL Offs(Target_drawing_origin,-62,252,0),v50,fine,PencilHolder\WObj:=PAPER;
MoveL Offs(Target_drawing_origin,-63,152,0),v50,fine,PencilHolder\WObj:=PAPER;
MoveL Offs(Target_drawing_origin,-63,172,0),v50,fine,PencilHolder\WObj:=PAPER;
MoveL Offs(Target_drawing_origin,-63,184,0),v50,fine,PencilHolder\WObj:=PAPER;
MoveL Offs(Target_drawing_origin,-63,210,0),v50,fine,PencilHolder\WObj:=PAPER;
MoveL Offs(Target_drawing_origin,-63,228,0),v50,fine,PencilHolder\WObj:=PAPER;
MoveL Offs(Target_drawing_origin,-63,252,0),v50,fine,PencilHolder\WObj:=PAPER;
MoveL Offs(Target_drawing_origin,-64,152,0),v50,fine,PencilHolder\WObj:=PAPER;
MoveL Offs(Target_drawing_origin,-64,210,0),v50,fine,PencilHolder\WObj:=PAPER;
MoveL Offs(Target_drawing_origin,-64,228,0),v50,fine,PencilHolder\WObj:=PAPER;
MoveL Offs(Target_drawing_origin,-64,252,0),v50,fine,PencilHolder\WObj:=PAPER;
MoveL Offs(Target_drawing_origin,-65,152,0),v50,fine,PencilHolder\WObj:=PAPER;
MoveL Offs(Target_drawing_origin,-65,210,0),v50,fine,PencilHolder\WObj:=PAPER;
MoveL Offs(Target_drawing_origin,-65,228,0),v50,fine,PencilHolder\WObj:=PAPER;
MoveL Offs(Target_drawing_origin,-65,252,0),v50,fine,PencilHolder\WObj:=PAPER;
MoveL Offs(Target_drawing_origin,-66,152,0),v50,fine,PencilHolder\WObj:=PAPER;
MoveL Offs(Target_drawing_origin,-66,210,0),v50,fine,PencilHolder\WObj:=PAPER;
MoveL Offs(Target_drawing_origin,-66,228,0),v50,fine,PencilHolder\WObj:=PAPER;
MoveL Offs(Target_drawing_origin,-66,252,0),v50,fine,PencilHolder\WObj:=PAPER;
MoveL Offs(Target_drawing_origin,-67,152,0),v50,fine,PencilHolder\WObj:=PAPER;
MoveL Offs(Target_drawing_origin,-67,210,0),v50,fine,PencilHolder\WObj:=PAPER;
MoveL Offs(Target_drawing_origin,-67,228,0),v50,fine,PencilHolder\WObj:=PAPER;
MoveL Offs(Target_drawing_origin,-67,252,0),v50,fine,PencilHolder\WObj:=PAPER;
MoveL Offs(Target_drawing_origin,-68,152,0),v50,fine,PencilHolder\WObj:=PAPER;
MoveL Offs(Target_drawing_origin,-68,210,0),v50,fine,PencilHolder\WObj:=PAPER;
MoveL Offs(Target_drawing_origin,-68,228,0),v50,fine,PencilHolder\WObj:=PAPER;
MoveL Offs(Target_drawing_origin,-68,252,0),v50,fine,PencilHolder\WObj:=PAPER;
MoveL Offs(Target_drawing_origin,-69,152,0),v50,fine,PencilHolder\WObj:=PAPER;
MoveL Offs(Target_drawing_origin,-69,210,0),v50,fine,PencilHolder\WObj:=PAPER;
MoveL Offs(Target_drawing_origin,-69,228,0),v50,fine,PencilHolder\WObj:=PAPER;
MoveL Offs(Target_drawing_origin,-69,252,0),v50,fine,PencilHolder\WObj:=PAPER;
MoveL Offs(Target_drawing_origin,-70,152,0),v50,fine,PencilHolder\WObj:=PAPER;
MoveL Offs(Target_drawing_origin,-70,204,0),v50,fine,PencilHolder\WObj:=PAPER;
MoveL Offs(Target_drawing_origin,-70,232,0),v50,fine,PencilHolder\WObj:=PAPER;
MoveL Offs(Target_drawing_origin,-70,252,0),v50,fine,PencilHolder\WObj:=PAPER;
MoveL Offs(Target_drawing_origin,-71,152,0),v50,fine,PencilHolder\WObj:=PAPER;
MoveL Offs(Target_drawing_origin,-71,204,0),v50,fine,PencilHolder\WObj:=PAPER;
MoveL Offs(Target_drawing_origin,-71,232,0),v50,fine,PencilHolder\WObj:=PAPER;
MoveL Offs(Target_drawing_origin,-71,252,0),v50,fine,PencilHolder\WObj:=PAPER;
MoveL Offs(Target_drawing_origin,-72,152,0),v50,fine,PencilHolder\WObj:=PAPER;
MoveL Offs(Target_drawing_origin,-72,204,0),v50,fine,PencilHolder\WObj:=PAPER;
MoveL Offs(Target_drawing_origin,-72,232,0),v50,fine,PencilHolder\WObj:=PAPER;
MoveL Offs(Target_drawing_origin,-72,258,0),v50,fine,PencilHolder\WObj:=PAPER;
MoveL Offs(Target_drawing_origin,-73,156,0),v50,fine,PencilHolder\WObj:=PAPER;
MoveL Offs(Target_drawing_origin,-73,198,0),v50,fine,PencilHolder\WObj:=PAPER;
MoveL Offs(Target_drawing_origin,-73,232,0),v50,fine,PencilHolder\WObj:=PAPER;
MoveL Offs(Target_drawing_origin,-73,258,0),v50,fine,PencilHolder\WObj:=PAPER;
MoveL Offs(Target_drawing_origin,-74,156,0),v50,fine,PencilHolder\WObj:=PAPER;
MoveL Offs(Target_drawing_origin,-74,198,0),v50,fine,PencilHolder\WObj:=PAPER;
MoveL Offs(Target_drawing_origin,-74,232,0),v50,fine,PencilHolder\WObj:=PAPER;
MoveL Offs(Target_drawing_origin,-74,258,0),v50,fine,PencilHolder\WObj:=PAPER;
MoveL Offs(Target_drawing_origin,-75,162,0),v50,fine,PencilHolder\WObj:=PAPER;
MoveL Offs(Target_drawing_origin,-75,194,0),v50,fine,PencilHolder\WObj:=PAPER;
MoveL Offs(Target_drawing_origin,-75,232,0),v50,fine,PencilHolder\WObj:=PAPER;
MoveL Offs(Target_drawing_origin,-75,258,0),v50,fine,PencilHolder\WObj:=PAPER;
MoveL Offs(Target_drawing_origin,-76,162,0),v50,fine,PencilHolder\WObj:=PAPER;
MoveL Offs(Target_drawing_origin,-76,194,0),v50,fine,PencilHolder\WObj:=PAPER;
MoveL Offs(Target_drawing_origin,-76,232,0),v50,fine,PencilHolder\WObj:=PAPER;
MoveL Offs(Target_drawing_origin,-76,258,0),v50,fine,PencilHolder\WObj:=PAPER;
MoveL Offs(Target_drawing_origin,-77,162,0),v50,fine,PencilHolder\WObj:=PAPER;
MoveL Offs(Target_drawing_origin,-77,194,0),v50,fine,PencilHolder\WObj:=PAPER;
MoveL Offs(Target_drawing_origin,-77,232,0),v50,fine,PencilHolder\WObj:=PAPER;
MoveL Offs(Target_drawing_origin,-77,258,0),v50,fine,PencilHolder\WObj:=PAPER;
MoveL Offs(Target_drawing_origin,-78,232,0),v50,fine,PencilHolder\WObj:=PAPER;
MoveL Offs(Target_drawing_origin,-78,258,0),v50,fine,PencilHolder\WObj:=PAPER;
MoveL Offs(Target_drawing_origin,-79,232,0),v50,fine,PencilHolder\WObj:=PAPER;
MoveL Offs(Target_drawing_origin,-79,258,0),v50,fine,PencilHolder\WObj:=PAPER;
MoveL Offs(Target_drawing_origin,-80,234,0),v50,fine,PencilHolder\WObj:=PAPER;
MoveL Offs(Target_drawing_origin,-80,258,0),v50,fine,PencilHolder\WObj:=PAPER;
MoveL Offs(Target_drawing_origin,-81,238,0),v50,fine,PencilHolder\WObj:=PAPER;
MoveL Offs(Target_drawing_origin,-81,258,0),v50,fine,PencilHolder\WObj:=PAPER;
MoveL Offs(Target_drawing_origin,-82,238,0),v50,fine,PencilHolder\WObj:=PAPER;
MoveL Offs(Target_drawing_origin,-82,258,0),v50,fine,PencilHolder\WObj:=PAPER;
MoveL Offs(Target_drawing_origin,-83,238,0),v50,fine,PencilHolder\WObj:=PAPER;
MoveL Offs(Target_drawing_origin,-83,258,0),v50,fine,PencilHolder\WObj:=PAPER;
MoveL Offs(Target_drawing_origin,-84,238,0),v50,fine,PencilHolder\WObj:=PAPER;
MoveL Offs(Target_drawing_origin,-84,258,0),v50,fine,PencilHolder\WObj:=PAPER;
MoveL Offs(Target_drawing_origin,-85,238,0),v50,fine,PencilHolder\WObj:=PAPER;
MoveL Offs(Target_drawing_origin,-85,258,0),v50,fine,PencilHolder\WObj:=PAPER;


! Draw black
MoveJ Offs(Target_drawing_origin,0,0,0),v100,fine,PencilHolder\WObj:=PAPER;
MoveL Offs(Target_drawing_origin,0,0,0),v50,fine,PencilHolder\WObj:=PAPER;
MoveL Offs(Target_drawing_origin,-52,0,0),v50,fine,PencilHolder\WObj:=PAPER;
MoveL Offs(Target_drawing_origin,0,1,0),v50,fine,PencilHolder\WObj:=PAPER;
MoveL Offs(Target_drawing_origin,-52,1,0),v50,fine,PencilHolder\WObj:=PAPER;
MoveL Offs(Target_drawing_origin,0,2,0),v50,fine,PencilHolder\WObj:=PAPER;
MoveL Offs(Target_drawing_origin,-52,2,0),v50,fine,PencilHolder\WObj:=PAPER;
MoveL Offs(Target_drawing_origin,0,3,0),v50,fine,PencilHolder\WObj:=PAPER;
MoveL Offs(Target_drawing_origin,-56,3,0),v50,fine,PencilHolder\WObj:=PAPER;
MoveL Offs(Target_drawing_origin,0,4,0),v50,fine,PencilHolder\WObj:=PAPER;
MoveL Offs(Target_drawing_origin,-56,4,0),v50,fine,PencilHolder\WObj:=PAPER;
MoveL Offs(Target_drawing_origin,0,5,0),v50,fine,PencilHolder\WObj:=PAPER;
MoveL Offs(Target_drawing_origin,-56,5,0),v50,fine,PencilHolder\WObj:=PAPER;
MoveL Offs(Target_drawing_origin,0,6,0),v50,fine,PencilHolder\WObj:=PAPER;
MoveL Offs(Target_drawing_origin,-56,6,0),v50,fine,PencilHolder\WObj:=PAPER;
MoveL Offs(Target_drawing_origin,0,7,0),v50,fine,PencilHolder\WObj:=PAPER;
MoveL Offs(Target_drawing_origin,-56,7,0),v50,fine,PencilHolder\WObj:=PAPER;
MoveL Offs(Target_drawing_origin,0,8,0),v50,fine,PencilHolder\WObj:=PAPER;
MoveL Offs(Target_drawing_origin,-14,8,0),v50,fine,PencilHolder\WObj:=PAPER;
MoveL Offs(Target_drawing_origin,-28,8,0),v50,fine,PencilHolder\WObj:=PAPER;
MoveL Offs(Target_drawing_origin,-56,8,0),v50,fine,PencilHolder\WObj:=PAPER;
MoveL Offs(Target_drawing_origin,0,9,0),v50,fine,PencilHolder\WObj:=PAPER;
MoveL Offs(Target_drawing_origin,-14,9,0),v50,fine,PencilHolder\WObj:=PAPER;
MoveL Offs(Target_drawing_origin,-28,9,0),v50,fine,PencilHolder\WObj:=PAPER;
MoveL Offs(Target_drawing_origin,-56,9,0),v50,fine,PencilHolder\WObj:=PAPER;
MoveL Offs(Target_drawing_origin,0,10,0),v50,fine,PencilHolder\WObj:=PAPER;
MoveL Offs(Target_drawing_origin,-14,10,0),v50,fine,PencilHolder\WObj:=PAPER;
MoveL Offs(Target_drawing_origin,-28,10,0),v50,fine,PencilHolder\WObj:=PAPER;
MoveL Offs(Target_drawing_origin,-56,10,0),v50,fine,PencilHolder\WObj:=PAPER;
MoveL Offs(Target_drawing_origin,-28,11,0),v50,fine,PencilHolder\WObj:=PAPER;
MoveL Offs(Target_drawing_origin,-56,11,0),v50,fine,PencilHolder\WObj:=PAPER;
MoveL Offs(Target_drawing_origin,-28,12,0),v50,fine,PencilHolder\WObj:=PAPER;
MoveL Offs(Target_drawing_origin,-56,12,0),v50,fine,PencilHolder\WObj:=PAPER;
MoveL Offs(Target_drawing_origin,-26,13,0),v50,fine,PencilHolder\WObj:=PAPER;
MoveL Offs(Target_drawing_origin,-56,13,0),v50,fine,PencilHolder\WObj:=PAPER;
MoveL Offs(Target_drawing_origin,-16,14,0),v50,fine,PencilHolder\WObj:=PAPER;
MoveL Offs(Target_drawing_origin,-56,14,0),v50,fine,PencilHolder\WObj:=PAPER;
MoveL Offs(Target_drawing_origin,-16,15,0),v50,fine,PencilHolder\WObj:=PAPER;
MoveL Offs(Target_drawing_origin,-56,15,0),v50,fine,PencilHolder\WObj:=PAPER;
MoveL Offs(Target_drawing_origin,-16,16,0),v50,fine,PencilHolder\WObj:=PAPER;
MoveL Offs(Target_drawing_origin,-56,16,0),v50,fine,PencilHolder\WObj:=PAPER;
MoveL Offs(Target_drawing_origin,-16,17,0),v50,fine,PencilHolder\WObj:=PAPER;
MoveL Offs(Target_drawing_origin,-56,17,0),v50,fine,PencilHolder\WObj:=PAPER;
MoveL Offs(Target_drawing_origin,-16,18,0),v50,fine,PencilHolder\WObj:=PAPER;
MoveL Offs(Target_drawing_origin,-56,18,0),v50,fine,PencilHolder\WObj:=PAPER;
MoveL Offs(Target_drawing_origin,-12,19,0),v50,fine,PencilHolder\WObj:=PAPER;
MoveL Offs(Target_drawing_origin,-52,19,0),v50,fine,PencilHolder\WObj:=PAPER;
MoveL Offs(Target_drawing_origin,-12,20,0),v50,fine,PencilHolder\WObj:=PAPER;
MoveL Offs(Target_drawing_origin,-52,20,0),v50,fine,PencilHolder\WObj:=PAPER;
MoveL Offs(Target_drawing_origin,-12,21,0),v50,fine,PencilHolder\WObj:=PAPER;
MoveL Offs(Target_drawing_origin,-42,21,0),v50,fine,PencilHolder\WObj:=PAPER;
MoveL Offs(Target_drawing_origin,-6,22,0),v50,fine,PencilHolder\WObj:=PAPER;
MoveL Offs(Target_drawing_origin,-40,22,0),v50,fine,PencilHolder\WObj:=PAPER;
MoveL Offs(Target_drawing_origin,-76,22,0),v50,fine,PencilHolder\WObj:=PAPER;
MoveL Offs(Target_drawing_origin,-94,22,0),v50,fine,PencilHolder\WObj:=PAPER;
MoveL Offs(Target_drawing_origin,-6,23,0),v50,fine,PencilHolder\WObj:=PAPER;
MoveL Offs(Target_drawing_origin,-40,23,0),v50,fine,PencilHolder\WObj:=PAPER;
MoveL Offs(Target_drawing_origin,-76,23,0),v50,fine,PencilHolder\WObj:=PAPER;
MoveL Offs(Target_drawing_origin,-94,23,0),v50,fine,PencilHolder\WObj:=PAPER;
MoveL Offs(Target_drawing_origin,-6,24,0),v50,fine,PencilHolder\WObj:=PAPER;
MoveL Offs(Target_drawing_origin,-36,24,0),v50,fine,PencilHolder\WObj:=PAPER;
MoveL Offs(Target_drawing_origin,-74,24,0),v50,fine,PencilHolder\WObj:=PAPER;
MoveL Offs(Target_drawing_origin,-96,24,0),v50,fine,PencilHolder\WObj:=PAPER;
MoveL Offs(Target_drawing_origin,0,25,0),v50,fine,PencilHolder\WObj:=PAPER;
MoveL Offs(Target_drawing_origin,-36,25,0),v50,fine,PencilHolder\WObj:=PAPER;
MoveL Offs(Target_drawing_origin,-70,25,0),v50,fine,PencilHolder\WObj:=PAPER;
MoveL Offs(Target_drawing_origin,-100,25,0),v50,fine,PencilHolder\WObj:=PAPER;
MoveL Offs(Target_drawing_origin,0,26,0),v50,fine,PencilHolder\WObj:=PAPER;
MoveL Offs(Target_drawing_origin,-36,26,0),v50,fine,PencilHolder\WObj:=PAPER;
MoveL Offs(Target_drawing_origin,-70,26,0),v50,fine,PencilHolder\WObj:=PAPER;
MoveL Offs(Target_drawing_origin,-100,26,0),v50,fine,PencilHolder\WObj:=PAPER;
MoveL Offs(Target_drawing_origin,0,27,0),v50,fine,PencilHolder\WObj:=PAPER;
MoveL Offs(Target_drawing_origin,-30,27,0),v50,fine,PencilHolder\WObj:=PAPER;
MoveL Offs(Target_drawing_origin,-60,27,0),v50,fine,PencilHolder\WObj:=PAPER;
MoveL Offs(Target_drawing_origin,-104,27,0),v50,fine,PencilHolder\WObj:=PAPER;
MoveL Offs(Target_drawing_origin,0,28,0),v50,fine,PencilHolder\WObj:=PAPER;
MoveL Offs(Target_drawing_origin,-30,28,0),v50,fine,PencilHolder\WObj:=PAPER;
MoveL Offs(Target_drawing_origin,-60,28,0),v50,fine,PencilHolder\WObj:=PAPER;
MoveL Offs(Target_drawing_origin,-104,28,0),v50,fine,PencilHolder\WObj:=PAPER;
MoveL Offs(Target_drawing_origin,0,29,0),v50,fine,PencilHolder\WObj:=PAPER;
MoveL Offs(Target_drawing_origin,-30,29,0),v50,fine,PencilHolder\WObj:=PAPER;
MoveL Offs(Target_drawing_origin,-60,29,0),v50,fine,PencilHolder\WObj:=PAPER;
MoveL Offs(Target_drawing_origin,-106,29,0),v50,fine,PencilHolder\WObj:=PAPER;
MoveL Offs(Target_drawing_origin,0,30,0),v50,fine,PencilHolder\WObj:=PAPER;
MoveL Offs(Target_drawing_origin,-110,30,0),v50,fine,PencilHolder\WObj:=PAPER;
MoveL Offs(Target_drawing_origin,0,31,0),v50,fine,PencilHolder\WObj:=PAPER;
MoveL Offs(Target_drawing_origin,-110,31,0),v50,fine,PencilHolder\WObj:=PAPER;
MoveL Offs(Target_drawing_origin,0,32,0),v50,fine,PencilHolder\WObj:=PAPER;
MoveL Offs(Target_drawing_origin,-110,32,0),v50,fine,PencilHolder\WObj:=PAPER;
MoveL Offs(Target_drawing_origin,0,33,0),v50,fine,PencilHolder\WObj:=PAPER;
MoveL Offs(Target_drawing_origin,-116,33,0),v50,fine,PencilHolder\WObj:=PAPER;
MoveL Offs(Target_drawing_origin,0,34,0),v50,fine,PencilHolder\WObj:=PAPER;
MoveL Offs(Target_drawing_origin,-116,34,0),v50,fine,PencilHolder\WObj:=PAPER;
MoveL Offs(Target_drawing_origin,-6,35,0),v50,fine,PencilHolder\WObj:=PAPER;
MoveL Offs(Target_drawing_origin,-120,35,0),v50,fine,PencilHolder\WObj:=PAPER;
MoveL Offs(Target_drawing_origin,-6,36,0),v50,fine,PencilHolder\WObj:=PAPER;
MoveL Offs(Target_drawing_origin,-122,36,0),v50,fine,PencilHolder\WObj:=PAPER;
MoveL Offs(Target_drawing_origin,-6,37,0),v50,fine,PencilHolder\WObj:=PAPER;
MoveL Offs(Target_drawing_origin,-122,37,0),v50,fine,PencilHolder\WObj:=PAPER;
MoveL Offs(Target_drawing_origin,-12,38,0),v50,fine,PencilHolder\WObj:=PAPER;
MoveL Offs(Target_drawing_origin,-72,38,0),v50,fine,PencilHolder\WObj:=PAPER;
MoveL Offs(Target_drawing_origin,-92,38,0),v50,fine,PencilHolder\WObj:=PAPER;
MoveL Offs(Target_drawing_origin,-122,38,0),v50,fine,PencilHolder\WObj:=PAPER;
MoveL Offs(Target_drawing_origin,-12,39,0),v50,fine,PencilHolder\WObj:=PAPER;
MoveL Offs(Target_drawing_origin,-72,39,0),v50,fine,PencilHolder\WObj:=PAPER;
MoveL Offs(Target_drawing_origin,-92,39,0),v50,fine,PencilHolder\WObj:=PAPER;
MoveL Offs(Target_drawing_origin,-122,39,0),v50,fine,PencilHolder\WObj:=PAPER;
MoveL Offs(Target_drawing_origin,-16,40,0),v50,fine,PencilHolder\WObj:=PAPER;
MoveL Offs(Target_drawing_origin,-68,40,0),v50,fine,PencilHolder\WObj:=PAPER;
MoveL Offs(Target_drawing_origin,-92,40,0),v50,fine,PencilHolder\WObj:=PAPER;
MoveL Offs(Target_drawing_origin,-122,40,0),v50,fine,PencilHolder\WObj:=PAPER;
MoveL Offs(Target_drawing_origin,-16,41,0),v50,fine,PencilHolder\WObj:=PAPER;
MoveL Offs(Target_drawing_origin,-68,41,0),v50,fine,PencilHolder\WObj:=PAPER;
MoveL Offs(Target_drawing_origin,-92,41,0),v50,fine,PencilHolder\WObj:=PAPER;
MoveL Offs(Target_drawing_origin,-122,41,0),v50,fine,PencilHolder\WObj:=PAPER;
MoveL Offs(Target_drawing_origin,-16,42,0),v50,fine,PencilHolder\WObj:=PAPER;
MoveL Offs(Target_drawing_origin,-68,42,0),v50,fine,PencilHolder\WObj:=PAPER;
MoveL Offs(Target_drawing_origin,-92,42,0),v50,fine,PencilHolder\WObj:=PAPER;
MoveL Offs(Target_drawing_origin,-122,42,0),v50,fine,PencilHolder\WObj:=PAPER;
MoveL Offs(Target_drawing_origin,-22,43,0),v50,fine,PencilHolder\WObj:=PAPER;
MoveL Offs(Target_drawing_origin,-62,43,0),v50,fine,PencilHolder\WObj:=PAPER;
MoveL Offs(Target_drawing_origin,-90,43,0),v50,fine,PencilHolder\WObj:=PAPER;
MoveL Offs(Target_drawing_origin,-122,43,0),v50,fine,PencilHolder\WObj:=PAPER;
MoveL Offs(Target_drawing_origin,-22,44,0),v50,fine,PencilHolder\WObj:=PAPER;
MoveL Offs(Target_drawing_origin,-62,44,0),v50,fine,PencilHolder\WObj:=PAPER;
MoveL Offs(Target_drawing_origin,-86,44,0),v50,fine,PencilHolder\WObj:=PAPER;
MoveL Offs(Target_drawing_origin,-122,44,0),v50,fine,PencilHolder\WObj:=PAPER;
MoveL Offs(Target_drawing_origin,-22,45,0),v50,fine,PencilHolder\WObj:=PAPER;
MoveL Offs(Target_drawing_origin,-62,45,0),v50,fine,PencilHolder\WObj:=PAPER;
MoveL Offs(Target_drawing_origin,-86,45,0),v50,fine,PencilHolder\WObj:=PAPER;
MoveL Offs(Target_drawing_origin,-122,45,0),v50,fine,PencilHolder\WObj:=PAPER;
MoveL Offs(Target_drawing_origin,-82,46,0),v50,fine,PencilHolder\WObj:=PAPER;
MoveL Offs(Target_drawing_origin,-122,46,0),v50,fine,PencilHolder\WObj:=PAPER;
MoveL Offs(Target_drawing_origin,-82,47,0),v50,fine,PencilHolder\WObj:=PAPER;
MoveL Offs(Target_drawing_origin,-122,47,0),v50,fine,PencilHolder\WObj:=PAPER;
MoveL Offs(Target_drawing_origin,-80,48,0),v50,fine,PencilHolder\WObj:=PAPER;
MoveL Offs(Target_drawing_origin,-118,48,0),v50,fine,PencilHolder\WObj:=PAPER;
MoveL Offs(Target_drawing_origin,-66,49,0),v50,fine,PencilHolder\WObj:=PAPER;
MoveL Offs(Target_drawing_origin,-116,49,0),v50,fine,PencilHolder\WObj:=PAPER;
MoveL Offs(Target_drawing_origin,-66,50,0),v50,fine,PencilHolder\WObj:=PAPER;
MoveL Offs(Target_drawing_origin,-116,50,0),v50,fine,PencilHolder\WObj:=PAPER;
MoveL Offs(Target_drawing_origin,-64,51,0),v50,fine,PencilHolder\WObj:=PAPER;
MoveL Offs(Target_drawing_origin,-110,51,0),v50,fine,PencilHolder\WObj:=PAPER;
MoveL Offs(Target_drawing_origin,-48,52,0),v50,fine,PencilHolder\WObj:=PAPER;
MoveL Offs(Target_drawing_origin,-110,52,0),v50,fine,PencilHolder\WObj:=PAPER;
MoveL Offs(Target_drawing_origin,-48,53,0),v50,fine,PencilHolder\WObj:=PAPER;
MoveL Offs(Target_drawing_origin,-110,53,0),v50,fine,PencilHolder\WObj:=PAPER;
MoveL Offs(Target_drawing_origin,-44,54,0),v50,fine,PencilHolder\WObj:=PAPER;
MoveL Offs(Target_drawing_origin,-106,54,0),v50,fine,PencilHolder\WObj:=PAPER;
MoveL Offs(Target_drawing_origin,-44,55,0),v50,fine,PencilHolder\WObj:=PAPER;
MoveL Offs(Target_drawing_origin,-104,55,0),v50,fine,PencilHolder\WObj:=PAPER;
MoveL Offs(Target_drawing_origin,-44,56,0),v50,fine,PencilHolder\WObj:=PAPER;
MoveL Offs(Target_drawing_origin,-104,56,0),v50,fine,PencilHolder\WObj:=PAPER;
MoveL Offs(Target_drawing_origin,-38,57,0),v50,fine,PencilHolder\WObj:=PAPER;
MoveL Offs(Target_drawing_origin,-94,57,0),v50,fine,PencilHolder\WObj:=PAPER;
MoveL Offs(Target_drawing_origin,-38,58,0),v50,fine,PencilHolder\WObj:=PAPER;
MoveL Offs(Target_drawing_origin,-94,58,0),v50,fine,PencilHolder\WObj:=PAPER;
MoveL Offs(Target_drawing_origin,-38,59,0),v50,fine,PencilHolder\WObj:=PAPER;
MoveL Offs(Target_drawing_origin,-84,59,0),v50,fine,PencilHolder\WObj:=PAPER;
MoveL Offs(Target_drawing_origin,-38,60,0),v50,fine,PencilHolder\WObj:=PAPER;
MoveL Offs(Target_drawing_origin,-84,60,0),v50,fine,PencilHolder\WObj:=PAPER;
MoveL Offs(Target_drawing_origin,-38,61,0),v50,fine,PencilHolder\WObj:=PAPER;
MoveL Offs(Target_drawing_origin,-84,61,0),v50,fine,PencilHolder\WObj:=PAPER;
MoveL Offs(Target_drawing_origin,-36,62,0),v50,fine,PencilHolder\WObj:=PAPER;
MoveL Offs(Target_drawing_origin,-68,62,0),v50,fine,PencilHolder\WObj:=PAPER;
MoveL Offs(Target_drawing_origin,-32,63,0),v50,fine,PencilHolder\WObj:=PAPER;
MoveL Offs(Target_drawing_origin,-68,63,0),v50,fine,PencilHolder\WObj:=PAPER;
MoveL Offs(Target_drawing_origin,-32,64,0),v50,fine,PencilHolder\WObj:=PAPER;
MoveL Offs(Target_drawing_origin,-68,64,0),v50,fine,PencilHolder\WObj:=PAPER;
MoveL Offs(Target_drawing_origin,-32,65,0),v50,fine,PencilHolder\WObj:=PAPER;
MoveL Offs(Target_drawing_origin,-68,65,0),v50,fine,PencilHolder\WObj:=PAPER;
MoveL Offs(Target_drawing_origin,-28,66,0),v50,fine,PencilHolder\WObj:=PAPER;
MoveL Offs(Target_drawing_origin,-56,66,0),v50,fine,PencilHolder\WObj:=PAPER;
MoveL Offs(Target_drawing_origin,-28,67,0),v50,fine,PencilHolder\WObj:=PAPER;
MoveL Offs(Target_drawing_origin,-56,67,0),v50,fine,PencilHolder\WObj:=PAPER;
MoveL Offs(Target_drawing_origin,-28,68,0),v50,fine,PencilHolder\WObj:=PAPER;
MoveL Offs(Target_drawing_origin,-56,68,0),v50,fine,PencilHolder\WObj:=PAPER;
MoveL Offs(Target_drawing_origin,-28,69,0),v50,fine,PencilHolder\WObj:=PAPER;
MoveL Offs(Target_drawing_origin,-56,69,0),v50,fine,PencilHolder\WObj:=PAPER;
MoveL Offs(Target_drawing_origin,-28,70,0),v50,fine,PencilHolder\WObj:=PAPER;
MoveL Offs(Target_drawing_origin,-56,70,0),v50,fine,PencilHolder\WObj:=PAPER;
MoveL Offs(Target_drawing_origin,-28,71,0),v50,fine,PencilHolder\WObj:=PAPER;
MoveL Offs(Target_drawing_origin,-56,71,0),v50,fine,PencilHolder\WObj:=PAPER;
MoveL Offs(Target_drawing_origin,-28,72,0),v50,fine,PencilHolder\WObj:=PAPER;
MoveL Offs(Target_drawing_origin,-56,72,0),v50,fine,PencilHolder\WObj:=PAPER;
MoveL Offs(Target_drawing_origin,-28,73,0),v50,fine,PencilHolder\WObj:=PAPER;
MoveL Offs(Target_drawing_origin,-62,73,0),v50,fine,PencilHolder\WObj:=PAPER;
MoveL Offs(Target_drawing_origin,-28,74,0),v50,fine,PencilHolder\WObj:=PAPER;
MoveL Offs(Target_drawing_origin,-62,74,0),v50,fine,PencilHolder\WObj:=PAPER;
MoveL Offs(Target_drawing_origin,-28,75,0),v50,fine,PencilHolder\WObj:=PAPER;
MoveL Offs(Target_drawing_origin,-62,75,0),v50,fine,PencilHolder\WObj:=PAPER;
MoveL Offs(Target_drawing_origin,-28,76,0),v50,fine,PencilHolder\WObj:=PAPER;
MoveL Offs(Target_drawing_origin,-68,76,0),v50,fine,PencilHolder\WObj:=PAPER;
MoveL Offs(Target_drawing_origin,-108,76,0),v50,fine,PencilHolder\WObj:=PAPER;
MoveL Offs(Target_drawing_origin,-142,76,0),v50,fine,PencilHolder\WObj:=PAPER;
MoveL Offs(Target_drawing_origin,-28,77,0),v50,fine,PencilHolder\WObj:=PAPER;
MoveL Offs(Target_drawing_origin,-68,77,0),v50,fine,PencilHolder\WObj:=PAPER;
MoveL Offs(Target_drawing_origin,-108,77,0),v50,fine,PencilHolder\WObj:=PAPER;
MoveL Offs(Target_drawing_origin,-142,77,0),v50,fine,PencilHolder\WObj:=PAPER;
MoveL Offs(Target_drawing_origin,-32,78,0),v50,fine,PencilHolder\WObj:=PAPER;
MoveL Offs(Target_drawing_origin,-68,78,0),v50,fine,PencilHolder\WObj:=PAPER;
MoveL Offs(Target_drawing_origin,-108,78,0),v50,fine,PencilHolder\WObj:=PAPER;
MoveL Offs(Target_drawing_origin,-144,78,0),v50,fine,PencilHolder\WObj:=PAPER;
MoveL Offs(Target_drawing_origin,-32,79,0),v50,fine,PencilHolder\WObj:=PAPER;
MoveL Offs(Target_drawing_origin,-148,79,0),v50,fine,PencilHolder\WObj:=PAPER;
MoveL Offs(Target_drawing_origin,-32,80,0),v50,fine,PencilHolder\WObj:=PAPER;
MoveL Offs(Target_drawing_origin,-148,80,0),v50,fine,PencilHolder\WObj:=PAPER;
MoveL Offs(Target_drawing_origin,-38,81,0),v50,fine,PencilHolder\WObj:=PAPER;
MoveL Offs(Target_drawing_origin,-150,81,0),v50,fine,PencilHolder\WObj:=PAPER;
MoveL Offs(Target_drawing_origin,-38,82,0),v50,fine,PencilHolder\WObj:=PAPER;
MoveL Offs(Target_drawing_origin,-154,82,0),v50,fine,PencilHolder\WObj:=PAPER;
MoveL Offs(Target_drawing_origin,-38,83,0),v50,fine,PencilHolder\WObj:=PAPER;
MoveL Offs(Target_drawing_origin,-154,83,0),v50,fine,PencilHolder\WObj:=PAPER;
MoveL Offs(Target_drawing_origin,-44,84,0),v50,fine,PencilHolder\WObj:=PAPER;
MoveL Offs(Target_drawing_origin,-154,84,0),v50,fine,PencilHolder\WObj:=PAPER;
MoveL Offs(Target_drawing_origin,-44,85,0),v50,fine,PencilHolder\WObj:=PAPER;
MoveL Offs(Target_drawing_origin,-154,85,0),v50,fine,PencilHolder\WObj:=PAPER;
MoveL Offs(Target_drawing_origin,-54,86,0),v50,fine,PencilHolder\WObj:=PAPER;
MoveL Offs(Target_drawing_origin,-122,86,0),v50,fine,PencilHolder\WObj:=PAPER;
MoveL Offs(Target_drawing_origin,-128,86,0),v50,fine,PencilHolder\WObj:=PAPER;
MoveL Offs(Target_drawing_origin,-154,86,0),v50,fine,PencilHolder\WObj:=PAPER;
MoveL Offs(Target_drawing_origin,-54,87,0),v50,fine,PencilHolder\WObj:=PAPER;
MoveL Offs(Target_drawing_origin,-122,87,0),v50,fine,PencilHolder\WObj:=PAPER;
MoveL Offs(Target_drawing_origin,-130,87,0),v50,fine,PencilHolder\WObj:=PAPER;
MoveL Offs(Target_drawing_origin,-154,87,0),v50,fine,PencilHolder\WObj:=PAPER;
MoveL Offs(Target_drawing_origin,-54,88,0),v50,fine,PencilHolder\WObj:=PAPER;
MoveL Offs(Target_drawing_origin,-122,88,0),v50,fine,PencilHolder\WObj:=PAPER;
MoveL Offs(Target_drawing_origin,-130,88,0),v50,fine,PencilHolder\WObj:=PAPER;
MoveL Offs(Target_drawing_origin,-154,88,0),v50,fine,PencilHolder\WObj:=PAPER;
MoveL Offs(Target_drawing_origin,-60,89,0),v50,fine,PencilHolder\WObj:=PAPER;
MoveL Offs(Target_drawing_origin,-116,89,0),v50,fine,PencilHolder\WObj:=PAPER;
MoveL Offs(Target_drawing_origin,-130,89,0),v50,fine,PencilHolder\WObj:=PAPER;
MoveL Offs(Target_drawing_origin,-154,89,0),v50,fine,PencilHolder\WObj:=PAPER;
MoveL Offs(Target_drawing_origin,-60,90,0),v50,fine,PencilHolder\WObj:=PAPER;
MoveL Offs(Target_drawing_origin,-116,90,0),v50,fine,PencilHolder\WObj:=PAPER;
MoveL Offs(Target_drawing_origin,-130,90,0),v50,fine,PencilHolder\WObj:=PAPER;
MoveL Offs(Target_drawing_origin,-154,90,0),v50,fine,PencilHolder\WObj:=PAPER;
MoveL Offs(Target_drawing_origin,-60,91,0),v50,fine,PencilHolder\WObj:=PAPER;
MoveL Offs(Target_drawing_origin,-116,91,0),v50,fine,PencilHolder\WObj:=PAPER;
MoveL Offs(Target_drawing_origin,-130,91,0),v50,fine,PencilHolder\WObj:=PAPER;
MoveL Offs(Target_drawing_origin,-154,91,0),v50,fine,PencilHolder\WObj:=PAPER;
MoveL Offs(Target_drawing_origin,-118,92,0),v50,fine,PencilHolder\WObj:=PAPER;
MoveL Offs(Target_drawing_origin,-154,92,0),v50,fine,PencilHolder\WObj:=PAPER;
MoveL Offs(Target_drawing_origin,-118,93,0),v50,fine,PencilHolder\WObj:=PAPER;
MoveL Offs(Target_drawing_origin,-154,93,0),v50,fine,PencilHolder\WObj:=PAPER;
MoveL Offs(Target_drawing_origin,-118,94,0),v50,fine,PencilHolder\WObj:=PAPER;
MoveL Offs(Target_drawing_origin,-154,94,0),v50,fine,PencilHolder\WObj:=PAPER;
MoveL Offs(Target_drawing_origin,-44,95,0),v50,fine,PencilHolder\WObj:=PAPER;
MoveL Offs(Target_drawing_origin,-84,95,0),v50,fine,PencilHolder\WObj:=PAPER;
MoveL Offs(Target_drawing_origin,-102,95,0),v50,fine,PencilHolder\WObj:=PAPER;
MoveL Offs(Target_drawing_origin,-154,95,0),v50,fine,PencilHolder\WObj:=PAPER;
MoveL Offs(Target_drawing_origin,-44,96,0),v50,fine,PencilHolder\WObj:=PAPER;
MoveL Offs(Target_drawing_origin,-84,96,0),v50,fine,PencilHolder\WObj:=PAPER;
MoveL Offs(Target_drawing_origin,-102,96,0),v50,fine,PencilHolder\WObj:=PAPER;
MoveL Offs(Target_drawing_origin,-154,96,0),v50,fine,PencilHolder\WObj:=PAPER;
MoveL Offs(Target_drawing_origin,-44,97,0),v50,fine,PencilHolder\WObj:=PAPER;
MoveL Offs(Target_drawing_origin,-84,97,0),v50,fine,PencilHolder\WObj:=PAPER;
MoveL Offs(Target_drawing_origin,-102,97,0),v50,fine,PencilHolder\WObj:=PAPER;
MoveL Offs(Target_drawing_origin,-148,97,0),v50,fine,PencilHolder\WObj:=PAPER;
MoveL Offs(Target_drawing_origin,-32,98,0),v50,fine,PencilHolder\WObj:=PAPER;
MoveL Offs(Target_drawing_origin,-148,98,0),v50,fine,PencilHolder\WObj:=PAPER;
MoveL Offs(Target_drawing_origin,-32,99,0),v50,fine,PencilHolder\WObj:=PAPER;
MoveL Offs(Target_drawing_origin,-148,99,0),v50,fine,PencilHolder\WObj:=PAPER;
MoveL Offs(Target_drawing_origin,-28,100,0),v50,fine,PencilHolder\WObj:=PAPER;
MoveL Offs(Target_drawing_origin,-142,100,0),v50,fine,PencilHolder\WObj:=PAPER;
MoveL Offs(Target_drawing_origin,-28,101,0),v50,fine,PencilHolder\WObj:=PAPER;
MoveL Offs(Target_drawing_origin,-142,101,0),v50,fine,PencilHolder\WObj:=PAPER;
MoveL Offs(Target_drawing_origin,-28,102,0),v50,fine,PencilHolder\WObj:=PAPER;
MoveL Offs(Target_drawing_origin,-142,102,0),v50,fine,PencilHolder\WObj:=PAPER;
MoveL Offs(Target_drawing_origin,-22,103,0),v50,fine,PencilHolder\WObj:=PAPER;
MoveL Offs(Target_drawing_origin,-138,103,0),v50,fine,PencilHolder\WObj:=PAPER;
MoveL Offs(Target_drawing_origin,-22,104,0),v50,fine,PencilHolder\WObj:=PAPER;
MoveL Offs(Target_drawing_origin,-138,104,0),v50,fine,PencilHolder\WObj:=PAPER;
MoveL Offs(Target_drawing_origin,-22,105,0),v50,fine,PencilHolder\WObj:=PAPER;
MoveL Offs(Target_drawing_origin,-62,105,0),v50,fine,PencilHolder\WObj:=PAPER;
MoveL Offs(Target_drawing_origin,-70,105,0),v50,fine,PencilHolder\WObj:=PAPER;
MoveL Offs(Target_drawing_origin,-122,105,0),v50,fine,PencilHolder\WObj:=PAPER;
MoveL Offs(Target_drawing_origin,-16,106,0),v50,fine,PencilHolder\WObj:=PAPER;
MoveL Offs(Target_drawing_origin,-62,106,0),v50,fine,PencilHolder\WObj:=PAPER;
MoveL Offs(Target_drawing_origin,-70,106,0),v50,fine,PencilHolder\WObj:=PAPER;
MoveL Offs(Target_drawing_origin,-122,106,0),v50,fine,PencilHolder\WObj:=PAPER;
MoveL Offs(Target_drawing_origin,-16,107,0),v50,fine,PencilHolder\WObj:=PAPER;
MoveL Offs(Target_drawing_origin,-62,107,0),v50,fine,PencilHolder\WObj:=PAPER;
MoveL Offs(Target_drawing_origin,-70,107,0),v50,fine,PencilHolder\WObj:=PAPER;
MoveL Offs(Target_drawing_origin,-122,107,0),v50,fine,PencilHolder\WObj:=PAPER;
MoveL Offs(Target_drawing_origin,-16,108,0),v50,fine,PencilHolder\WObj:=PAPER;
MoveL Offs(Target_drawing_origin,-46,108,0),v50,fine,PencilHolder\WObj:=PAPER;
MoveL Offs(Target_drawing_origin,-16,109,0),v50,fine,PencilHolder\WObj:=PAPER;
MoveL Offs(Target_drawing_origin,-46,109,0),v50,fine,PencilHolder\WObj:=PAPER;
MoveL Offs(Target_drawing_origin,-16,110,0),v50,fine,PencilHolder\WObj:=PAPER;
MoveL Offs(Target_drawing_origin,-46,110,0),v50,fine,PencilHolder\WObj:=PAPER;
MoveL Offs(Target_drawing_origin,-16,111,0),v50,fine,PencilHolder\WObj:=PAPER;
MoveL Offs(Target_drawing_origin,-68,111,0),v50,fine,PencilHolder\WObj:=PAPER;
MoveL Offs(Target_drawing_origin,-16,112,0),v50,fine,PencilHolder\WObj:=PAPER;
MoveL Offs(Target_drawing_origin,-68,112,0),v50,fine,PencilHolder\WObj:=PAPER;
MoveL Offs(Target_drawing_origin,-16,113,0),v50,fine,PencilHolder\WObj:=PAPER;
MoveL Offs(Target_drawing_origin,-68,113,0),v50,fine,PencilHolder\WObj:=PAPER;
MoveL Offs(Target_drawing_origin,-16,114,0),v50,fine,PencilHolder\WObj:=PAPER;
MoveL Offs(Target_drawing_origin,-138,114,0),v50,fine,PencilHolder\WObj:=PAPER;
MoveL Offs(Target_drawing_origin,-16,115,0),v50,fine,PencilHolder\WObj:=PAPER;
MoveL Offs(Target_drawing_origin,-138,115,0),v50,fine,PencilHolder\WObj:=PAPER;
MoveL Offs(Target_drawing_origin,-22,116,0),v50,fine,PencilHolder\WObj:=PAPER;
MoveL Offs(Target_drawing_origin,-138,116,0),v50,fine,PencilHolder\WObj:=PAPER;
MoveL Offs(Target_drawing_origin,-22,117,0),v50,fine,PencilHolder\WObj:=PAPER;
MoveL Offs(Target_drawing_origin,-158,117,0),v50,fine,PencilHolder\WObj:=PAPER;
MoveL Offs(Target_drawing_origin,-22,118,0),v50,fine,PencilHolder\WObj:=PAPER;
MoveL Offs(Target_drawing_origin,-158,118,0),v50,fine,PencilHolder\WObj:=PAPER;
MoveL Offs(Target_drawing_origin,-28,119,0),v50,fine,PencilHolder\WObj:=PAPER;
MoveL Offs(Target_drawing_origin,-170,119,0),v50,fine,PencilHolder\WObj:=PAPER;
MoveL Offs(Target_drawing_origin,-28,120,0),v50,fine,PencilHolder\WObj:=PAPER;
MoveL Offs(Target_drawing_origin,-170,120,0),v50,fine,PencilHolder\WObj:=PAPER;
MoveL Offs(Target_drawing_origin,-28,121,0),v50,fine,PencilHolder\WObj:=PAPER;
MoveL Offs(Target_drawing_origin,-170,121,0),v50,fine,PencilHolder\WObj:=PAPER;
MoveL Offs(Target_drawing_origin,-54,122,0),v50,fine,PencilHolder\WObj:=PAPER;
MoveL Offs(Target_drawing_origin,-170,122,0),v50,fine,PencilHolder\WObj:=PAPER;
MoveL Offs(Target_drawing_origin,-54,123,0),v50,fine,PencilHolder\WObj:=PAPER;
MoveL Offs(Target_drawing_origin,-170,123,0),v50,fine,PencilHolder\WObj:=PAPER;
MoveL Offs(Target_drawing_origin,-124,124,0),v50,fine,PencilHolder\WObj:=PAPER;
MoveL Offs(Target_drawing_origin,-170,124,0),v50,fine,PencilHolder\WObj:=PAPER;
MoveL Offs(Target_drawing_origin,-124,125,0),v50,fine,PencilHolder\WObj:=PAPER;
MoveL Offs(Target_drawing_origin,-170,125,0),v50,fine,PencilHolder\WObj:=PAPER;
MoveL Offs(Target_drawing_origin,-124,126,0),v50,fine,PencilHolder\WObj:=PAPER;
MoveL Offs(Target_drawing_origin,-170,126,0),v50,fine,PencilHolder\WObj:=PAPER;
MoveL Offs(Target_drawing_origin,-146,127,0),v50,fine,PencilHolder\WObj:=PAPER;
MoveL Offs(Target_drawing_origin,-170,127,0),v50,fine,PencilHolder\WObj:=PAPER;
MoveL Offs(Target_drawing_origin,-146,128,0),v50,fine,PencilHolder\WObj:=PAPER;
MoveL Offs(Target_drawing_origin,-170,128,0),v50,fine,PencilHolder\WObj:=PAPER;
MoveL Offs(Target_drawing_origin,-146,129,0),v50,fine,PencilHolder\WObj:=PAPER;
MoveL Offs(Target_drawing_origin,-170,129,0),v50,fine,PencilHolder\WObj:=PAPER;


ENDPROC


ENDMODULE