MODULE Module1
    CONST robtarget Target_drawing_origin:=[[290,10,-2],[1,0,0,0],[0,0,0,0],[9E+09,9E+09,9E+09,9E+09,9E+09,9E+09]];


! Main procedure
PROC main()


! Clean
SetDO Do_Clean, 1;
SetDO Do_Clean, 0;
SetDO Do_Kreslit_OFF, 1;
SetDO Do_Kreslit_ON, 0;
! Draw grey
MoveJ Offs(Target_drawing_origin,0,0,-5),v100,fine,PencilHolder\WObj:=PAPER;
MoveL Offs(Target_drawing_origin,0,80,-5),v200,fine,PencilHolder\WObj:=PAPER;
WaitRob \InPos;
MoveL Offs(Target_drawing_origin,0,80,0),v200,fine,PencilHolder\WObj:=PAPER;
WaitRob \InPos;
SetDO Do_Kreslit_ON, 1;
SetDO Do_Kreslit_OFF, 0;
MoveL Offs(Target_drawing_origin,0,176,0),v200,fine,PencilHolder\WObj:=PAPER;
WaitRob \InPos;
SetDO Do_Kreslit_ON, 0;
SetDO Do_Kreslit_OFF, 1;
MoveL Offs(Target_drawing_origin,0,176,-5),v200,fine,PencilHolder\WObj:=PAPER;
WaitRob \InPos;
MoveL Offs(Target_drawing_origin,-4,80,-5),v200,fine,PencilHolder\WObj:=PAPER;
WaitRob \InPos;
MoveL Offs(Target_drawing_origin,-4,80,0),v200,fine,PencilHolder\WObj:=PAPER;
WaitRob \InPos;
SetDO Do_Kreslit_ON, 1;
SetDO Do_Kreslit_OFF, 0;
MoveL Offs(Target_drawing_origin,-4,176,0),v200,fine,PencilHolder\WObj:=PAPER;
WaitRob \InPos;
SetDO Do_Kreslit_ON, 0;
SetDO Do_Kreslit_OFF, 1;
MoveL Offs(Target_drawing_origin,-4,176,-5),v200,fine,PencilHolder\WObj:=PAPER;
WaitRob \InPos;
MoveL Offs(Target_drawing_origin,-8,80,-5),v200,fine,PencilHolder\WObj:=PAPER;
WaitRob \InPos;
MoveL Offs(Target_drawing_origin,-8,80,0),v200,fine,PencilHolder\WObj:=PAPER;
WaitRob \InPos;
SetDO Do_Kreslit_ON, 1;
SetDO Do_Kreslit_OFF, 0;
MoveL Offs(Target_drawing_origin,-8,176,0),v200,fine,PencilHolder\WObj:=PAPER;
WaitRob \InPos;
SetDO Do_Kreslit_ON, 0;
SetDO Do_Kreslit_OFF, 1;
MoveL Offs(Target_drawing_origin,-8,176,-5),v200,fine,PencilHolder\WObj:=PAPER;
WaitRob \InPos;
MoveL Offs(Target_drawing_origin,-12,80,-5),v200,fine,PencilHolder\WObj:=PAPER;
WaitRob \InPos;
MoveL Offs(Target_drawing_origin,-12,80,0),v200,fine,PencilHolder\WObj:=PAPER;
WaitRob \InPos;
SetDO Do_Kreslit_ON, 1;
SetDO Do_Kreslit_OFF, 0;
MoveL Offs(Target_drawing_origin,-12,176,0),v200,fine,PencilHolder\WObj:=PAPER;
WaitRob \InPos;
SetDO Do_Kreslit_ON, 0;
SetDO Do_Kreslit_OFF, 1;
MoveL Offs(Target_drawing_origin,-12,176,-5),v200,fine,PencilHolder\WObj:=PAPER;
WaitRob \InPos;
MoveL Offs(Target_drawing_origin,-16,80,-5),v200,fine,PencilHolder\WObj:=PAPER;
WaitRob \InPos;
MoveL Offs(Target_drawing_origin,-16,80,0),v200,fine,PencilHolder\WObj:=PAPER;
WaitRob \InPos;
SetDO Do_Kreslit_ON, 1;
SetDO Do_Kreslit_OFF, 0;
MoveL Offs(Target_drawing_origin,-16,92,0),v200,fine,PencilHolder\WObj:=PAPER;
WaitRob \InPos;
SetDO Do_Kreslit_ON, 0;
SetDO Do_Kreslit_OFF, 1;
MoveL Offs(Target_drawing_origin,-16,92,-5),v200,fine,PencilHolder\WObj:=PAPER;
WaitRob \InPos;
MoveL Offs(Target_drawing_origin,-16,104,-5),v200,fine,PencilHolder\WObj:=PAPER;
WaitRob \InPos;
MoveL Offs(Target_drawing_origin,-16,104,0),v200,fine,PencilHolder\WObj:=PAPER;
WaitRob \InPos;
SetDO Do_Kreslit_ON, 1;
SetDO Do_Kreslit_OFF, 0;
MoveL Offs(Target_drawing_origin,-16,176,0),v200,fine,PencilHolder\WObj:=PAPER;
WaitRob \InPos;
SetDO Do_Kreslit_ON, 0;
SetDO Do_Kreslit_OFF, 1;
MoveL Offs(Target_drawing_origin,-16,176,-5),v200,fine,PencilHolder\WObj:=PAPER;
WaitRob \InPos;
MoveL Offs(Target_drawing_origin,-20,80,-5),v200,fine,PencilHolder\WObj:=PAPER;
WaitRob \InPos;
MoveL Offs(Target_drawing_origin,-20,80,0),v200,fine,PencilHolder\WObj:=PAPER;
WaitRob \InPos;
SetDO Do_Kreslit_ON, 1;
SetDO Do_Kreslit_OFF, 0;
MoveL Offs(Target_drawing_origin,-20,92,0),v200,fine,PencilHolder\WObj:=PAPER;
WaitRob \InPos;
SetDO Do_Kreslit_ON, 0;
SetDO Do_Kreslit_OFF, 1;
MoveL Offs(Target_drawing_origin,-20,92,-5),v200,fine,PencilHolder\WObj:=PAPER;
WaitRob \InPos;
MoveL Offs(Target_drawing_origin,-20,104,-5),v200,fine,PencilHolder\WObj:=PAPER;
WaitRob \InPos;
MoveL Offs(Target_drawing_origin,-20,104,0),v200,fine,PencilHolder\WObj:=PAPER;
WaitRob \InPos;
SetDO Do_Kreslit_ON, 1;
SetDO Do_Kreslit_OFF, 0;
MoveL Offs(Target_drawing_origin,-20,176,0),v200,fine,PencilHolder\WObj:=PAPER;
WaitRob \InPos;
SetDO Do_Kreslit_ON, 0;
SetDO Do_Kreslit_OFF, 1;
MoveL Offs(Target_drawing_origin,-20,176,-5),v200,fine,PencilHolder\WObj:=PAPER;
WaitRob \InPos;
MoveL Offs(Target_drawing_origin,-24,80,-5),v200,fine,PencilHolder\WObj:=PAPER;
WaitRob \InPos;
MoveL Offs(Target_drawing_origin,-24,80,0),v200,fine,PencilHolder\WObj:=PAPER;
WaitRob \InPos;
SetDO Do_Kreslit_ON, 1;
SetDO Do_Kreslit_OFF, 0;
MoveL Offs(Target_drawing_origin,-24,92,0),v200,fine,PencilHolder\WObj:=PAPER;
WaitRob \InPos;
SetDO Do_Kreslit_ON, 0;
SetDO Do_Kreslit_OFF, 1;
MoveL Offs(Target_drawing_origin,-24,92,-5),v200,fine,PencilHolder\WObj:=PAPER;
WaitRob \InPos;
MoveL Offs(Target_drawing_origin,-24,104,-5),v200,fine,PencilHolder\WObj:=PAPER;
WaitRob \InPos;
MoveL Offs(Target_drawing_origin,-24,104,0),v200,fine,PencilHolder\WObj:=PAPER;
WaitRob \InPos;
SetDO Do_Kreslit_ON, 1;
SetDO Do_Kreslit_OFF, 0;
MoveL Offs(Target_drawing_origin,-24,176,0),v200,fine,PencilHolder\WObj:=PAPER;
WaitRob \InPos;
SetDO Do_Kreslit_ON, 0;
SetDO Do_Kreslit_OFF, 1;
MoveL Offs(Target_drawing_origin,-24,176,-5),v200,fine,PencilHolder\WObj:=PAPER;
WaitRob \InPos;
MoveL Offs(Target_drawing_origin,-28,80,-5),v200,fine,PencilHolder\WObj:=PAPER;
WaitRob \InPos;
MoveL Offs(Target_drawing_origin,-28,80,0),v200,fine,PencilHolder\WObj:=PAPER;
WaitRob \InPos;
SetDO Do_Kreslit_ON, 1;
SetDO Do_Kreslit_OFF, 0;
MoveL Offs(Target_drawing_origin,-28,92,0),v200,fine,PencilHolder\WObj:=PAPER;
WaitRob \InPos;
SetDO Do_Kreslit_ON, 0;
SetDO Do_Kreslit_OFF, 1;
MoveL Offs(Target_drawing_origin,-28,92,-5),v200,fine,PencilHolder\WObj:=PAPER;
WaitRob \InPos;
MoveL Offs(Target_drawing_origin,-28,104,-5),v200,fine,PencilHolder\WObj:=PAPER;
WaitRob \InPos;
MoveL Offs(Target_drawing_origin,-28,104,0),v200,fine,PencilHolder\WObj:=PAPER;
WaitRob \InPos;
SetDO Do_Kreslit_ON, 1;
SetDO Do_Kreslit_OFF, 0;
MoveL Offs(Target_drawing_origin,-28,176,0),v200,fine,PencilHolder\WObj:=PAPER;
WaitRob \InPos;
SetDO Do_Kreslit_ON, 0;
SetDO Do_Kreslit_OFF, 1;
MoveL Offs(Target_drawing_origin,-28,176,-5),v200,fine,PencilHolder\WObj:=PAPER;
WaitRob \InPos;
MoveL Offs(Target_drawing_origin,-32,80,-5),v200,fine,PencilHolder\WObj:=PAPER;
WaitRob \InPos;
MoveL Offs(Target_drawing_origin,-32,80,0),v200,fine,PencilHolder\WObj:=PAPER;
WaitRob \InPos;
SetDO Do_Kreslit_ON, 1;
SetDO Do_Kreslit_OFF, 0;
MoveL Offs(Target_drawing_origin,-32,92,0),v200,fine,PencilHolder\WObj:=PAPER;
WaitRob \InPos;
SetDO Do_Kreslit_ON, 0;
SetDO Do_Kreslit_OFF, 1;
MoveL Offs(Target_drawing_origin,-32,92,-5),v200,fine,PencilHolder\WObj:=PAPER;
WaitRob \InPos;
MoveL Offs(Target_drawing_origin,-32,104,-5),v200,fine,PencilHolder\WObj:=PAPER;
WaitRob \InPos;
MoveL Offs(Target_drawing_origin,-32,104,0),v200,fine,PencilHolder\WObj:=PAPER;
WaitRob \InPos;
SetDO Do_Kreslit_ON, 1;
SetDO Do_Kreslit_OFF, 0;
MoveL Offs(Target_drawing_origin,-32,176,0),v200,fine,PencilHolder\WObj:=PAPER;
WaitRob \InPos;
SetDO Do_Kreslit_ON, 0;
SetDO Do_Kreslit_OFF, 1;
MoveL Offs(Target_drawing_origin,-32,176,-5),v200,fine,PencilHolder\WObj:=PAPER;
WaitRob \InPos;
MoveL Offs(Target_drawing_origin,-36,80,-5),v200,fine,PencilHolder\WObj:=PAPER;
WaitRob \InPos;
MoveL Offs(Target_drawing_origin,-36,80,0),v200,fine,PencilHolder\WObj:=PAPER;
WaitRob \InPos;
SetDO Do_Kreslit_ON, 1;
SetDO Do_Kreslit_OFF, 0;
MoveL Offs(Target_drawing_origin,-36,92,0),v200,fine,PencilHolder\WObj:=PAPER;
WaitRob \InPos;
SetDO Do_Kreslit_ON, 0;
SetDO Do_Kreslit_OFF, 1;
MoveL Offs(Target_drawing_origin,-36,92,-5),v200,fine,PencilHolder\WObj:=PAPER;
WaitRob \InPos;
MoveL Offs(Target_drawing_origin,-36,104,-5),v200,fine,PencilHolder\WObj:=PAPER;
WaitRob \InPos;
MoveL Offs(Target_drawing_origin,-36,104,0),v200,fine,PencilHolder\WObj:=PAPER;
WaitRob \InPos;
SetDO Do_Kreslit_ON, 1;
SetDO Do_Kreslit_OFF, 0;
MoveL Offs(Target_drawing_origin,-36,176,0),v200,fine,PencilHolder\WObj:=PAPER;
WaitRob \InPos;
SetDO Do_Kreslit_ON, 0;
SetDO Do_Kreslit_OFF, 1;
MoveL Offs(Target_drawing_origin,-36,176,-5),v200,fine,PencilHolder\WObj:=PAPER;
WaitRob \InPos;
MoveL Offs(Target_drawing_origin,-40,80,-5),v200,fine,PencilHolder\WObj:=PAPER;
WaitRob \InPos;
MoveL Offs(Target_drawing_origin,-40,80,0),v200,fine,PencilHolder\WObj:=PAPER;
WaitRob \InPos;
SetDO Do_Kreslit_ON, 1;
SetDO Do_Kreslit_OFF, 0;
MoveL Offs(Target_drawing_origin,-40,92,0),v200,fine,PencilHolder\WObj:=PAPER;
WaitRob \InPos;
SetDO Do_Kreslit_ON, 0;
SetDO Do_Kreslit_OFF, 1;
MoveL Offs(Target_drawing_origin,-40,92,-5),v200,fine,PencilHolder\WObj:=PAPER;
WaitRob \InPos;
MoveL Offs(Target_drawing_origin,-40,104,-5),v200,fine,PencilHolder\WObj:=PAPER;
WaitRob \InPos;
MoveL Offs(Target_drawing_origin,-40,104,0),v200,fine,PencilHolder\WObj:=PAPER;
WaitRob \InPos;
SetDO Do_Kreslit_ON, 1;
SetDO Do_Kreslit_OFF, 0;
MoveL Offs(Target_drawing_origin,-40,176,0),v200,fine,PencilHolder\WObj:=PAPER;
WaitRob \InPos;
SetDO Do_Kreslit_ON, 0;
SetDO Do_Kreslit_OFF, 1;
MoveL Offs(Target_drawing_origin,-40,176,-5),v200,fine,PencilHolder\WObj:=PAPER;
WaitRob \InPos;
MoveL Offs(Target_drawing_origin,-44,80,-5),v200,fine,PencilHolder\WObj:=PAPER;
WaitRob \InPos;
MoveL Offs(Target_drawing_origin,-44,80,0),v200,fine,PencilHolder\WObj:=PAPER;
WaitRob \InPos;
SetDO Do_Kreslit_ON, 1;
SetDO Do_Kreslit_OFF, 0;
MoveL Offs(Target_drawing_origin,-44,92,0),v200,fine,PencilHolder\WObj:=PAPER;
WaitRob \InPos;
SetDO Do_Kreslit_ON, 0;
SetDO Do_Kreslit_OFF, 1;
MoveL Offs(Target_drawing_origin,-44,92,-5),v200,fine,PencilHolder\WObj:=PAPER;
WaitRob \InPos;
MoveL Offs(Target_drawing_origin,-44,104,-5),v200,fine,PencilHolder\WObj:=PAPER;
WaitRob \InPos;
MoveL Offs(Target_drawing_origin,-44,104,0),v200,fine,PencilHolder\WObj:=PAPER;
WaitRob \InPos;
SetDO Do_Kreslit_ON, 1;
SetDO Do_Kreslit_OFF, 0;
MoveL Offs(Target_drawing_origin,-44,176,0),v200,fine,PencilHolder\WObj:=PAPER;
WaitRob \InPos;
SetDO Do_Kreslit_ON, 0;
SetDO Do_Kreslit_OFF, 1;
MoveL Offs(Target_drawing_origin,-44,176,-5),v200,fine,PencilHolder\WObj:=PAPER;
WaitRob \InPos;
MoveL Offs(Target_drawing_origin,-48,80,-5),v200,fine,PencilHolder\WObj:=PAPER;
WaitRob \InPos;
MoveL Offs(Target_drawing_origin,-48,80,0),v200,fine,PencilHolder\WObj:=PAPER;
WaitRob \InPos;
SetDO Do_Kreslit_ON, 1;
SetDO Do_Kreslit_OFF, 0;
MoveL Offs(Target_drawing_origin,-48,100,0),v200,fine,PencilHolder\WObj:=PAPER;
WaitRob \InPos;
SetDO Do_Kreslit_ON, 0;
SetDO Do_Kreslit_OFF, 1;
MoveL Offs(Target_drawing_origin,-48,100,-5),v200,fine,PencilHolder\WObj:=PAPER;
WaitRob \InPos;
MoveL Offs(Target_drawing_origin,-48,164,-5),v200,fine,PencilHolder\WObj:=PAPER;
WaitRob \InPos;
MoveL Offs(Target_drawing_origin,-48,164,0),v200,fine,PencilHolder\WObj:=PAPER;
WaitRob \InPos;
SetDO Do_Kreslit_ON, 1;
SetDO Do_Kreslit_OFF, 0;
MoveL Offs(Target_drawing_origin,-48,176,0),v200,fine,PencilHolder\WObj:=PAPER;
WaitRob \InPos;
SetDO Do_Kreslit_ON, 0;
SetDO Do_Kreslit_OFF, 1;
MoveL Offs(Target_drawing_origin,-48,176,-5),v200,fine,PencilHolder\WObj:=PAPER;
WaitRob \InPos;
MoveL Offs(Target_drawing_origin,-52,80,-5),v200,fine,PencilHolder\WObj:=PAPER;
WaitRob \InPos;
MoveL Offs(Target_drawing_origin,-52,80,0),v200,fine,PencilHolder\WObj:=PAPER;
WaitRob \InPos;
SetDO Do_Kreslit_ON, 1;
SetDO Do_Kreslit_OFF, 0;
MoveL Offs(Target_drawing_origin,-52,100,0),v200,fine,PencilHolder\WObj:=PAPER;
WaitRob \InPos;
SetDO Do_Kreslit_ON, 0;
SetDO Do_Kreslit_OFF, 1;
MoveL Offs(Target_drawing_origin,-52,100,-5),v200,fine,PencilHolder\WObj:=PAPER;
WaitRob \InPos;
MoveL Offs(Target_drawing_origin,-52,164,-5),v200,fine,PencilHolder\WObj:=PAPER;
WaitRob \InPos;
MoveL Offs(Target_drawing_origin,-52,164,0),v200,fine,PencilHolder\WObj:=PAPER;
WaitRob \InPos;
SetDO Do_Kreslit_ON, 1;
SetDO Do_Kreslit_OFF, 0;
MoveL Offs(Target_drawing_origin,-52,176,0),v200,fine,PencilHolder\WObj:=PAPER;
WaitRob \InPos;
SetDO Do_Kreslit_ON, 0;
SetDO Do_Kreslit_OFF, 1;
MoveL Offs(Target_drawing_origin,-52,176,-5),v200,fine,PencilHolder\WObj:=PAPER;
WaitRob \InPos;
MoveL Offs(Target_drawing_origin,-56,80,-5),v200,fine,PencilHolder\WObj:=PAPER;
WaitRob \InPos;
MoveL Offs(Target_drawing_origin,-56,80,0),v200,fine,PencilHolder\WObj:=PAPER;
WaitRob \InPos;
SetDO Do_Kreslit_ON, 1;
SetDO Do_Kreslit_OFF, 0;
MoveL Offs(Target_drawing_origin,-56,100,0),v200,fine,PencilHolder\WObj:=PAPER;
WaitRob \InPos;
SetDO Do_Kreslit_ON, 0;
SetDO Do_Kreslit_OFF, 1;
MoveL Offs(Target_drawing_origin,-56,100,-5),v200,fine,PencilHolder\WObj:=PAPER;
WaitRob \InPos;
MoveL Offs(Target_drawing_origin,-56,164,-5),v200,fine,PencilHolder\WObj:=PAPER;
WaitRob \InPos;
MoveL Offs(Target_drawing_origin,-56,164,0),v200,fine,PencilHolder\WObj:=PAPER;
WaitRob \InPos;
SetDO Do_Kreslit_ON, 1;
SetDO Do_Kreslit_OFF, 0;
MoveL Offs(Target_drawing_origin,-56,176,0),v200,fine,PencilHolder\WObj:=PAPER;
WaitRob \InPos;
SetDO Do_Kreslit_ON, 0;
SetDO Do_Kreslit_OFF, 1;
MoveL Offs(Target_drawing_origin,-56,176,-5),v200,fine,PencilHolder\WObj:=PAPER;
WaitRob \InPos;
MoveL Offs(Target_drawing_origin,-60,80,-5),v200,fine,PencilHolder\WObj:=PAPER;
WaitRob \InPos;
MoveL Offs(Target_drawing_origin,-60,80,0),v200,fine,PencilHolder\WObj:=PAPER;
WaitRob \InPos;
SetDO Do_Kreslit_ON, 1;
SetDO Do_Kreslit_OFF, 0;
MoveL Offs(Target_drawing_origin,-60,100,0),v200,fine,PencilHolder\WObj:=PAPER;
WaitRob \InPos;
SetDO Do_Kreslit_ON, 0;
SetDO Do_Kreslit_OFF, 1;
MoveL Offs(Target_drawing_origin,-60,100,-5),v200,fine,PencilHolder\WObj:=PAPER;
WaitRob \InPos;
MoveL Offs(Target_drawing_origin,-60,120,-5),v200,fine,PencilHolder\WObj:=PAPER;
WaitRob \InPos;
MoveL Offs(Target_drawing_origin,-60,120,0),v200,fine,PencilHolder\WObj:=PAPER;
WaitRob \InPos;
SetDO Do_Kreslit_ON, 1;
SetDO Do_Kreslit_OFF, 0;
MoveL Offs(Target_drawing_origin,-60,176,0),v200,fine,PencilHolder\WObj:=PAPER;
WaitRob \InPos;
SetDO Do_Kreslit_ON, 0;
SetDO Do_Kreslit_OFF, 1;
MoveL Offs(Target_drawing_origin,-60,176,-5),v200,fine,PencilHolder\WObj:=PAPER;
WaitRob \InPos;
MoveL Offs(Target_drawing_origin,-64,80,-5),v200,fine,PencilHolder\WObj:=PAPER;
WaitRob \InPos;
MoveL Offs(Target_drawing_origin,-64,80,0),v200,fine,PencilHolder\WObj:=PAPER;
WaitRob \InPos;
SetDO Do_Kreslit_ON, 1;
SetDO Do_Kreslit_OFF, 0;
MoveL Offs(Target_drawing_origin,-64,100,0),v200,fine,PencilHolder\WObj:=PAPER;
WaitRob \InPos;
SetDO Do_Kreslit_ON, 0;
SetDO Do_Kreslit_OFF, 1;
MoveL Offs(Target_drawing_origin,-64,100,-5),v200,fine,PencilHolder\WObj:=PAPER;
WaitRob \InPos;
MoveL Offs(Target_drawing_origin,-64,116,-5),v200,fine,PencilHolder\WObj:=PAPER;
WaitRob \InPos;
MoveL Offs(Target_drawing_origin,-64,116,0),v200,fine,PencilHolder\WObj:=PAPER;
WaitRob \InPos;
SetDO Do_Kreslit_ON, 1;
SetDO Do_Kreslit_OFF, 0;
MoveL Offs(Target_drawing_origin,-64,176,0),v200,fine,PencilHolder\WObj:=PAPER;
WaitRob \InPos;
SetDO Do_Kreslit_ON, 0;
SetDO Do_Kreslit_OFF, 1;
MoveL Offs(Target_drawing_origin,-64,176,-5),v200,fine,PencilHolder\WObj:=PAPER;
WaitRob \InPos;
MoveL Offs(Target_drawing_origin,-68,80,-5),v200,fine,PencilHolder\WObj:=PAPER;
WaitRob \InPos;
MoveL Offs(Target_drawing_origin,-68,80,0),v200,fine,PencilHolder\WObj:=PAPER;
WaitRob \InPos;
SetDO Do_Kreslit_ON, 1;
SetDO Do_Kreslit_OFF, 0;
MoveL Offs(Target_drawing_origin,-68,100,0),v200,fine,PencilHolder\WObj:=PAPER;
WaitRob \InPos;
SetDO Do_Kreslit_ON, 0;
SetDO Do_Kreslit_OFF, 1;
MoveL Offs(Target_drawing_origin,-68,100,-5),v200,fine,PencilHolder\WObj:=PAPER;
WaitRob \InPos;
MoveL Offs(Target_drawing_origin,-68,116,-5),v200,fine,PencilHolder\WObj:=PAPER;
WaitRob \InPos;
MoveL Offs(Target_drawing_origin,-68,116,0),v200,fine,PencilHolder\WObj:=PAPER;
WaitRob \InPos;
SetDO Do_Kreslit_ON, 1;
SetDO Do_Kreslit_OFF, 0;
MoveL Offs(Target_drawing_origin,-68,176,0),v200,fine,PencilHolder\WObj:=PAPER;
WaitRob \InPos;
SetDO Do_Kreslit_ON, 0;
SetDO Do_Kreslit_OFF, 1;
MoveL Offs(Target_drawing_origin,-68,176,-5),v200,fine,PencilHolder\WObj:=PAPER;
WaitRob \InPos;
MoveL Offs(Target_drawing_origin,-72,80,-5),v200,fine,PencilHolder\WObj:=PAPER;
WaitRob \InPos;
MoveL Offs(Target_drawing_origin,-72,80,0),v200,fine,PencilHolder\WObj:=PAPER;
WaitRob \InPos;
SetDO Do_Kreslit_ON, 1;
SetDO Do_Kreslit_OFF, 0;
MoveL Offs(Target_drawing_origin,-72,100,0),v200,fine,PencilHolder\WObj:=PAPER;
WaitRob \InPos;
SetDO Do_Kreslit_ON, 0;
SetDO Do_Kreslit_OFF, 1;
MoveL Offs(Target_drawing_origin,-72,100,-5),v200,fine,PencilHolder\WObj:=PAPER;
WaitRob \InPos;
MoveL Offs(Target_drawing_origin,-72,116,-5),v200,fine,PencilHolder\WObj:=PAPER;
WaitRob \InPos;
MoveL Offs(Target_drawing_origin,-72,116,0),v200,fine,PencilHolder\WObj:=PAPER;
WaitRob \InPos;
SetDO Do_Kreslit_ON, 1;
SetDO Do_Kreslit_OFF, 0;
MoveL Offs(Target_drawing_origin,-72,176,0),v200,fine,PencilHolder\WObj:=PAPER;
WaitRob \InPos;
SetDO Do_Kreslit_ON, 0;
SetDO Do_Kreslit_OFF, 1;
MoveL Offs(Target_drawing_origin,-72,176,-5),v200,fine,PencilHolder\WObj:=PAPER;
WaitRob \InPos;
MoveL Offs(Target_drawing_origin,-76,80,-5),v200,fine,PencilHolder\WObj:=PAPER;
WaitRob \InPos;
MoveL Offs(Target_drawing_origin,-76,80,0),v200,fine,PencilHolder\WObj:=PAPER;
WaitRob \InPos;
SetDO Do_Kreslit_ON, 1;
SetDO Do_Kreslit_OFF, 0;
MoveL Offs(Target_drawing_origin,-76,100,0),v200,fine,PencilHolder\WObj:=PAPER;
WaitRob \InPos;
SetDO Do_Kreslit_ON, 0;
SetDO Do_Kreslit_OFF, 1;
MoveL Offs(Target_drawing_origin,-76,100,-5),v200,fine,PencilHolder\WObj:=PAPER;
WaitRob \InPos;
MoveL Offs(Target_drawing_origin,-76,116,-5),v200,fine,PencilHolder\WObj:=PAPER;
WaitRob \InPos;
MoveL Offs(Target_drawing_origin,-76,116,0),v200,fine,PencilHolder\WObj:=PAPER;
WaitRob \InPos;
SetDO Do_Kreslit_ON, 1;
SetDO Do_Kreslit_OFF, 0;
MoveL Offs(Target_drawing_origin,-76,176,0),v200,fine,PencilHolder\WObj:=PAPER;
WaitRob \InPos;
SetDO Do_Kreslit_ON, 0;
SetDO Do_Kreslit_OFF, 1;
MoveL Offs(Target_drawing_origin,-76,176,-5),v200,fine,PencilHolder\WObj:=PAPER;
WaitRob \InPos;
MoveL Offs(Target_drawing_origin,-80,80,-5),v200,fine,PencilHolder\WObj:=PAPER;
WaitRob \InPos;
MoveL Offs(Target_drawing_origin,-80,80,0),v200,fine,PencilHolder\WObj:=PAPER;
WaitRob \InPos;
SetDO Do_Kreslit_ON, 1;
SetDO Do_Kreslit_OFF, 0;
MoveL Offs(Target_drawing_origin,-80,100,0),v200,fine,PencilHolder\WObj:=PAPER;
WaitRob \InPos;
SetDO Do_Kreslit_ON, 0;
SetDO Do_Kreslit_OFF, 1;
MoveL Offs(Target_drawing_origin,-80,100,-5),v200,fine,PencilHolder\WObj:=PAPER;
WaitRob \InPos;
MoveL Offs(Target_drawing_origin,-80,116,-5),v200,fine,PencilHolder\WObj:=PAPER;
WaitRob \InPos;
MoveL Offs(Target_drawing_origin,-80,116,0),v200,fine,PencilHolder\WObj:=PAPER;
WaitRob \InPos;
SetDO Do_Kreslit_ON, 1;
SetDO Do_Kreslit_OFF, 0;
MoveL Offs(Target_drawing_origin,-80,176,0),v200,fine,PencilHolder\WObj:=PAPER;
WaitRob \InPos;
SetDO Do_Kreslit_ON, 0;
SetDO Do_Kreslit_OFF, 1;
MoveL Offs(Target_drawing_origin,-80,176,-5),v200,fine,PencilHolder\WObj:=PAPER;
WaitRob \InPos;
MoveL Offs(Target_drawing_origin,-84,80,-5),v200,fine,PencilHolder\WObj:=PAPER;
WaitRob \InPos;
MoveL Offs(Target_drawing_origin,-84,80,0),v200,fine,PencilHolder\WObj:=PAPER;
WaitRob \InPos;
SetDO Do_Kreslit_ON, 1;
SetDO Do_Kreslit_OFF, 0;
MoveL Offs(Target_drawing_origin,-84,176,0),v200,fine,PencilHolder\WObj:=PAPER;
WaitRob \InPos;
SetDO Do_Kreslit_ON, 0;
SetDO Do_Kreslit_OFF, 1;
MoveL Offs(Target_drawing_origin,-84,176,-5),v200,fine,PencilHolder\WObj:=PAPER;
WaitRob \InPos;
MoveL Offs(Target_drawing_origin,-88,80,-5),v200,fine,PencilHolder\WObj:=PAPER;
WaitRob \InPos;
MoveL Offs(Target_drawing_origin,-88,80,0),v200,fine,PencilHolder\WObj:=PAPER;
WaitRob \InPos;
SetDO Do_Kreslit_ON, 1;
SetDO Do_Kreslit_OFF, 0;
MoveL Offs(Target_drawing_origin,-88,176,0),v200,fine,PencilHolder\WObj:=PAPER;
WaitRob \InPos;
SetDO Do_Kreslit_ON, 0;
SetDO Do_Kreslit_OFF, 1;
MoveL Offs(Target_drawing_origin,-88,176,-5),v200,fine,PencilHolder\WObj:=PAPER;
WaitRob \InPos;
MoveL Offs(Target_drawing_origin,-92,80,-5),v200,fine,PencilHolder\WObj:=PAPER;
WaitRob \InPos;
MoveL Offs(Target_drawing_origin,-92,80,0),v200,fine,PencilHolder\WObj:=PAPER;
WaitRob \InPos;
SetDO Do_Kreslit_ON, 1;
SetDO Do_Kreslit_OFF, 0;
MoveL Offs(Target_drawing_origin,-92,176,0),v200,fine,PencilHolder\WObj:=PAPER;
WaitRob \InPos;
SetDO Do_Kreslit_ON, 0;
SetDO Do_Kreslit_OFF, 1;
MoveL Offs(Target_drawing_origin,-92,176,-5),v200,fine,PencilHolder\WObj:=PAPER;
WaitRob \InPos;
MoveL Offs(Target_drawing_origin,-96,80,-5),v200,fine,PencilHolder\WObj:=PAPER;
WaitRob \InPos;
MoveL Offs(Target_drawing_origin,-96,80,0),v200,fine,PencilHolder\WObj:=PAPER;
WaitRob \InPos;
SetDO Do_Kreslit_ON, 1;
SetDO Do_Kreslit_OFF, 0;
MoveL Offs(Target_drawing_origin,-96,176,0),v200,fine,PencilHolder\WObj:=PAPER;
WaitRob \InPos;
SetDO Do_Kreslit_ON, 0;
SetDO Do_Kreslit_OFF, 1;
MoveL Offs(Target_drawing_origin,-96,176,-5),v200,fine,PencilHolder\WObj:=PAPER;
WaitRob \InPos;
MoveL Offs(Target_drawing_origin,-100,176,-5),v200,fine,PencilHolder\WObj:=PAPER;
WaitRob \InPos;
MoveL Offs(Target_drawing_origin,-100,176,0),v200,fine,PencilHolder\WObj:=PAPER;
WaitRob \InPos;
SetDO Do_Kreslit_ON, 1;
SetDO Do_Kreslit_OFF, 0;
MoveL Offs(Target_drawing_origin,-104,80,0),v200,fine,PencilHolder\WObj:=PAPER;
WaitRob \InPos;
SetDO Do_Kreslit_ON, 0;
SetDO Do_Kreslit_OFF, 1;
MoveL Offs(Target_drawing_origin,-104,80,-5),v200,fine,PencilHolder\WObj:=PAPER;
WaitRob \InPos;
MoveL Offs(Target_drawing_origin,-104,176,-5),v200,fine,PencilHolder\WObj:=PAPER;
WaitRob \InPos;
MoveL Offs(Target_drawing_origin,-104,176,0),v200,fine,PencilHolder\WObj:=PAPER;
WaitRob \InPos;
SetDO Do_Kreslit_ON, 1;
SetDO Do_Kreslit_OFF, 0;
MoveL Offs(Target_drawing_origin,-108,80,0),v200,fine,PencilHolder\WObj:=PAPER;
WaitRob \InPos;
SetDO Do_Kreslit_ON, 0;
SetDO Do_Kreslit_OFF, 1;
MoveL Offs(Target_drawing_origin,-108,80,-5),v200,fine,PencilHolder\WObj:=PAPER;
WaitRob \InPos;
MoveL Offs(Target_drawing_origin,-108,176,-5),v200,fine,PencilHolder\WObj:=PAPER;
WaitRob \InPos;
MoveL Offs(Target_drawing_origin,-108,176,0),v200,fine,PencilHolder\WObj:=PAPER;
WaitRob \InPos;
SetDO Do_Kreslit_ON, 1;
SetDO Do_Kreslit_OFF, 0;
MoveL Offs(Target_drawing_origin,-112,80,0),v200,fine,PencilHolder\WObj:=PAPER;
WaitRob \InPos;
SetDO Do_Kreslit_ON, 0;
SetDO Do_Kreslit_OFF, 1;
MoveL Offs(Target_drawing_origin,-112,80,-5),v200,fine,PencilHolder\WObj:=PAPER;
WaitRob \InPos;
MoveL Offs(Target_drawing_origin,-112,176,-5),v200,fine,PencilHolder\WObj:=PAPER;
WaitRob \InPos;
MoveL Offs(Target_drawing_origin,-112,176,0),v200,fine,PencilHolder\WObj:=PAPER;
WaitRob \InPos;
SetDO Do_Kreslit_ON, 1;
SetDO Do_Kreslit_OFF, 0;
MoveL Offs(Target_drawing_origin,-116,80,0),v200,fine,PencilHolder\WObj:=PAPER;
WaitRob \InPos;
SetDO Do_Kreslit_ON, 0;
SetDO Do_Kreslit_OFF, 1;
MoveL Offs(Target_drawing_origin,-116,80,-5),v200,fine,PencilHolder\WObj:=PAPER;
WaitRob \InPos;
MoveL Offs(Target_drawing_origin,-116,176,-5),v200,fine,PencilHolder\WObj:=PAPER;
WaitRob \InPos;
MoveL Offs(Target_drawing_origin,-116,176,0),v200,fine,PencilHolder\WObj:=PAPER;
WaitRob \InPos;
SetDO Do_Kreslit_ON, 1;
SetDO Do_Kreslit_OFF, 0;
MoveL Offs(Target_drawing_origin,-120,80,0),v200,fine,PencilHolder\WObj:=PAPER;
WaitRob \InPos;
SetDO Do_Kreslit_ON, 0;
SetDO Do_Kreslit_OFF, 1;
MoveL Offs(Target_drawing_origin,-120,80,-5),v200,fine,PencilHolder\WObj:=PAPER;
WaitRob \InPos;
MoveL Offs(Target_drawing_origin,-120,176,-5),v200,fine,PencilHolder\WObj:=PAPER;
WaitRob \InPos;
MoveL Offs(Target_drawing_origin,-120,176,0),v200,fine,PencilHolder\WObj:=PAPER;
WaitRob \InPos;
SetDO Do_Kreslit_ON, 1;
SetDO Do_Kreslit_OFF, 0;
MoveL Offs(Target_drawing_origin,-124,80,0),v200,fine,PencilHolder\WObj:=PAPER;
WaitRob \InPos;
SetDO Do_Kreslit_ON, 0;
SetDO Do_Kreslit_OFF, 1;
MoveL Offs(Target_drawing_origin,-124,80,-5),v200,fine,PencilHolder\WObj:=PAPER;
WaitRob \InPos;
MoveL Offs(Target_drawing_origin,-124,176,-5),v200,fine,PencilHolder\WObj:=PAPER;
WaitRob \InPos;
MoveL Offs(Target_drawing_origin,-124,176,0),v200,fine,PencilHolder\WObj:=PAPER;
WaitRob \InPos;
SetDO Do_Kreslit_ON, 1;
SetDO Do_Kreslit_OFF, 0;
MoveL Offs(Target_drawing_origin,-128,80,0),v200,fine,PencilHolder\WObj:=PAPER;
WaitRob \InPos;
SetDO Do_Kreslit_ON, 0;
SetDO Do_Kreslit_OFF, 1;
MoveL Offs(Target_drawing_origin,-128,80,-5),v200,fine,PencilHolder\WObj:=PAPER;
WaitRob \InPos;
MoveL Offs(Target_drawing_origin,-128,96,-5),v200,fine,PencilHolder\WObj:=PAPER;
WaitRob \InPos;
MoveL Offs(Target_drawing_origin,-128,96,0),v200,fine,PencilHolder\WObj:=PAPER;
WaitRob \InPos;
SetDO Do_Kreslit_ON, 1;
SetDO Do_Kreslit_OFF, 0;
MoveL Offs(Target_drawing_origin,-128,152,0),v200,fine,PencilHolder\WObj:=PAPER;
WaitRob \InPos;
SetDO Do_Kreslit_ON, 0;
SetDO Do_Kreslit_OFF, 1;
MoveL Offs(Target_drawing_origin,-128,152,-5),v200,fine,PencilHolder\WObj:=PAPER;
WaitRob \InPos;
MoveL Offs(Target_drawing_origin,-128,176,-5),v200,fine,PencilHolder\WObj:=PAPER;
WaitRob \InPos;
MoveL Offs(Target_drawing_origin,-128,176,0),v200,fine,PencilHolder\WObj:=PAPER;
WaitRob \InPos;
SetDO Do_Kreslit_ON, 1;
SetDO Do_Kreslit_OFF, 0;
MoveL Offs(Target_drawing_origin,-132,80,0),v200,fine,PencilHolder\WObj:=PAPER;
WaitRob \InPos;
SetDO Do_Kreslit_ON, 0;
SetDO Do_Kreslit_OFF, 1;
MoveL Offs(Target_drawing_origin,-132,80,-5),v200,fine,PencilHolder\WObj:=PAPER;
WaitRob \InPos;
MoveL Offs(Target_drawing_origin,-132,96,-5),v200,fine,PencilHolder\WObj:=PAPER;
WaitRob \InPos;
MoveL Offs(Target_drawing_origin,-132,96,0),v200,fine,PencilHolder\WObj:=PAPER;
WaitRob \InPos;
SetDO Do_Kreslit_ON, 1;
SetDO Do_Kreslit_OFF, 0;
MoveL Offs(Target_drawing_origin,-132,156,0),v200,fine,PencilHolder\WObj:=PAPER;
WaitRob \InPos;
SetDO Do_Kreslit_ON, 0;
SetDO Do_Kreslit_OFF, 1;
MoveL Offs(Target_drawing_origin,-132,156,-5),v200,fine,PencilHolder\WObj:=PAPER;
WaitRob \InPos;
MoveL Offs(Target_drawing_origin,-132,176,-5),v200,fine,PencilHolder\WObj:=PAPER;
WaitRob \InPos;
MoveL Offs(Target_drawing_origin,-132,176,0),v200,fine,PencilHolder\WObj:=PAPER;
WaitRob \InPos;
SetDO Do_Kreslit_ON, 1;
SetDO Do_Kreslit_OFF, 0;
MoveL Offs(Target_drawing_origin,-136,80,0),v200,fine,PencilHolder\WObj:=PAPER;
WaitRob \InPos;
SetDO Do_Kreslit_ON, 0;
SetDO Do_Kreslit_OFF, 1;
MoveL Offs(Target_drawing_origin,-136,80,-5),v200,fine,PencilHolder\WObj:=PAPER;
WaitRob \InPos;
MoveL Offs(Target_drawing_origin,-136,96,-5),v200,fine,PencilHolder\WObj:=PAPER;
WaitRob \InPos;
MoveL Offs(Target_drawing_origin,-136,96,0),v200,fine,PencilHolder\WObj:=PAPER;
WaitRob \InPos;
SetDO Do_Kreslit_ON, 1;
SetDO Do_Kreslit_OFF, 0;
MoveL Offs(Target_drawing_origin,-136,156,0),v200,fine,PencilHolder\WObj:=PAPER;
WaitRob \InPos;
SetDO Do_Kreslit_ON, 0;
SetDO Do_Kreslit_OFF, 1;
MoveL Offs(Target_drawing_origin,-136,156,-5),v200,fine,PencilHolder\WObj:=PAPER;
WaitRob \InPos;
MoveL Offs(Target_drawing_origin,-136,176,-5),v200,fine,PencilHolder\WObj:=PAPER;
WaitRob \InPos;
MoveL Offs(Target_drawing_origin,-136,176,0),v200,fine,PencilHolder\WObj:=PAPER;
WaitRob \InPos;
SetDO Do_Kreslit_ON, 1;
SetDO Do_Kreslit_OFF, 0;
MoveL Offs(Target_drawing_origin,-140,80,0),v200,fine,PencilHolder\WObj:=PAPER;
WaitRob \InPos;
SetDO Do_Kreslit_ON, 0;
SetDO Do_Kreslit_OFF, 1;
MoveL Offs(Target_drawing_origin,-140,80,-5),v200,fine,PencilHolder\WObj:=PAPER;
WaitRob \InPos;
MoveL Offs(Target_drawing_origin,-140,96,-5),v200,fine,PencilHolder\WObj:=PAPER;
WaitRob \InPos;
MoveL Offs(Target_drawing_origin,-140,96,0),v200,fine,PencilHolder\WObj:=PAPER;
WaitRob \InPos;
SetDO Do_Kreslit_ON, 1;
SetDO Do_Kreslit_OFF, 0;
MoveL Offs(Target_drawing_origin,-140,108,0),v200,fine,PencilHolder\WObj:=PAPER;
WaitRob \InPos;
SetDO Do_Kreslit_ON, 0;
SetDO Do_Kreslit_OFF, 1;
MoveL Offs(Target_drawing_origin,-140,108,-5),v200,fine,PencilHolder\WObj:=PAPER;
WaitRob \InPos;
MoveL Offs(Target_drawing_origin,-140,120,-5),v200,fine,PencilHolder\WObj:=PAPER;
WaitRob \InPos;
MoveL Offs(Target_drawing_origin,-140,120,0),v200,fine,PencilHolder\WObj:=PAPER;
WaitRob \InPos;
SetDO Do_Kreslit_ON, 1;
SetDO Do_Kreslit_OFF, 0;
MoveL Offs(Target_drawing_origin,-140,132,0),v200,fine,PencilHolder\WObj:=PAPER;
WaitRob \InPos;
SetDO Do_Kreslit_ON, 0;
SetDO Do_Kreslit_OFF, 1;
MoveL Offs(Target_drawing_origin,-140,132,-5),v200,fine,PencilHolder\WObj:=PAPER;
WaitRob \InPos;
MoveL Offs(Target_drawing_origin,-140,176,-5),v200,fine,PencilHolder\WObj:=PAPER;
WaitRob \InPos;
MoveL Offs(Target_drawing_origin,-140,176,0),v200,fine,PencilHolder\WObj:=PAPER;
WaitRob \InPos;
SetDO Do_Kreslit_ON, 1;
SetDO Do_Kreslit_OFF, 0;
MoveL Offs(Target_drawing_origin,-144,80,0),v200,fine,PencilHolder\WObj:=PAPER;
WaitRob \InPos;
SetDO Do_Kreslit_ON, 0;
SetDO Do_Kreslit_OFF, 1;
MoveL Offs(Target_drawing_origin,-144,80,-5),v200,fine,PencilHolder\WObj:=PAPER;
WaitRob \InPos;
MoveL Offs(Target_drawing_origin,-144,96,-5),v200,fine,PencilHolder\WObj:=PAPER;
WaitRob \InPos;
MoveL Offs(Target_drawing_origin,-144,96,0),v200,fine,PencilHolder\WObj:=PAPER;
WaitRob \InPos;
SetDO Do_Kreslit_ON, 1;
SetDO Do_Kreslit_OFF, 0;
MoveL Offs(Target_drawing_origin,-144,108,0),v200,fine,PencilHolder\WObj:=PAPER;
WaitRob \InPos;
SetDO Do_Kreslit_ON, 0;
SetDO Do_Kreslit_OFF, 1;
MoveL Offs(Target_drawing_origin,-144,108,-5),v200,fine,PencilHolder\WObj:=PAPER;
WaitRob \InPos;
MoveL Offs(Target_drawing_origin,-144,120,-5),v200,fine,PencilHolder\WObj:=PAPER;
WaitRob \InPos;
MoveL Offs(Target_drawing_origin,-144,120,0),v200,fine,PencilHolder\WObj:=PAPER;
WaitRob \InPos;
SetDO Do_Kreslit_ON, 1;
SetDO Do_Kreslit_OFF, 0;
MoveL Offs(Target_drawing_origin,-144,132,0),v200,fine,PencilHolder\WObj:=PAPER;
WaitRob \InPos;
SetDO Do_Kreslit_ON, 0;
SetDO Do_Kreslit_OFF, 1;
MoveL Offs(Target_drawing_origin,-144,132,-5),v200,fine,PencilHolder\WObj:=PAPER;
WaitRob \InPos;
MoveL Offs(Target_drawing_origin,-144,176,-5),v200,fine,PencilHolder\WObj:=PAPER;
WaitRob \InPos;
MoveL Offs(Target_drawing_origin,-144,176,0),v200,fine,PencilHolder\WObj:=PAPER;
WaitRob \InPos;
SetDO Do_Kreslit_ON, 1;
SetDO Do_Kreslit_OFF, 0;
MoveL Offs(Target_drawing_origin,-148,80,0),v200,fine,PencilHolder\WObj:=PAPER;
WaitRob \InPos;
SetDO Do_Kreslit_ON, 0;
SetDO Do_Kreslit_OFF, 1;
MoveL Offs(Target_drawing_origin,-148,80,-5),v200,fine,PencilHolder\WObj:=PAPER;
WaitRob \InPos;
MoveL Offs(Target_drawing_origin,-148,96,-5),v200,fine,PencilHolder\WObj:=PAPER;
WaitRob \InPos;
MoveL Offs(Target_drawing_origin,-148,96,0),v200,fine,PencilHolder\WObj:=PAPER;
WaitRob \InPos;
SetDO Do_Kreslit_ON, 1;
SetDO Do_Kreslit_OFF, 0;
MoveL Offs(Target_drawing_origin,-148,108,0),v200,fine,PencilHolder\WObj:=PAPER;
WaitRob \InPos;
SetDO Do_Kreslit_ON, 0;
SetDO Do_Kreslit_OFF, 1;
MoveL Offs(Target_drawing_origin,-148,108,-5),v200,fine,PencilHolder\WObj:=PAPER;
WaitRob \InPos;
MoveL Offs(Target_drawing_origin,-148,120,-5),v200,fine,PencilHolder\WObj:=PAPER;
WaitRob \InPos;
MoveL Offs(Target_drawing_origin,-148,120,0),v200,fine,PencilHolder\WObj:=PAPER;
WaitRob \InPos;
SetDO Do_Kreslit_ON, 1;
SetDO Do_Kreslit_OFF, 0;
MoveL Offs(Target_drawing_origin,-148,132,0),v200,fine,PencilHolder\WObj:=PAPER;
WaitRob \InPos;
SetDO Do_Kreslit_ON, 0;
SetDO Do_Kreslit_OFF, 1;
MoveL Offs(Target_drawing_origin,-148,132,-5),v200,fine,PencilHolder\WObj:=PAPER;
WaitRob \InPos;
MoveL Offs(Target_drawing_origin,-148,176,-5),v200,fine,PencilHolder\WObj:=PAPER;
WaitRob \InPos;
MoveL Offs(Target_drawing_origin,-148,176,0),v200,fine,PencilHolder\WObj:=PAPER;
WaitRob \InPos;
SetDO Do_Kreslit_ON, 1;
SetDO Do_Kreslit_OFF, 0;
MoveL Offs(Target_drawing_origin,-152,80,0),v200,fine,PencilHolder\WObj:=PAPER;
WaitRob \InPos;
SetDO Do_Kreslit_ON, 0;
SetDO Do_Kreslit_OFF, 1;
MoveL Offs(Target_drawing_origin,-152,80,-5),v200,fine,PencilHolder\WObj:=PAPER;
WaitRob \InPos;
MoveL Offs(Target_drawing_origin,-152,96,-5),v200,fine,PencilHolder\WObj:=PAPER;
WaitRob \InPos;
MoveL Offs(Target_drawing_origin,-152,96,0),v200,fine,PencilHolder\WObj:=PAPER;
WaitRob \InPos;
SetDO Do_Kreslit_ON, 1;
SetDO Do_Kreslit_OFF, 0;
MoveL Offs(Target_drawing_origin,-152,108,0),v200,fine,PencilHolder\WObj:=PAPER;
WaitRob \InPos;
SetDO Do_Kreslit_ON, 0;
SetDO Do_Kreslit_OFF, 1;
MoveL Offs(Target_drawing_origin,-152,108,-5),v200,fine,PencilHolder\WObj:=PAPER;
WaitRob \InPos;
MoveL Offs(Target_drawing_origin,-152,120,-5),v200,fine,PencilHolder\WObj:=PAPER;
WaitRob \InPos;
MoveL Offs(Target_drawing_origin,-152,120,0),v200,fine,PencilHolder\WObj:=PAPER;
WaitRob \InPos;
SetDO Do_Kreslit_ON, 1;
SetDO Do_Kreslit_OFF, 0;
MoveL Offs(Target_drawing_origin,-152,132,0),v200,fine,PencilHolder\WObj:=PAPER;
WaitRob \InPos;
SetDO Do_Kreslit_ON, 0;
SetDO Do_Kreslit_OFF, 1;
MoveL Offs(Target_drawing_origin,-152,132,-5),v200,fine,PencilHolder\WObj:=PAPER;
WaitRob \InPos;
MoveL Offs(Target_drawing_origin,-152,176,-5),v200,fine,PencilHolder\WObj:=PAPER;
WaitRob \InPos;
MoveL Offs(Target_drawing_origin,-152,176,0),v200,fine,PencilHolder\WObj:=PAPER;
WaitRob \InPos;
SetDO Do_Kreslit_ON, 1;
SetDO Do_Kreslit_OFF, 0;
MoveL Offs(Target_drawing_origin,-156,80,0),v200,fine,PencilHolder\WObj:=PAPER;
WaitRob \InPos;
SetDO Do_Kreslit_ON, 0;
SetDO Do_Kreslit_OFF, 1;
MoveL Offs(Target_drawing_origin,-156,80,-5),v200,fine,PencilHolder\WObj:=PAPER;
WaitRob \InPos;
MoveL Offs(Target_drawing_origin,-156,96,-5),v200,fine,PencilHolder\WObj:=PAPER;
WaitRob \InPos;
MoveL Offs(Target_drawing_origin,-156,96,0),v200,fine,PencilHolder\WObj:=PAPER;
WaitRob \InPos;
SetDO Do_Kreslit_ON, 1;
SetDO Do_Kreslit_OFF, 0;
MoveL Offs(Target_drawing_origin,-156,108,0),v200,fine,PencilHolder\WObj:=PAPER;
WaitRob \InPos;
SetDO Do_Kreslit_ON, 0;
SetDO Do_Kreslit_OFF, 1;
MoveL Offs(Target_drawing_origin,-156,108,-5),v200,fine,PencilHolder\WObj:=PAPER;
WaitRob \InPos;
MoveL Offs(Target_drawing_origin,-156,120,-5),v200,fine,PencilHolder\WObj:=PAPER;
WaitRob \InPos;
MoveL Offs(Target_drawing_origin,-156,120,0),v200,fine,PencilHolder\WObj:=PAPER;
WaitRob \InPos;
SetDO Do_Kreslit_ON, 1;
SetDO Do_Kreslit_OFF, 0;
MoveL Offs(Target_drawing_origin,-156,132,0),v200,fine,PencilHolder\WObj:=PAPER;
WaitRob \InPos;
SetDO Do_Kreslit_ON, 0;
SetDO Do_Kreslit_OFF, 1;
MoveL Offs(Target_drawing_origin,-156,132,-5),v200,fine,PencilHolder\WObj:=PAPER;
WaitRob \InPos;
MoveL Offs(Target_drawing_origin,-156,176,-5),v200,fine,PencilHolder\WObj:=PAPER;
WaitRob \InPos;
MoveL Offs(Target_drawing_origin,-156,176,0),v200,fine,PencilHolder\WObj:=PAPER;
WaitRob \InPos;
SetDO Do_Kreslit_ON, 1;
SetDO Do_Kreslit_OFF, 0;
MoveL Offs(Target_drawing_origin,-160,80,0),v200,fine,PencilHolder\WObj:=PAPER;
WaitRob \InPos;
SetDO Do_Kreslit_ON, 0;
SetDO Do_Kreslit_OFF, 1;
MoveL Offs(Target_drawing_origin,-160,80,-5),v200,fine,PencilHolder\WObj:=PAPER;
WaitRob \InPos;
MoveL Offs(Target_drawing_origin,-160,176,-5),v200,fine,PencilHolder\WObj:=PAPER;
WaitRob \InPos;
MoveL Offs(Target_drawing_origin,-160,176,0),v200,fine,PencilHolder\WObj:=PAPER;
WaitRob \InPos;
SetDO Do_Kreslit_ON, 1;
SetDO Do_Kreslit_OFF, 0;
MoveL Offs(Target_drawing_origin,-164,80,0),v200,fine,PencilHolder\WObj:=PAPER;
WaitRob \InPos;
SetDO Do_Kreslit_ON, 0;
SetDO Do_Kreslit_OFF, 1;
MoveL Offs(Target_drawing_origin,-164,80,-5),v200,fine,PencilHolder\WObj:=PAPER;
WaitRob \InPos;
MoveL Offs(Target_drawing_origin,-164,176,-5),v200,fine,PencilHolder\WObj:=PAPER;
WaitRob \InPos;
MoveL Offs(Target_drawing_origin,-164,176,0),v200,fine,PencilHolder\WObj:=PAPER;
WaitRob \InPos;
SetDO Do_Kreslit_ON, 1;
SetDO Do_Kreslit_OFF, 0;
MoveL Offs(Target_drawing_origin,-168,80,0),v200,fine,PencilHolder\WObj:=PAPER;
WaitRob \InPos;
SetDO Do_Kreslit_ON, 0;
SetDO Do_Kreslit_OFF, 1;
MoveL Offs(Target_drawing_origin,-168,80,-5),v200,fine,PencilHolder\WObj:=PAPER;
WaitRob \InPos;
MoveL Offs(Target_drawing_origin,-168,176,-5),v200,fine,PencilHolder\WObj:=PAPER;
WaitRob \InPos;
MoveL Offs(Target_drawing_origin,-168,176,0),v200,fine,PencilHolder\WObj:=PAPER;
WaitRob \InPos;
SetDO Do_Kreslit_ON, 1;
SetDO Do_Kreslit_OFF, 0;
MoveL Offs(Target_drawing_origin,-172,80,0),v200,fine,PencilHolder\WObj:=PAPER;
WaitRob \InPos;
SetDO Do_Kreslit_ON, 0;
SetDO Do_Kreslit_OFF, 1;
MoveL Offs(Target_drawing_origin,-172,80,-5),v200,fine,PencilHolder\WObj:=PAPER;
WaitRob \InPos;
MoveL Offs(Target_drawing_origin,-172,136,-5),v200,fine,PencilHolder\WObj:=PAPER;
WaitRob \InPos;
MoveL Offs(Target_drawing_origin,-172,136,0),v200,fine,PencilHolder\WObj:=PAPER;
WaitRob \InPos;
SetDO Do_Kreslit_ON, 1;
SetDO Do_Kreslit_OFF, 0;
MoveL Offs(Target_drawing_origin,-172,144,0),v200,fine,PencilHolder\WObj:=PAPER;
WaitRob \InPos;
SetDO Do_Kreslit_ON, 0;
SetDO Do_Kreslit_OFF, 1;
MoveL Offs(Target_drawing_origin,-172,144,-5),v200,fine,PencilHolder\WObj:=PAPER;
WaitRob \InPos;
MoveL Offs(Target_drawing_origin,-172,176,-5),v200,fine,PencilHolder\WObj:=PAPER;
WaitRob \InPos;
MoveL Offs(Target_drawing_origin,-172,176,0),v200,fine,PencilHolder\WObj:=PAPER;
WaitRob \InPos;
SetDO Do_Kreslit_ON, 1;
SetDO Do_Kreslit_OFF, 0;
MoveL Offs(Target_drawing_origin,-176,80,0),v200,fine,PencilHolder\WObj:=PAPER;
WaitRob \InPos;
SetDO Do_Kreslit_ON, 0;
SetDO Do_Kreslit_OFF, 1;
MoveL Offs(Target_drawing_origin,-176,80,-5),v200,fine,PencilHolder\WObj:=PAPER;
WaitRob \InPos;
MoveL Offs(Target_drawing_origin,-176,100,-5),v200,fine,PencilHolder\WObj:=PAPER;
WaitRob \InPos;
MoveL Offs(Target_drawing_origin,-176,100,0),v200,fine,PencilHolder\WObj:=PAPER;
WaitRob \InPos;
SetDO Do_Kreslit_ON, 1;
SetDO Do_Kreslit_OFF, 0;
MoveL Offs(Target_drawing_origin,-176,128,0),v200,fine,PencilHolder\WObj:=PAPER;
WaitRob \InPos;
SetDO Do_Kreslit_ON, 0;
SetDO Do_Kreslit_OFF, 1;
MoveL Offs(Target_drawing_origin,-176,128,-5),v200,fine,PencilHolder\WObj:=PAPER;
WaitRob \InPos;
MoveL Offs(Target_drawing_origin,-176,136,-5),v200,fine,PencilHolder\WObj:=PAPER;
WaitRob \InPos;
MoveL Offs(Target_drawing_origin,-176,136,0),v200,fine,PencilHolder\WObj:=PAPER;
WaitRob \InPos;
SetDO Do_Kreslit_ON, 1;
SetDO Do_Kreslit_OFF, 0;
MoveL Offs(Target_drawing_origin,-176,152,0),v200,fine,PencilHolder\WObj:=PAPER;
WaitRob \InPos;
SetDO Do_Kreslit_ON, 0;
SetDO Do_Kreslit_OFF, 1;
MoveL Offs(Target_drawing_origin,-176,152,-5),v200,fine,PencilHolder\WObj:=PAPER;
WaitRob \InPos;
MoveL Offs(Target_drawing_origin,-176,176,-5),v200,fine,PencilHolder\WObj:=PAPER;
WaitRob \InPos;
MoveL Offs(Target_drawing_origin,-176,176,0),v200,fine,PencilHolder\WObj:=PAPER;
WaitRob \InPos;
SetDO Do_Kreslit_ON, 1;
SetDO Do_Kreslit_OFF, 0;
MoveL Offs(Target_drawing_origin,-180,80,0),v200,fine,PencilHolder\WObj:=PAPER;
WaitRob \InPos;
SetDO Do_Kreslit_ON, 0;
SetDO Do_Kreslit_OFF, 1;
MoveL Offs(Target_drawing_origin,-180,80,-5),v200,fine,PencilHolder\WObj:=PAPER;
WaitRob \InPos;
MoveL Offs(Target_drawing_origin,-180,96,-5),v200,fine,PencilHolder\WObj:=PAPER;
WaitRob \InPos;
MoveL Offs(Target_drawing_origin,-180,96,0),v200,fine,PencilHolder\WObj:=PAPER;
WaitRob \InPos;
SetDO Do_Kreslit_ON, 1;
SetDO Do_Kreslit_OFF, 0;
MoveL Offs(Target_drawing_origin,-180,132,0),v200,fine,PencilHolder\WObj:=PAPER;
WaitRob \InPos;
SetDO Do_Kreslit_ON, 0;
SetDO Do_Kreslit_OFF, 1;
MoveL Offs(Target_drawing_origin,-180,132,-5),v200,fine,PencilHolder\WObj:=PAPER;
WaitRob \InPos;
MoveL Offs(Target_drawing_origin,-180,140,-5),v200,fine,PencilHolder\WObj:=PAPER;
WaitRob \InPos;
MoveL Offs(Target_drawing_origin,-180,140,0),v200,fine,PencilHolder\WObj:=PAPER;
WaitRob \InPos;
SetDO Do_Kreslit_ON, 1;
SetDO Do_Kreslit_OFF, 0;
MoveL Offs(Target_drawing_origin,-180,156,0),v200,fine,PencilHolder\WObj:=PAPER;
WaitRob \InPos;
SetDO Do_Kreslit_ON, 0;
SetDO Do_Kreslit_OFF, 1;
MoveL Offs(Target_drawing_origin,-180,156,-5),v200,fine,PencilHolder\WObj:=PAPER;
WaitRob \InPos;
MoveL Offs(Target_drawing_origin,-180,176,-5),v200,fine,PencilHolder\WObj:=PAPER;
WaitRob \InPos;
MoveL Offs(Target_drawing_origin,-180,176,0),v200,fine,PencilHolder\WObj:=PAPER;
WaitRob \InPos;
SetDO Do_Kreslit_ON, 1;
SetDO Do_Kreslit_OFF, 0;
MoveL Offs(Target_drawing_origin,-184,80,0),v200,fine,PencilHolder\WObj:=PAPER;
WaitRob \InPos;
SetDO Do_Kreslit_ON, 0;
SetDO Do_Kreslit_OFF, 1;
MoveL Offs(Target_drawing_origin,-184,80,-5),v200,fine,PencilHolder\WObj:=PAPER;
WaitRob \InPos;
MoveL Offs(Target_drawing_origin,-184,96,-5),v200,fine,PencilHolder\WObj:=PAPER;
WaitRob \InPos;
MoveL Offs(Target_drawing_origin,-184,96,0),v200,fine,PencilHolder\WObj:=PAPER;
WaitRob \InPos;
SetDO Do_Kreslit_ON, 1;
SetDO Do_Kreslit_OFF, 0;
MoveL Offs(Target_drawing_origin,-184,112,0),v200,fine,PencilHolder\WObj:=PAPER;
WaitRob \InPos;
SetDO Do_Kreslit_ON, 0;
SetDO Do_Kreslit_OFF, 1;
MoveL Offs(Target_drawing_origin,-184,112,-5),v200,fine,PencilHolder\WObj:=PAPER;
WaitRob \InPos;
MoveL Offs(Target_drawing_origin,-184,120,-5),v200,fine,PencilHolder\WObj:=PAPER;
WaitRob \InPos;
MoveL Offs(Target_drawing_origin,-184,120,0),v200,fine,PencilHolder\WObj:=PAPER;
WaitRob \InPos;
SetDO Do_Kreslit_ON, 1;
SetDO Do_Kreslit_OFF, 0;
MoveL Offs(Target_drawing_origin,-184,132,0),v200,fine,PencilHolder\WObj:=PAPER;
WaitRob \InPos;
SetDO Do_Kreslit_ON, 0;
SetDO Do_Kreslit_OFF, 1;
MoveL Offs(Target_drawing_origin,-184,132,-5),v200,fine,PencilHolder\WObj:=PAPER;
WaitRob \InPos;
MoveL Offs(Target_drawing_origin,-184,144,-5),v200,fine,PencilHolder\WObj:=PAPER;
WaitRob \InPos;
MoveL Offs(Target_drawing_origin,-184,144,0),v200,fine,PencilHolder\WObj:=PAPER;
WaitRob \InPos;
SetDO Do_Kreslit_ON, 1;
SetDO Do_Kreslit_OFF, 0;
MoveL Offs(Target_drawing_origin,-184,156,0),v200,fine,PencilHolder\WObj:=PAPER;
WaitRob \InPos;
SetDO Do_Kreslit_ON, 0;
SetDO Do_Kreslit_OFF, 1;
MoveL Offs(Target_drawing_origin,-184,156,-5),v200,fine,PencilHolder\WObj:=PAPER;
WaitRob \InPos;
MoveL Offs(Target_drawing_origin,-184,176,-5),v200,fine,PencilHolder\WObj:=PAPER;
WaitRob \InPos;
MoveL Offs(Target_drawing_origin,-184,176,0),v200,fine,PencilHolder\WObj:=PAPER;
WaitRob \InPos;
SetDO Do_Kreslit_ON, 1;
SetDO Do_Kreslit_OFF, 0;
MoveL Offs(Target_drawing_origin,-188,80,0),v200,fine,PencilHolder\WObj:=PAPER;
WaitRob \InPos;
SetDO Do_Kreslit_ON, 0;
SetDO Do_Kreslit_OFF, 1;
MoveL Offs(Target_drawing_origin,-188,80,-5),v200,fine,PencilHolder\WObj:=PAPER;
WaitRob \InPos;
MoveL Offs(Target_drawing_origin,-188,96,-5),v200,fine,PencilHolder\WObj:=PAPER;
WaitRob \InPos;
MoveL Offs(Target_drawing_origin,-188,96,0),v200,fine,PencilHolder\WObj:=PAPER;
WaitRob \InPos;
SetDO Do_Kreslit_ON, 1;
SetDO Do_Kreslit_OFF, 0;
MoveL Offs(Target_drawing_origin,-188,108,0),v200,fine,PencilHolder\WObj:=PAPER;
WaitRob \InPos;
SetDO Do_Kreslit_ON, 0;
SetDO Do_Kreslit_OFF, 1;
MoveL Offs(Target_drawing_origin,-188,108,-5),v200,fine,PencilHolder\WObj:=PAPER;
WaitRob \InPos;
MoveL Offs(Target_drawing_origin,-188,120,-5),v200,fine,PencilHolder\WObj:=PAPER;
WaitRob \InPos;
MoveL Offs(Target_drawing_origin,-188,120,0),v200,fine,PencilHolder\WObj:=PAPER;
WaitRob \InPos;
SetDO Do_Kreslit_ON, 1;
SetDO Do_Kreslit_OFF, 0;
MoveL Offs(Target_drawing_origin,-188,132,0),v200,fine,PencilHolder\WObj:=PAPER;
WaitRob \InPos;
SetDO Do_Kreslit_ON, 0;
SetDO Do_Kreslit_OFF, 1;
MoveL Offs(Target_drawing_origin,-188,132,-5),v200,fine,PencilHolder\WObj:=PAPER;
WaitRob \InPos;
MoveL Offs(Target_drawing_origin,-188,144,-5),v200,fine,PencilHolder\WObj:=PAPER;
WaitRob \InPos;
MoveL Offs(Target_drawing_origin,-188,144,0),v200,fine,PencilHolder\WObj:=PAPER;
WaitRob \InPos;
SetDO Do_Kreslit_ON, 1;
SetDO Do_Kreslit_OFF, 0;
MoveL Offs(Target_drawing_origin,-188,156,0),v200,fine,PencilHolder\WObj:=PAPER;
WaitRob \InPos;
SetDO Do_Kreslit_ON, 0;
SetDO Do_Kreslit_OFF, 1;
MoveL Offs(Target_drawing_origin,-188,156,-5),v200,fine,PencilHolder\WObj:=PAPER;
WaitRob \InPos;
MoveL Offs(Target_drawing_origin,-188,176,-5),v200,fine,PencilHolder\WObj:=PAPER;
WaitRob \InPos;
MoveL Offs(Target_drawing_origin,-188,176,0),v200,fine,PencilHolder\WObj:=PAPER;
WaitRob \InPos;
SetDO Do_Kreslit_ON, 1;
SetDO Do_Kreslit_OFF, 0;
MoveL Offs(Target_drawing_origin,-192,80,0),v200,fine,PencilHolder\WObj:=PAPER;
WaitRob \InPos;
SetDO Do_Kreslit_ON, 0;
SetDO Do_Kreslit_OFF, 1;
MoveL Offs(Target_drawing_origin,-192,80,-5),v200,fine,PencilHolder\WObj:=PAPER;
WaitRob \InPos;
MoveL Offs(Target_drawing_origin,-192,96,-5),v200,fine,PencilHolder\WObj:=PAPER;
WaitRob \InPos;
MoveL Offs(Target_drawing_origin,-192,96,0),v200,fine,PencilHolder\WObj:=PAPER;
WaitRob \InPos;
SetDO Do_Kreslit_ON, 1;
SetDO Do_Kreslit_OFF, 0;
MoveL Offs(Target_drawing_origin,-192,108,0),v200,fine,PencilHolder\WObj:=PAPER;
WaitRob \InPos;
SetDO Do_Kreslit_ON, 0;
SetDO Do_Kreslit_OFF, 1;
MoveL Offs(Target_drawing_origin,-192,108,-5),v200,fine,PencilHolder\WObj:=PAPER;
WaitRob \InPos;
MoveL Offs(Target_drawing_origin,-192,120,-5),v200,fine,PencilHolder\WObj:=PAPER;
WaitRob \InPos;
MoveL Offs(Target_drawing_origin,-192,120,0),v200,fine,PencilHolder\WObj:=PAPER;
WaitRob \InPos;
SetDO Do_Kreslit_ON, 1;
SetDO Do_Kreslit_OFF, 0;
MoveL Offs(Target_drawing_origin,-192,132,0),v200,fine,PencilHolder\WObj:=PAPER;
WaitRob \InPos;
SetDO Do_Kreslit_ON, 0;
SetDO Do_Kreslit_OFF, 1;
MoveL Offs(Target_drawing_origin,-192,132,-5),v200,fine,PencilHolder\WObj:=PAPER;
WaitRob \InPos;
MoveL Offs(Target_drawing_origin,-192,144,-5),v200,fine,PencilHolder\WObj:=PAPER;
WaitRob \InPos;
MoveL Offs(Target_drawing_origin,-192,144,0),v200,fine,PencilHolder\WObj:=PAPER;
WaitRob \InPos;
SetDO Do_Kreslit_ON, 1;
SetDO Do_Kreslit_OFF, 0;
MoveL Offs(Target_drawing_origin,-192,156,0),v200,fine,PencilHolder\WObj:=PAPER;
WaitRob \InPos;
SetDO Do_Kreslit_ON, 0;
SetDO Do_Kreslit_OFF, 1;
MoveL Offs(Target_drawing_origin,-192,156,-5),v200,fine,PencilHolder\WObj:=PAPER;
WaitRob \InPos;
MoveL Offs(Target_drawing_origin,-192,176,-5),v200,fine,PencilHolder\WObj:=PAPER;
WaitRob \InPos;
MoveL Offs(Target_drawing_origin,-192,176,0),v200,fine,PencilHolder\WObj:=PAPER;
WaitRob \InPos;
SetDO Do_Kreslit_ON, 1;
SetDO Do_Kreslit_OFF, 0;
MoveL Offs(Target_drawing_origin,-196,80,0),v200,fine,PencilHolder\WObj:=PAPER;
WaitRob \InPos;
SetDO Do_Kreslit_ON, 0;
SetDO Do_Kreslit_OFF, 1;
MoveL Offs(Target_drawing_origin,-196,80,-5),v200,fine,PencilHolder\WObj:=PAPER;
WaitRob \InPos;
MoveL Offs(Target_drawing_origin,-196,96,-5),v200,fine,PencilHolder\WObj:=PAPER;
WaitRob \InPos;
MoveL Offs(Target_drawing_origin,-196,96,0),v200,fine,PencilHolder\WObj:=PAPER;
WaitRob \InPos;
SetDO Do_Kreslit_ON, 1;
SetDO Do_Kreslit_OFF, 0;
MoveL Offs(Target_drawing_origin,-196,108,0),v200,fine,PencilHolder\WObj:=PAPER;
WaitRob \InPos;
SetDO Do_Kreslit_ON, 0;
SetDO Do_Kreslit_OFF, 1;
MoveL Offs(Target_drawing_origin,-196,108,-5),v200,fine,PencilHolder\WObj:=PAPER;
WaitRob \InPos;
MoveL Offs(Target_drawing_origin,-196,120,-5),v200,fine,PencilHolder\WObj:=PAPER;
WaitRob \InPos;
MoveL Offs(Target_drawing_origin,-196,120,0),v200,fine,PencilHolder\WObj:=PAPER;
WaitRob \InPos;
SetDO Do_Kreslit_ON, 1;
SetDO Do_Kreslit_OFF, 0;
MoveL Offs(Target_drawing_origin,-196,132,0),v200,fine,PencilHolder\WObj:=PAPER;
WaitRob \InPos;
SetDO Do_Kreslit_ON, 0;
SetDO Do_Kreslit_OFF, 1;
MoveL Offs(Target_drawing_origin,-196,132,-5),v200,fine,PencilHolder\WObj:=PAPER;
WaitRob \InPos;
MoveL Offs(Target_drawing_origin,-196,144,-5),v200,fine,PencilHolder\WObj:=PAPER;
WaitRob \InPos;
MoveL Offs(Target_drawing_origin,-196,144,0),v200,fine,PencilHolder\WObj:=PAPER;
WaitRob \InPos;
SetDO Do_Kreslit_ON, 1;
SetDO Do_Kreslit_OFF, 0;
MoveL Offs(Target_drawing_origin,-196,156,0),v200,fine,PencilHolder\WObj:=PAPER;
WaitRob \InPos;
SetDO Do_Kreslit_ON, 0;
SetDO Do_Kreslit_OFF, 1;
MoveL Offs(Target_drawing_origin,-196,156,-5),v200,fine,PencilHolder\WObj:=PAPER;
WaitRob \InPos;
MoveL Offs(Target_drawing_origin,-196,176,-5),v200,fine,PencilHolder\WObj:=PAPER;
WaitRob \InPos;
MoveL Offs(Target_drawing_origin,-196,176,0),v200,fine,PencilHolder\WObj:=PAPER;
WaitRob \InPos;
SetDO Do_Kreslit_ON, 1;
SetDO Do_Kreslit_OFF, 0;
MoveL Offs(Target_drawing_origin,-200,80,0),v200,fine,PencilHolder\WObj:=PAPER;
WaitRob \InPos;
SetDO Do_Kreslit_ON, 0;
SetDO Do_Kreslit_OFF, 1;
MoveL Offs(Target_drawing_origin,-200,80,-5),v200,fine,PencilHolder\WObj:=PAPER;
WaitRob \InPos;
MoveL Offs(Target_drawing_origin,-200,96,-5),v200,fine,PencilHolder\WObj:=PAPER;
WaitRob \InPos;
MoveL Offs(Target_drawing_origin,-200,96,0),v200,fine,PencilHolder\WObj:=PAPER;
WaitRob \InPos;
SetDO Do_Kreslit_ON, 1;
SetDO Do_Kreslit_OFF, 0;
MoveL Offs(Target_drawing_origin,-200,112,0),v200,fine,PencilHolder\WObj:=PAPER;
WaitRob \InPos;
SetDO Do_Kreslit_ON, 0;
SetDO Do_Kreslit_OFF, 1;
MoveL Offs(Target_drawing_origin,-200,112,-5),v200,fine,PencilHolder\WObj:=PAPER;
WaitRob \InPos;
MoveL Offs(Target_drawing_origin,-200,120,-5),v200,fine,PencilHolder\WObj:=PAPER;
WaitRob \InPos;
MoveL Offs(Target_drawing_origin,-200,120,0),v200,fine,PencilHolder\WObj:=PAPER;
WaitRob \InPos;
SetDO Do_Kreslit_ON, 1;
SetDO Do_Kreslit_OFF, 0;
MoveL Offs(Target_drawing_origin,-200,136,0),v200,fine,PencilHolder\WObj:=PAPER;
WaitRob \InPos;
SetDO Do_Kreslit_ON, 0;
SetDO Do_Kreslit_OFF, 1;
MoveL Offs(Target_drawing_origin,-200,136,-5),v200,fine,PencilHolder\WObj:=PAPER;
WaitRob \InPos;
MoveL Offs(Target_drawing_origin,-200,140,-5),v200,fine,PencilHolder\WObj:=PAPER;
WaitRob \InPos;
MoveL Offs(Target_drawing_origin,-200,140,0),v200,fine,PencilHolder\WObj:=PAPER;
WaitRob \InPos;
SetDO Do_Kreslit_ON, 1;
SetDO Do_Kreslit_OFF, 0;
MoveL Offs(Target_drawing_origin,-200,156,0),v200,fine,PencilHolder\WObj:=PAPER;
WaitRob \InPos;
SetDO Do_Kreslit_ON, 0;
SetDO Do_Kreslit_OFF, 1;
MoveL Offs(Target_drawing_origin,-200,156,-5),v200,fine,PencilHolder\WObj:=PAPER;
WaitRob \InPos;
MoveL Offs(Target_drawing_origin,-200,176,-5),v200,fine,PencilHolder\WObj:=PAPER;
WaitRob \InPos;
MoveL Offs(Target_drawing_origin,-200,176,0),v200,fine,PencilHolder\WObj:=PAPER;
WaitRob \InPos;
SetDO Do_Kreslit_ON, 1;
SetDO Do_Kreslit_OFF, 0;
MoveL Offs(Target_drawing_origin,-204,80,0),v200,fine,PencilHolder\WObj:=PAPER;
WaitRob \InPos;
SetDO Do_Kreslit_ON, 0;
SetDO Do_Kreslit_OFF, 1;
MoveL Offs(Target_drawing_origin,-204,80,-5),v200,fine,PencilHolder\WObj:=PAPER;
WaitRob \InPos;
MoveL Offs(Target_drawing_origin,-204,100,-5),v200,fine,PencilHolder\WObj:=PAPER;
WaitRob \InPos;
MoveL Offs(Target_drawing_origin,-204,100,0),v200,fine,PencilHolder\WObj:=PAPER;
WaitRob \InPos;
SetDO Do_Kreslit_ON, 1;
SetDO Do_Kreslit_OFF, 0;
MoveL Offs(Target_drawing_origin,-204,116,0),v200,fine,PencilHolder\WObj:=PAPER;
WaitRob \InPos;
SetDO Do_Kreslit_ON, 0;
SetDO Do_Kreslit_OFF, 1;
MoveL Offs(Target_drawing_origin,-204,116,-5),v200,fine,PencilHolder\WObj:=PAPER;
WaitRob \InPos;
MoveL Offs(Target_drawing_origin,-204,120,-5),v200,fine,PencilHolder\WObj:=PAPER;
WaitRob \InPos;
MoveL Offs(Target_drawing_origin,-204,120,0),v200,fine,PencilHolder\WObj:=PAPER;
WaitRob \InPos;
SetDO Do_Kreslit_ON, 1;
SetDO Do_Kreslit_OFF, 0;
MoveL Offs(Target_drawing_origin,-204,156,0),v200,fine,PencilHolder\WObj:=PAPER;
WaitRob \InPos;
SetDO Do_Kreslit_ON, 0;
SetDO Do_Kreslit_OFF, 1;
MoveL Offs(Target_drawing_origin,-204,156,-5),v200,fine,PencilHolder\WObj:=PAPER;
WaitRob \InPos;
MoveL Offs(Target_drawing_origin,-204,176,-5),v200,fine,PencilHolder\WObj:=PAPER;
WaitRob \InPos;
MoveL Offs(Target_drawing_origin,-204,176,0),v200,fine,PencilHolder\WObj:=PAPER;
WaitRob \InPos;
SetDO Do_Kreslit_ON, 1;
SetDO Do_Kreslit_OFF, 0;
MoveL Offs(Target_drawing_origin,-208,80,0),v200,fine,PencilHolder\WObj:=PAPER;
WaitRob \InPos;
SetDO Do_Kreslit_ON, 0;
SetDO Do_Kreslit_OFF, 1;
MoveL Offs(Target_drawing_origin,-208,80,-5),v200,fine,PencilHolder\WObj:=PAPER;
WaitRob \InPos;
MoveL Offs(Target_drawing_origin,-208,100,-5),v200,fine,PencilHolder\WObj:=PAPER;
WaitRob \InPos;
MoveL Offs(Target_drawing_origin,-208,100,0),v200,fine,PencilHolder\WObj:=PAPER;
WaitRob \InPos;
SetDO Do_Kreslit_ON, 1;
SetDO Do_Kreslit_OFF, 0;
MoveL Offs(Target_drawing_origin,-208,116,0),v200,fine,PencilHolder\WObj:=PAPER;
WaitRob \InPos;
SetDO Do_Kreslit_ON, 0;
SetDO Do_Kreslit_OFF, 1;
MoveL Offs(Target_drawing_origin,-208,116,-5),v200,fine,PencilHolder\WObj:=PAPER;
WaitRob \InPos;
MoveL Offs(Target_drawing_origin,-208,124,-5),v200,fine,PencilHolder\WObj:=PAPER;
WaitRob \InPos;
MoveL Offs(Target_drawing_origin,-208,124,0),v200,fine,PencilHolder\WObj:=PAPER;
WaitRob \InPos;
SetDO Do_Kreslit_ON, 1;
SetDO Do_Kreslit_OFF, 0;
MoveL Offs(Target_drawing_origin,-208,152,0),v200,fine,PencilHolder\WObj:=PAPER;
WaitRob \InPos;
SetDO Do_Kreslit_ON, 0;
SetDO Do_Kreslit_OFF, 1;
MoveL Offs(Target_drawing_origin,-208,152,-5),v200,fine,PencilHolder\WObj:=PAPER;
WaitRob \InPos;
MoveL Offs(Target_drawing_origin,-208,176,-5),v200,fine,PencilHolder\WObj:=PAPER;
WaitRob \InPos;
MoveL Offs(Target_drawing_origin,-208,176,0),v200,fine,PencilHolder\WObj:=PAPER;
WaitRob \InPos;
SetDO Do_Kreslit_ON, 1;
SetDO Do_Kreslit_OFF, 0;
MoveL Offs(Target_drawing_origin,-212,80,0),v200,fine,PencilHolder\WObj:=PAPER;
WaitRob \InPos;
SetDO Do_Kreslit_ON, 0;
SetDO Do_Kreslit_OFF, 1;
MoveL Offs(Target_drawing_origin,-212,80,-5),v200,fine,PencilHolder\WObj:=PAPER;
WaitRob \InPos;
MoveL Offs(Target_drawing_origin,-212,136,-5),v200,fine,PencilHolder\WObj:=PAPER;
WaitRob \InPos;
MoveL Offs(Target_drawing_origin,-212,136,0),v200,fine,PencilHolder\WObj:=PAPER;
WaitRob \InPos;
SetDO Do_Kreslit_ON, 1;
SetDO Do_Kreslit_OFF, 0;
MoveL Offs(Target_drawing_origin,-212,144,0),v200,fine,PencilHolder\WObj:=PAPER;
WaitRob \InPos;
SetDO Do_Kreslit_ON, 0;
SetDO Do_Kreslit_OFF, 1;
MoveL Offs(Target_drawing_origin,-212,144,-5),v200,fine,PencilHolder\WObj:=PAPER;
WaitRob \InPos;
MoveL Offs(Target_drawing_origin,-212,176,-5),v200,fine,PencilHolder\WObj:=PAPER;
WaitRob \InPos;
MoveL Offs(Target_drawing_origin,-212,176,0),v200,fine,PencilHolder\WObj:=PAPER;
WaitRob \InPos;
SetDO Do_Kreslit_ON, 1;
SetDO Do_Kreslit_OFF, 0;
MoveL Offs(Target_drawing_origin,-216,80,0),v200,fine,PencilHolder\WObj:=PAPER;
WaitRob \InPos;
SetDO Do_Kreslit_ON, 0;
SetDO Do_Kreslit_OFF, 1;
MoveL Offs(Target_drawing_origin,-216,80,-5),v200,fine,PencilHolder\WObj:=PAPER;
WaitRob \InPos;
MoveL Offs(Target_drawing_origin,-216,176,-5),v200,fine,PencilHolder\WObj:=PAPER;
WaitRob \InPos;
MoveL Offs(Target_drawing_origin,-216,176,0),v200,fine,PencilHolder\WObj:=PAPER;
WaitRob \InPos;
SetDO Do_Kreslit_ON, 1;
SetDO Do_Kreslit_OFF, 0;
MoveL Offs(Target_drawing_origin,-220,80,0),v200,fine,PencilHolder\WObj:=PAPER;
WaitRob \InPos;
SetDO Do_Kreslit_ON, 0;
SetDO Do_Kreslit_OFF, 1;
MoveL Offs(Target_drawing_origin,-220,80,-5),v200,fine,PencilHolder\WObj:=PAPER;
WaitRob \InPos;
MoveL Offs(Target_drawing_origin,-220,176,-5),v200,fine,PencilHolder\WObj:=PAPER;
WaitRob \InPos;
MoveL Offs(Target_drawing_origin,-220,176,0),v200,fine,PencilHolder\WObj:=PAPER;
WaitRob \InPos;
SetDO Do_Kreslit_ON, 1;
SetDO Do_Kreslit_OFF, 0;
MoveL Offs(Target_drawing_origin,-224,80,0),v200,fine,PencilHolder\WObj:=PAPER;
WaitRob \InPos;
SetDO Do_Kreslit_ON, 0;
SetDO Do_Kreslit_OFF, 1;
MoveL Offs(Target_drawing_origin,-224,80,-5),v200,fine,PencilHolder\WObj:=PAPER;
WaitRob \InPos;
MoveL Offs(Target_drawing_origin,-224,176,-5),v200,fine,PencilHolder\WObj:=PAPER;
WaitRob \InPos;
MoveL Offs(Target_drawing_origin,-224,176,0),v200,fine,PencilHolder\WObj:=PAPER;
WaitRob \InPos;
SetDO Do_Kreslit_ON, 1;
SetDO Do_Kreslit_OFF, 0;
MoveL Offs(Target_drawing_origin,-228,80,0),v200,fine,PencilHolder\WObj:=PAPER;
WaitRob \InPos;
SetDO Do_Kreslit_ON, 0;
SetDO Do_Kreslit_OFF, 1;
MoveL Offs(Target_drawing_origin,-228,80,-5),v200,fine,PencilHolder\WObj:=PAPER;
WaitRob \InPos;
MoveL Offs(Target_drawing_origin,-228,96,-5),v200,fine,PencilHolder\WObj:=PAPER;
WaitRob \InPos;
MoveL Offs(Target_drawing_origin,-228,96,0),v200,fine,PencilHolder\WObj:=PAPER;
WaitRob \InPos;
SetDO Do_Kreslit_ON, 1;
SetDO Do_Kreslit_OFF, 0;
MoveL Offs(Target_drawing_origin,-228,156,0),v200,fine,PencilHolder\WObj:=PAPER;
WaitRob \InPos;
SetDO Do_Kreslit_ON, 0;
SetDO Do_Kreslit_OFF, 1;
MoveL Offs(Target_drawing_origin,-228,156,-5),v200,fine,PencilHolder\WObj:=PAPER;
WaitRob \InPos;
MoveL Offs(Target_drawing_origin,-228,176,-5),v200,fine,PencilHolder\WObj:=PAPER;
WaitRob \InPos;
MoveL Offs(Target_drawing_origin,-228,176,0),v200,fine,PencilHolder\WObj:=PAPER;
WaitRob \InPos;
SetDO Do_Kreslit_ON, 1;
SetDO Do_Kreslit_OFF, 0;
MoveL Offs(Target_drawing_origin,-232,80,0),v200,fine,PencilHolder\WObj:=PAPER;
WaitRob \InPos;
SetDO Do_Kreslit_ON, 0;
SetDO Do_Kreslit_OFF, 1;
MoveL Offs(Target_drawing_origin,-232,80,-5),v200,fine,PencilHolder\WObj:=PAPER;
WaitRob \InPos;
MoveL Offs(Target_drawing_origin,-232,96,-5),v200,fine,PencilHolder\WObj:=PAPER;
WaitRob \InPos;
MoveL Offs(Target_drawing_origin,-232,96,0),v200,fine,PencilHolder\WObj:=PAPER;
WaitRob \InPos;
SetDO Do_Kreslit_ON, 1;
SetDO Do_Kreslit_OFF, 0;
MoveL Offs(Target_drawing_origin,-232,156,0),v200,fine,PencilHolder\WObj:=PAPER;
WaitRob \InPos;
SetDO Do_Kreslit_ON, 0;
SetDO Do_Kreslit_OFF, 1;
MoveL Offs(Target_drawing_origin,-232,156,-5),v200,fine,PencilHolder\WObj:=PAPER;
WaitRob \InPos;
MoveL Offs(Target_drawing_origin,-232,176,-5),v200,fine,PencilHolder\WObj:=PAPER;
WaitRob \InPos;
MoveL Offs(Target_drawing_origin,-232,176,0),v200,fine,PencilHolder\WObj:=PAPER;
WaitRob \InPos;
SetDO Do_Kreslit_ON, 1;
SetDO Do_Kreslit_OFF, 0;
MoveL Offs(Target_drawing_origin,-236,80,0),v200,fine,PencilHolder\WObj:=PAPER;
WaitRob \InPos;
SetDO Do_Kreslit_ON, 0;
SetDO Do_Kreslit_OFF, 1;
MoveL Offs(Target_drawing_origin,-236,80,-5),v200,fine,PencilHolder\WObj:=PAPER;
WaitRob \InPos;
MoveL Offs(Target_drawing_origin,-236,176,-5),v200,fine,PencilHolder\WObj:=PAPER;
WaitRob \InPos;
MoveL Offs(Target_drawing_origin,-236,176,0),v200,fine,PencilHolder\WObj:=PAPER;
WaitRob \InPos;
SetDO Do_Kreslit_ON, 1;
SetDO Do_Kreslit_OFF, 0;
MoveL Offs(Target_drawing_origin,-240,80,0),v200,fine,PencilHolder\WObj:=PAPER;
WaitRob \InPos;
SetDO Do_Kreslit_ON, 0;
SetDO Do_Kreslit_OFF, 1;
MoveL Offs(Target_drawing_origin,-240,80,-5),v200,fine,PencilHolder\WObj:=PAPER;
WaitRob \InPos;
MoveL Offs(Target_drawing_origin,-240,176,-5),v200,fine,PencilHolder\WObj:=PAPER;
WaitRob \InPos;
MoveL Offs(Target_drawing_origin,-240,176,0),v200,fine,PencilHolder\WObj:=PAPER;
WaitRob \InPos;
SetDO Do_Kreslit_ON, 1;
SetDO Do_Kreslit_OFF, 0;
MoveL Offs(Target_drawing_origin,-244,80,0),v200,fine,PencilHolder\WObj:=PAPER;
WaitRob \InPos;
SetDO Do_Kreslit_ON, 0;
SetDO Do_Kreslit_OFF, 1;
MoveL Offs(Target_drawing_origin,-244,80,-5),v200,fine,PencilHolder\WObj:=PAPER;
WaitRob \InPos;
MoveL Offs(Target_drawing_origin,-244,176,-5),v200,fine,PencilHolder\WObj:=PAPER;
WaitRob \InPos;
MoveL Offs(Target_drawing_origin,-244,176,0),v200,fine,PencilHolder\WObj:=PAPER;
WaitRob \InPos;
SetDO Do_Kreslit_ON, 1;
SetDO Do_Kreslit_OFF, 0;
MoveL Offs(Target_drawing_origin,-248,80,0),v200,fine,PencilHolder\WObj:=PAPER;
WaitRob \InPos;
SetDO Do_Kreslit_ON, 0;
SetDO Do_Kreslit_OFF, 1;
MoveL Offs(Target_drawing_origin,-248,80,-5),v200,fine,PencilHolder\WObj:=PAPER;
WaitRob \InPos;
MoveL Offs(Target_drawing_origin,-248,176,-5),v200,fine,PencilHolder\WObj:=PAPER;
WaitRob \InPos;
MoveL Offs(Target_drawing_origin,-248,176,0),v200,fine,PencilHolder\WObj:=PAPER;
WaitRob \InPos;
SetDO Do_Kreslit_ON, 1;
SetDO Do_Kreslit_OFF, 0;
MoveL Offs(Target_drawing_origin,-252,80,0),v200,fine,PencilHolder\WObj:=PAPER;
WaitRob \InPos;
SetDO Do_Kreslit_ON, 0;
SetDO Do_Kreslit_OFF, 1;
MoveL Offs(Target_drawing_origin,-252,80,-5),v200,fine,PencilHolder\WObj:=PAPER;
WaitRob \InPos;
MoveL Offs(Target_drawing_origin,-252,176,-5),v200,fine,PencilHolder\WObj:=PAPER;
WaitRob \InPos;
MoveL Offs(Target_drawing_origin,-252,176,0),v200,fine,PencilHolder\WObj:=PAPER;
WaitRob \InPos;
SetDO Do_Kreslit_ON, 1;
SetDO Do_Kreslit_OFF, 0;
MoveL Offs(Target_drawing_origin,-256,80,0),v200,fine,PencilHolder\WObj:=PAPER;
WaitRob \InPos;
SetDO Do_Kreslit_ON, 0;
SetDO Do_Kreslit_OFF, 1;
MoveL Offs(Target_drawing_origin,-256,80,-5),v200,fine,PencilHolder\WObj:=PAPER;
WaitRob \InPos;
MoveL Offs(Target_drawing_origin,-256,176,-5),v200,fine,PencilHolder\WObj:=PAPER;
WaitRob \InPos;
MoveL Offs(Target_drawing_origin,-256,176,0),v200,fine,PencilHolder\WObj:=PAPER;
WaitRob \InPos;
SetDO Do_Kreslit_ON, 1;
SetDO Do_Kreslit_OFF, 0;
SetDO Do_Kreslit_OFF, 1;


! Draw black
MoveJ Offs(Target_drawing_origin,0,0,-5),v100,fine,PencilHolder\WObj:=PAPER;
MoveL Offs(Target_drawing_origin,-112,80,-5),v200,fine,PencilHolder\WObj:=PAPER;
WaitRob \InPos;
MoveL Offs(Target_drawing_origin,-112,80,0),v200,fine,PencilHolder\WObj:=PAPER;
WaitRob \InPos;
SetDO Do_Kreslit_ON, 1;
SetDO Do_Kreslit_OFF, 0;
MoveL Offs(Target_drawing_origin,-252,80,0),v200,fine,PencilHolder\WObj:=PAPER;
WaitRob \InPos;
SetDO Do_Kreslit_ON, 0;
SetDO Do_Kreslit_OFF, 1;
MoveL Offs(Target_drawing_origin,-252,80,-5),v200,fine,PencilHolder\WObj:=PAPER;
WaitRob \InPos;
MoveL Offs(Target_drawing_origin,-112,84,-5),v200,fine,PencilHolder\WObj:=PAPER;
WaitRob \InPos;
MoveL Offs(Target_drawing_origin,-112,84,0),v200,fine,PencilHolder\WObj:=PAPER;
WaitRob \InPos;
SetDO Do_Kreslit_ON, 1;
SetDO Do_Kreslit_OFF, 0;
MoveL Offs(Target_drawing_origin,-252,84,0),v200,fine,PencilHolder\WObj:=PAPER;
WaitRob \InPos;
SetDO Do_Kreslit_ON, 0;
SetDO Do_Kreslit_OFF, 1;
MoveL Offs(Target_drawing_origin,-252,84,-5),v200,fine,PencilHolder\WObj:=PAPER;
WaitRob \InPos;
MoveL Offs(Target_drawing_origin,-112,88,-5),v200,fine,PencilHolder\WObj:=PAPER;
WaitRob \InPos;
MoveL Offs(Target_drawing_origin,-112,88,0),v200,fine,PencilHolder\WObj:=PAPER;
WaitRob \InPos;
SetDO Do_Kreslit_ON, 1;
SetDO Do_Kreslit_OFF, 0;
MoveL Offs(Target_drawing_origin,-252,88,0),v200,fine,PencilHolder\WObj:=PAPER;
WaitRob \InPos;
SetDO Do_Kreslit_ON, 0;
SetDO Do_Kreslit_OFF, 1;
MoveL Offs(Target_drawing_origin,-252,88,-5),v200,fine,PencilHolder\WObj:=PAPER;
WaitRob \InPos;
MoveL Offs(Target_drawing_origin,-112,92,-5),v200,fine,PencilHolder\WObj:=PAPER;
WaitRob \InPos;
MoveL Offs(Target_drawing_origin,-112,92,0),v200,fine,PencilHolder\WObj:=PAPER;
WaitRob \InPos;
SetDO Do_Kreslit_ON, 1;
SetDO Do_Kreslit_OFF, 0;
MoveL Offs(Target_drawing_origin,-252,92,0),v200,fine,PencilHolder\WObj:=PAPER;
WaitRob \InPos;
SetDO Do_Kreslit_ON, 0;
SetDO Do_Kreslit_OFF, 1;
MoveL Offs(Target_drawing_origin,-252,92,-5),v200,fine,PencilHolder\WObj:=PAPER;
WaitRob \InPos;
MoveL Offs(Target_drawing_origin,-112,96,-5),v200,fine,PencilHolder\WObj:=PAPER;
WaitRob \InPos;
MoveL Offs(Target_drawing_origin,-112,96,0),v200,fine,PencilHolder\WObj:=PAPER;
WaitRob \InPos;
SetDO Do_Kreslit_ON, 1;
SetDO Do_Kreslit_OFF, 0;
MoveL Offs(Target_drawing_origin,-128,96,0),v200,fine,PencilHolder\WObj:=PAPER;
WaitRob \InPos;
SetDO Do_Kreslit_ON, 0;
SetDO Do_Kreslit_OFF, 1;
MoveL Offs(Target_drawing_origin,-128,96,-5),v200,fine,PencilHolder\WObj:=PAPER;
WaitRob \InPos;
MoveL Offs(Target_drawing_origin,-160,96,-5),v200,fine,PencilHolder\WObj:=PAPER;
WaitRob \InPos;
MoveL Offs(Target_drawing_origin,-160,96,0),v200,fine,PencilHolder\WObj:=PAPER;
WaitRob \InPos;
SetDO Do_Kreslit_ON, 1;
SetDO Do_Kreslit_OFF, 0;
MoveL Offs(Target_drawing_origin,-180,96,0),v200,fine,PencilHolder\WObj:=PAPER;
WaitRob \InPos;
SetDO Do_Kreslit_ON, 0;
SetDO Do_Kreslit_OFF, 1;
MoveL Offs(Target_drawing_origin,-180,96,-5),v200,fine,PencilHolder\WObj:=PAPER;
WaitRob \InPos;
MoveL Offs(Target_drawing_origin,-200,96,-5),v200,fine,PencilHolder\WObj:=PAPER;
WaitRob \InPos;
MoveL Offs(Target_drawing_origin,-200,96,0),v200,fine,PencilHolder\WObj:=PAPER;
WaitRob \InPos;
SetDO Do_Kreslit_ON, 1;
SetDO Do_Kreslit_OFF, 0;
MoveL Offs(Target_drawing_origin,-252,96,0),v200,fine,PencilHolder\WObj:=PAPER;
WaitRob \InPos;
SetDO Do_Kreslit_ON, 0;
SetDO Do_Kreslit_OFF, 1;
MoveL Offs(Target_drawing_origin,-252,96,-5),v200,fine,PencilHolder\WObj:=PAPER;
WaitRob \InPos;
MoveL Offs(Target_drawing_origin,-112,100,-5),v200,fine,PencilHolder\WObj:=PAPER;
WaitRob \InPos;
MoveL Offs(Target_drawing_origin,-112,100,0),v200,fine,PencilHolder\WObj:=PAPER;
WaitRob \InPos;
SetDO Do_Kreslit_ON, 1;
SetDO Do_Kreslit_OFF, 0;
MoveL Offs(Target_drawing_origin,-120,100,0),v200,fine,PencilHolder\WObj:=PAPER;
WaitRob \InPos;
SetDO Do_Kreslit_ON, 0;
SetDO Do_Kreslit_OFF, 1;
MoveL Offs(Target_drawing_origin,-120,100,-5),v200,fine,PencilHolder\WObj:=PAPER;
WaitRob \InPos;
MoveL Offs(Target_drawing_origin,-168,100,-5),v200,fine,PencilHolder\WObj:=PAPER;
WaitRob \InPos;
MoveL Offs(Target_drawing_origin,-168,100,0),v200,fine,PencilHolder\WObj:=PAPER;
WaitRob \InPos;
SetDO Do_Kreslit_ON, 1;
SetDO Do_Kreslit_OFF, 0;
MoveL Offs(Target_drawing_origin,-212,100,0),v200,fine,PencilHolder\WObj:=PAPER;
WaitRob \InPos;
SetDO Do_Kreslit_ON, 0;
SetDO Do_Kreslit_OFF, 1;
MoveL Offs(Target_drawing_origin,-212,100,-5),v200,fine,PencilHolder\WObj:=PAPER;
WaitRob \InPos;
MoveL Offs(Target_drawing_origin,-220,100,-5),v200,fine,PencilHolder\WObj:=PAPER;
WaitRob \InPos;
MoveL Offs(Target_drawing_origin,-220,100,0),v200,fine,PencilHolder\WObj:=PAPER;
WaitRob \InPos;
SetDO Do_Kreslit_ON, 1;
SetDO Do_Kreslit_OFF, 0;
MoveL Offs(Target_drawing_origin,-240,100,0),v200,fine,PencilHolder\WObj:=PAPER;
WaitRob \InPos;
SetDO Do_Kreslit_ON, 0;
SetDO Do_Kreslit_OFF, 1;
MoveL Offs(Target_drawing_origin,-240,100,-5),v200,fine,PencilHolder\WObj:=PAPER;
WaitRob \InPos;
MoveL Offs(Target_drawing_origin,-252,100,-5),v200,fine,PencilHolder\WObj:=PAPER;
WaitRob \InPos;
MoveL Offs(Target_drawing_origin,-252,100,0),v200,fine,PencilHolder\WObj:=PAPER;
WaitRob \InPos;
SetDO Do_Kreslit_ON, 1;
SetDO Do_Kreslit_OFF, 0;
MoveL Offs(Target_drawing_origin,-112,104,0),v200,fine,PencilHolder\WObj:=PAPER;
WaitRob \InPos;
SetDO Do_Kreslit_ON, 0;
SetDO Do_Kreslit_OFF, 1;
MoveL Offs(Target_drawing_origin,-112,104,-5),v200,fine,PencilHolder\WObj:=PAPER;
WaitRob \InPos;
MoveL Offs(Target_drawing_origin,-120,104,-5),v200,fine,PencilHolder\WObj:=PAPER;
WaitRob \InPos;
MoveL Offs(Target_drawing_origin,-120,104,0),v200,fine,PencilHolder\WObj:=PAPER;
WaitRob \InPos;
SetDO Do_Kreslit_ON, 1;
SetDO Do_Kreslit_OFF, 0;
MoveL Offs(Target_drawing_origin,-168,104,0),v200,fine,PencilHolder\WObj:=PAPER;
WaitRob \InPos;
SetDO Do_Kreslit_ON, 0;
SetDO Do_Kreslit_OFF, 1;
MoveL Offs(Target_drawing_origin,-168,104,-5),v200,fine,PencilHolder\WObj:=PAPER;
WaitRob \InPos;
MoveL Offs(Target_drawing_origin,-216,104,-5),v200,fine,PencilHolder\WObj:=PAPER;
WaitRob \InPos;
MoveL Offs(Target_drawing_origin,-216,104,0),v200,fine,PencilHolder\WObj:=PAPER;
WaitRob \InPos;
SetDO Do_Kreslit_ON, 1;
SetDO Do_Kreslit_OFF, 0;
MoveL Offs(Target_drawing_origin,-220,104,0),v200,fine,PencilHolder\WObj:=PAPER;
WaitRob \InPos;
SetDO Do_Kreslit_ON, 0;
SetDO Do_Kreslit_OFF, 1;
MoveL Offs(Target_drawing_origin,-220,104,-5),v200,fine,PencilHolder\WObj:=PAPER;
WaitRob \InPos;
MoveL Offs(Target_drawing_origin,-240,104,-5),v200,fine,PencilHolder\WObj:=PAPER;
WaitRob \InPos;
MoveL Offs(Target_drawing_origin,-240,104,0),v200,fine,PencilHolder\WObj:=PAPER;
WaitRob \InPos;
SetDO Do_Kreslit_ON, 1;
SetDO Do_Kreslit_OFF, 0;
MoveL Offs(Target_drawing_origin,-252,104,0),v200,fine,PencilHolder\WObj:=PAPER;
WaitRob \InPos;
SetDO Do_Kreslit_ON, 0;
SetDO Do_Kreslit_OFF, 1;
MoveL Offs(Target_drawing_origin,-252,104,-5),v200,fine,PencilHolder\WObj:=PAPER;
WaitRob \InPos;
MoveL Offs(Target_drawing_origin,-112,108,-5),v200,fine,PencilHolder\WObj:=PAPER;
WaitRob \InPos;
MoveL Offs(Target_drawing_origin,-112,108,0),v200,fine,PencilHolder\WObj:=PAPER;
WaitRob \InPos;
SetDO Do_Kreslit_ON, 1;
SetDO Do_Kreslit_OFF, 0;
MoveL Offs(Target_drawing_origin,-120,108,0),v200,fine,PencilHolder\WObj:=PAPER;
WaitRob \InPos;
SetDO Do_Kreslit_ON, 0;
SetDO Do_Kreslit_OFF, 1;
MoveL Offs(Target_drawing_origin,-120,108,-5),v200,fine,PencilHolder\WObj:=PAPER;
WaitRob \InPos;
MoveL Offs(Target_drawing_origin,-216,108,-5),v200,fine,PencilHolder\WObj:=PAPER;
WaitRob \InPos;
MoveL Offs(Target_drawing_origin,-216,108,0),v200,fine,PencilHolder\WObj:=PAPER;
WaitRob \InPos;
SetDO Do_Kreslit_ON, 1;
SetDO Do_Kreslit_OFF, 0;
MoveL Offs(Target_drawing_origin,-220,108,0),v200,fine,PencilHolder\WObj:=PAPER;
WaitRob \InPos;
SetDO Do_Kreslit_ON, 0;
SetDO Do_Kreslit_OFF, 1;
MoveL Offs(Target_drawing_origin,-220,108,-5),v200,fine,PencilHolder\WObj:=PAPER;
WaitRob \InPos;
MoveL Offs(Target_drawing_origin,-240,108,-5),v200,fine,PencilHolder\WObj:=PAPER;
WaitRob \InPos;
MoveL Offs(Target_drawing_origin,-240,108,0),v200,fine,PencilHolder\WObj:=PAPER;
WaitRob \InPos;
SetDO Do_Kreslit_ON, 1;
SetDO Do_Kreslit_OFF, 0;
MoveL Offs(Target_drawing_origin,-252,108,0),v200,fine,PencilHolder\WObj:=PAPER;
WaitRob \InPos;
SetDO Do_Kreslit_ON, 0;
SetDO Do_Kreslit_OFF, 1;
MoveL Offs(Target_drawing_origin,-252,108,-5),v200,fine,PencilHolder\WObj:=PAPER;
WaitRob \InPos;
MoveL Offs(Target_drawing_origin,-112,112,-5),v200,fine,PencilHolder\WObj:=PAPER;
WaitRob \InPos;
MoveL Offs(Target_drawing_origin,-112,112,0),v200,fine,PencilHolder\WObj:=PAPER;
WaitRob \InPos;
SetDO Do_Kreslit_ON, 1;
SetDO Do_Kreslit_OFF, 0;
MoveL Offs(Target_drawing_origin,-120,112,0),v200,fine,PencilHolder\WObj:=PAPER;
WaitRob \InPos;
SetDO Do_Kreslit_ON, 0;
SetDO Do_Kreslit_OFF, 1;
MoveL Offs(Target_drawing_origin,-120,112,-5),v200,fine,PencilHolder\WObj:=PAPER;
WaitRob \InPos;
MoveL Offs(Target_drawing_origin,-140,112,-5),v200,fine,PencilHolder\WObj:=PAPER;
WaitRob \InPos;
MoveL Offs(Target_drawing_origin,-140,112,0),v200,fine,PencilHolder\WObj:=PAPER;
WaitRob \InPos;
SetDO Do_Kreslit_ON, 1;
SetDO Do_Kreslit_OFF, 0;
MoveL Offs(Target_drawing_origin,-164,112,0),v200,fine,PencilHolder\WObj:=PAPER;
WaitRob \InPos;
SetDO Do_Kreslit_ON, 0;
SetDO Do_Kreslit_OFF, 1;
MoveL Offs(Target_drawing_origin,-164,112,-5),v200,fine,PencilHolder\WObj:=PAPER;
WaitRob \InPos;
MoveL Offs(Target_drawing_origin,-192,112,-5),v200,fine,PencilHolder\WObj:=PAPER;
WaitRob \InPos;
MoveL Offs(Target_drawing_origin,-192,112,0),v200,fine,PencilHolder\WObj:=PAPER;
WaitRob \InPos;
SetDO Do_Kreslit_ON, 1;
SetDO Do_Kreslit_OFF, 0;
MoveL Offs(Target_drawing_origin,-196,112,0),v200,fine,PencilHolder\WObj:=PAPER;
WaitRob \InPos;
SetDO Do_Kreslit_ON, 0;
SetDO Do_Kreslit_OFF, 1;
MoveL Offs(Target_drawing_origin,-196,112,-5),v200,fine,PencilHolder\WObj:=PAPER;
WaitRob \InPos;
MoveL Offs(Target_drawing_origin,-216,112,-5),v200,fine,PencilHolder\WObj:=PAPER;
WaitRob \InPos;
MoveL Offs(Target_drawing_origin,-216,112,0),v200,fine,PencilHolder\WObj:=PAPER;
WaitRob \InPos;
SetDO Do_Kreslit_ON, 1;
SetDO Do_Kreslit_OFF, 0;
MoveL Offs(Target_drawing_origin,-220,112,0),v200,fine,PencilHolder\WObj:=PAPER;
WaitRob \InPos;
SetDO Do_Kreslit_ON, 0;
SetDO Do_Kreslit_OFF, 1;
MoveL Offs(Target_drawing_origin,-220,112,-5),v200,fine,PencilHolder\WObj:=PAPER;
WaitRob \InPos;
MoveL Offs(Target_drawing_origin,-240,112,-5),v200,fine,PencilHolder\WObj:=PAPER;
WaitRob \InPos;
MoveL Offs(Target_drawing_origin,-240,112,0),v200,fine,PencilHolder\WObj:=PAPER;
WaitRob \InPos;
SetDO Do_Kreslit_ON, 1;
SetDO Do_Kreslit_OFF, 0;
MoveL Offs(Target_drawing_origin,-252,112,0),v200,fine,PencilHolder\WObj:=PAPER;
WaitRob \InPos;
SetDO Do_Kreslit_ON, 0;
SetDO Do_Kreslit_OFF, 1;
MoveL Offs(Target_drawing_origin,-252,112,-5),v200,fine,PencilHolder\WObj:=PAPER;
WaitRob \InPos;
MoveL Offs(Target_drawing_origin,-112,116,-5),v200,fine,PencilHolder\WObj:=PAPER;
WaitRob \InPos;
MoveL Offs(Target_drawing_origin,-112,116,0),v200,fine,PencilHolder\WObj:=PAPER;
WaitRob \InPos;
SetDO Do_Kreslit_ON, 1;
SetDO Do_Kreslit_OFF, 0;
MoveL Offs(Target_drawing_origin,-120,116,0),v200,fine,PencilHolder\WObj:=PAPER;
WaitRob \InPos;
SetDO Do_Kreslit_ON, 0;
SetDO Do_Kreslit_OFF, 1;
MoveL Offs(Target_drawing_origin,-120,116,-5),v200,fine,PencilHolder\WObj:=PAPER;
WaitRob \InPos;
MoveL Offs(Target_drawing_origin,-140,116,-5),v200,fine,PencilHolder\WObj:=PAPER;
WaitRob \InPos;
MoveL Offs(Target_drawing_origin,-140,116,0),v200,fine,PencilHolder\WObj:=PAPER;
WaitRob \InPos;
SetDO Do_Kreslit_ON, 1;
SetDO Do_Kreslit_OFF, 0;
MoveL Offs(Target_drawing_origin,-164,116,0),v200,fine,PencilHolder\WObj:=PAPER;
WaitRob \InPos;
SetDO Do_Kreslit_ON, 0;
SetDO Do_Kreslit_OFF, 1;
MoveL Offs(Target_drawing_origin,-164,116,-5),v200,fine,PencilHolder\WObj:=PAPER;
WaitRob \InPos;
MoveL Offs(Target_drawing_origin,-188,116,-5),v200,fine,PencilHolder\WObj:=PAPER;
WaitRob \InPos;
MoveL Offs(Target_drawing_origin,-188,116,0),v200,fine,PencilHolder\WObj:=PAPER;
WaitRob \InPos;
SetDO Do_Kreslit_ON, 1;
SetDO Do_Kreslit_OFF, 0;
MoveL Offs(Target_drawing_origin,-196,116,0),v200,fine,PencilHolder\WObj:=PAPER;
WaitRob \InPos;
SetDO Do_Kreslit_ON, 0;
SetDO Do_Kreslit_OFF, 1;
MoveL Offs(Target_drawing_origin,-196,116,-5),v200,fine,PencilHolder\WObj:=PAPER;
WaitRob \InPos;
MoveL Offs(Target_drawing_origin,-216,116,-5),v200,fine,PencilHolder\WObj:=PAPER;
WaitRob \InPos;
MoveL Offs(Target_drawing_origin,-216,116,0),v200,fine,PencilHolder\WObj:=PAPER;
WaitRob \InPos;
SetDO Do_Kreslit_ON, 1;
SetDO Do_Kreslit_OFF, 0;
MoveL Offs(Target_drawing_origin,-220,116,0),v200,fine,PencilHolder\WObj:=PAPER;
WaitRob \InPos;
SetDO Do_Kreslit_ON, 0;
SetDO Do_Kreslit_OFF, 1;
MoveL Offs(Target_drawing_origin,-220,116,-5),v200,fine,PencilHolder\WObj:=PAPER;
WaitRob \InPos;
MoveL Offs(Target_drawing_origin,-240,116,-5),v200,fine,PencilHolder\WObj:=PAPER;
WaitRob \InPos;
MoveL Offs(Target_drawing_origin,-240,116,0),v200,fine,PencilHolder\WObj:=PAPER;
WaitRob \InPos;
SetDO Do_Kreslit_ON, 1;
SetDO Do_Kreslit_OFF, 0;
MoveL Offs(Target_drawing_origin,-252,116,0),v200,fine,PencilHolder\WObj:=PAPER;
WaitRob \InPos;
SetDO Do_Kreslit_ON, 0;
SetDO Do_Kreslit_OFF, 1;
MoveL Offs(Target_drawing_origin,-252,116,-5),v200,fine,PencilHolder\WObj:=PAPER;
WaitRob \InPos;
MoveL Offs(Target_drawing_origin,-112,120,-5),v200,fine,PencilHolder\WObj:=PAPER;
WaitRob \InPos;
MoveL Offs(Target_drawing_origin,-112,120,0),v200,fine,PencilHolder\WObj:=PAPER;
WaitRob \InPos;
SetDO Do_Kreslit_ON, 1;
SetDO Do_Kreslit_OFF, 0;
MoveL Offs(Target_drawing_origin,-120,120,0),v200,fine,PencilHolder\WObj:=PAPER;
WaitRob \InPos;
SetDO Do_Kreslit_ON, 0;
SetDO Do_Kreslit_OFF, 1;
MoveL Offs(Target_drawing_origin,-120,120,-5),v200,fine,PencilHolder\WObj:=PAPER;
WaitRob \InPos;
MoveL Offs(Target_drawing_origin,-160,120,-5),v200,fine,PencilHolder\WObj:=PAPER;
WaitRob \InPos;
MoveL Offs(Target_drawing_origin,-160,120,0),v200,fine,PencilHolder\WObj:=PAPER;
WaitRob \InPos;
SetDO Do_Kreslit_ON, 1;
SetDO Do_Kreslit_OFF, 0;
MoveL Offs(Target_drawing_origin,-164,120,0),v200,fine,PencilHolder\WObj:=PAPER;
WaitRob \InPos;
SetDO Do_Kreslit_ON, 0;
SetDO Do_Kreslit_OFF, 1;
MoveL Offs(Target_drawing_origin,-164,120,-5),v200,fine,PencilHolder\WObj:=PAPER;
WaitRob \InPos;
MoveL Offs(Target_drawing_origin,-208,120,-5),v200,fine,PencilHolder\WObj:=PAPER;
WaitRob \InPos;
MoveL Offs(Target_drawing_origin,-208,120,0),v200,fine,PencilHolder\WObj:=PAPER;
WaitRob \InPos;
SetDO Do_Kreslit_ON, 1;
SetDO Do_Kreslit_OFF, 0;
MoveL Offs(Target_drawing_origin,-220,120,0),v200,fine,PencilHolder\WObj:=PAPER;
WaitRob \InPos;
SetDO Do_Kreslit_ON, 0;
SetDO Do_Kreslit_OFF, 1;
MoveL Offs(Target_drawing_origin,-220,120,-5),v200,fine,PencilHolder\WObj:=PAPER;
WaitRob \InPos;
MoveL Offs(Target_drawing_origin,-240,120,-5),v200,fine,PencilHolder\WObj:=PAPER;
WaitRob \InPos;
MoveL Offs(Target_drawing_origin,-240,120,0),v200,fine,PencilHolder\WObj:=PAPER;
WaitRob \InPos;
SetDO Do_Kreslit_ON, 1;
SetDO Do_Kreslit_OFF, 0;
MoveL Offs(Target_drawing_origin,-252,120,0),v200,fine,PencilHolder\WObj:=PAPER;
WaitRob \InPos;
SetDO Do_Kreslit_ON, 0;
SetDO Do_Kreslit_OFF, 1;
MoveL Offs(Target_drawing_origin,-252,120,-5),v200,fine,PencilHolder\WObj:=PAPER;
WaitRob \InPos;
MoveL Offs(Target_drawing_origin,-112,124,-5),v200,fine,PencilHolder\WObj:=PAPER;
WaitRob \InPos;
MoveL Offs(Target_drawing_origin,-112,124,0),v200,fine,PencilHolder\WObj:=PAPER;
WaitRob \InPos;
SetDO Do_Kreslit_ON, 1;
SetDO Do_Kreslit_OFF, 0;
MoveL Offs(Target_drawing_origin,-120,124,0),v200,fine,PencilHolder\WObj:=PAPER;
WaitRob \InPos;
SetDO Do_Kreslit_ON, 0;
SetDO Do_Kreslit_OFF, 1;
MoveL Offs(Target_drawing_origin,-120,124,-5),v200,fine,PencilHolder\WObj:=PAPER;
WaitRob \InPos;
MoveL Offs(Target_drawing_origin,-164,124,-5),v200,fine,PencilHolder\WObj:=PAPER;
WaitRob \InPos;
MoveL Offs(Target_drawing_origin,-164,124,0),v200,fine,PencilHolder\WObj:=PAPER;
WaitRob \InPos;
SetDO Do_Kreslit_ON, 1;
SetDO Do_Kreslit_OFF, 0;
MoveL Offs(Target_drawing_origin,-216,124,0),v200,fine,PencilHolder\WObj:=PAPER;
WaitRob \InPos;
SetDO Do_Kreslit_ON, 0;
SetDO Do_Kreslit_OFF, 1;
MoveL Offs(Target_drawing_origin,-216,124,-5),v200,fine,PencilHolder\WObj:=PAPER;
WaitRob \InPos;
MoveL Offs(Target_drawing_origin,-220,124,-5),v200,fine,PencilHolder\WObj:=PAPER;
WaitRob \InPos;
MoveL Offs(Target_drawing_origin,-220,124,0),v200,fine,PencilHolder\WObj:=PAPER;
WaitRob \InPos;
SetDO Do_Kreslit_ON, 1;
SetDO Do_Kreslit_OFF, 0;
MoveL Offs(Target_drawing_origin,-240,124,0),v200,fine,PencilHolder\WObj:=PAPER;
WaitRob \InPos;
SetDO Do_Kreslit_ON, 0;
SetDO Do_Kreslit_OFF, 1;
MoveL Offs(Target_drawing_origin,-240,124,-5),v200,fine,PencilHolder\WObj:=PAPER;
WaitRob \InPos;
MoveL Offs(Target_drawing_origin,-252,124,-5),v200,fine,PencilHolder\WObj:=PAPER;
WaitRob \InPos;
MoveL Offs(Target_drawing_origin,-252,124,0),v200,fine,PencilHolder\WObj:=PAPER;
WaitRob \InPos;
SetDO Do_Kreslit_ON, 1;
SetDO Do_Kreslit_OFF, 0;
MoveL Offs(Target_drawing_origin,-112,128,0),v200,fine,PencilHolder\WObj:=PAPER;
WaitRob \InPos;
SetDO Do_Kreslit_ON, 0;
SetDO Do_Kreslit_OFF, 1;
MoveL Offs(Target_drawing_origin,-112,128,-5),v200,fine,PencilHolder\WObj:=PAPER;
WaitRob \InPos;
MoveL Offs(Target_drawing_origin,-120,128,-5),v200,fine,PencilHolder\WObj:=PAPER;
WaitRob \InPos;
MoveL Offs(Target_drawing_origin,-120,128,0),v200,fine,PencilHolder\WObj:=PAPER;
WaitRob \InPos;
SetDO Do_Kreslit_ON, 1;
SetDO Do_Kreslit_OFF, 0;
MoveL Offs(Target_drawing_origin,-164,128,0),v200,fine,PencilHolder\WObj:=PAPER;
WaitRob \InPos;
SetDO Do_Kreslit_ON, 0;
SetDO Do_Kreslit_OFF, 1;
MoveL Offs(Target_drawing_origin,-164,128,-5),v200,fine,PencilHolder\WObj:=PAPER;
WaitRob \InPos;
MoveL Offs(Target_drawing_origin,-168,128,-5),v200,fine,PencilHolder\WObj:=PAPER;
WaitRob \InPos;
MoveL Offs(Target_drawing_origin,-168,128,0),v200,fine,PencilHolder\WObj:=PAPER;
WaitRob \InPos;
SetDO Do_Kreslit_ON, 1;
SetDO Do_Kreslit_OFF, 0;
MoveL Offs(Target_drawing_origin,-216,128,0),v200,fine,PencilHolder\WObj:=PAPER;
WaitRob \InPos;
SetDO Do_Kreslit_ON, 0;
SetDO Do_Kreslit_OFF, 1;
MoveL Offs(Target_drawing_origin,-216,128,-5),v200,fine,PencilHolder\WObj:=PAPER;
WaitRob \InPos;
MoveL Offs(Target_drawing_origin,-220,128,-5),v200,fine,PencilHolder\WObj:=PAPER;
WaitRob \InPos;
MoveL Offs(Target_drawing_origin,-220,128,0),v200,fine,PencilHolder\WObj:=PAPER;
WaitRob \InPos;
SetDO Do_Kreslit_ON, 1;
SetDO Do_Kreslit_OFF, 0;
MoveL Offs(Target_drawing_origin,-240,128,0),v200,fine,PencilHolder\WObj:=PAPER;
WaitRob \InPos;
SetDO Do_Kreslit_ON, 0;
SetDO Do_Kreslit_OFF, 1;
MoveL Offs(Target_drawing_origin,-240,128,-5),v200,fine,PencilHolder\WObj:=PAPER;
WaitRob \InPos;
MoveL Offs(Target_drawing_origin,-252,128,-5),v200,fine,PencilHolder\WObj:=PAPER;
WaitRob \InPos;
MoveL Offs(Target_drawing_origin,-252,128,0),v200,fine,PencilHolder\WObj:=PAPER;
WaitRob \InPos;
SetDO Do_Kreslit_ON, 1;
SetDO Do_Kreslit_OFF, 0;
MoveL Offs(Target_drawing_origin,-112,132,0),v200,fine,PencilHolder\WObj:=PAPER;
WaitRob \InPos;
SetDO Do_Kreslit_ON, 0;
SetDO Do_Kreslit_OFF, 1;
MoveL Offs(Target_drawing_origin,-112,132,-5),v200,fine,PencilHolder\WObj:=PAPER;
WaitRob \InPos;
MoveL Offs(Target_drawing_origin,-120,132,-5),v200,fine,PencilHolder\WObj:=PAPER;
WaitRob \InPos;
MoveL Offs(Target_drawing_origin,-120,132,0),v200,fine,PencilHolder\WObj:=PAPER;
WaitRob \InPos;
SetDO Do_Kreslit_ON, 1;
SetDO Do_Kreslit_OFF, 0;
MoveL Offs(Target_drawing_origin,-164,132,0),v200,fine,PencilHolder\WObj:=PAPER;
WaitRob \InPos;
SetDO Do_Kreslit_ON, 0;
SetDO Do_Kreslit_OFF, 1;
MoveL Offs(Target_drawing_origin,-164,132,-5),v200,fine,PencilHolder\WObj:=PAPER;
WaitRob \InPos;
MoveL Offs(Target_drawing_origin,-168,132,-5),v200,fine,PencilHolder\WObj:=PAPER;
WaitRob \InPos;
MoveL Offs(Target_drawing_origin,-168,132,0),v200,fine,PencilHolder\WObj:=PAPER;
WaitRob \InPos;
SetDO Do_Kreslit_ON, 1;
SetDO Do_Kreslit_OFF, 0;
MoveL Offs(Target_drawing_origin,-216,132,0),v200,fine,PencilHolder\WObj:=PAPER;
WaitRob \InPos;
SetDO Do_Kreslit_ON, 0;
SetDO Do_Kreslit_OFF, 1;
MoveL Offs(Target_drawing_origin,-216,132,-5),v200,fine,PencilHolder\WObj:=PAPER;
WaitRob \InPos;
MoveL Offs(Target_drawing_origin,-220,132,-5),v200,fine,PencilHolder\WObj:=PAPER;
WaitRob \InPos;
MoveL Offs(Target_drawing_origin,-220,132,0),v200,fine,PencilHolder\WObj:=PAPER;
WaitRob \InPos;
SetDO Do_Kreslit_ON, 1;
SetDO Do_Kreslit_OFF, 0;
MoveL Offs(Target_drawing_origin,-240,132,0),v200,fine,PencilHolder\WObj:=PAPER;
WaitRob \InPos;
SetDO Do_Kreslit_ON, 0;
SetDO Do_Kreslit_OFF, 1;
MoveL Offs(Target_drawing_origin,-240,132,-5),v200,fine,PencilHolder\WObj:=PAPER;
WaitRob \InPos;
MoveL Offs(Target_drawing_origin,-252,132,-5),v200,fine,PencilHolder\WObj:=PAPER;
WaitRob \InPos;
MoveL Offs(Target_drawing_origin,-252,132,0),v200,fine,PencilHolder\WObj:=PAPER;
WaitRob \InPos;
SetDO Do_Kreslit_ON, 1;
SetDO Do_Kreslit_OFF, 0;
MoveL Offs(Target_drawing_origin,-112,136,0),v200,fine,PencilHolder\WObj:=PAPER;
WaitRob \InPos;
SetDO Do_Kreslit_ON, 0;
SetDO Do_Kreslit_OFF, 1;
MoveL Offs(Target_drawing_origin,-112,136,-5),v200,fine,PencilHolder\WObj:=PAPER;
WaitRob \InPos;
MoveL Offs(Target_drawing_origin,-120,136,-5),v200,fine,PencilHolder\WObj:=PAPER;
WaitRob \InPos;
MoveL Offs(Target_drawing_origin,-120,136,0),v200,fine,PencilHolder\WObj:=PAPER;
WaitRob \InPos;
SetDO Do_Kreslit_ON, 1;
SetDO Do_Kreslit_OFF, 0;
MoveL Offs(Target_drawing_origin,-140,136,0),v200,fine,PencilHolder\WObj:=PAPER;
WaitRob \InPos;
SetDO Do_Kreslit_ON, 0;
SetDO Do_Kreslit_OFF, 1;
MoveL Offs(Target_drawing_origin,-140,136,-5),v200,fine,PencilHolder\WObj:=PAPER;
WaitRob \InPos;
MoveL Offs(Target_drawing_origin,-164,136,-5),v200,fine,PencilHolder\WObj:=PAPER;
WaitRob \InPos;
MoveL Offs(Target_drawing_origin,-164,136,0),v200,fine,PencilHolder\WObj:=PAPER;
WaitRob \InPos;
SetDO Do_Kreslit_ON, 1;
SetDO Do_Kreslit_OFF, 0;
MoveL Offs(Target_drawing_origin,-184,136,0),v200,fine,PencilHolder\WObj:=PAPER;
WaitRob \InPos;
SetDO Do_Kreslit_ON, 0;
SetDO Do_Kreslit_OFF, 1;
MoveL Offs(Target_drawing_origin,-184,136,-5),v200,fine,PencilHolder\WObj:=PAPER;
WaitRob \InPos;
MoveL Offs(Target_drawing_origin,-196,136,-5),v200,fine,PencilHolder\WObj:=PAPER;
WaitRob \InPos;
MoveL Offs(Target_drawing_origin,-196,136,0),v200,fine,PencilHolder\WObj:=PAPER;
WaitRob \InPos;
SetDO Do_Kreslit_ON, 1;
SetDO Do_Kreslit_OFF, 0;
MoveL Offs(Target_drawing_origin,-216,136,0),v200,fine,PencilHolder\WObj:=PAPER;
WaitRob \InPos;
SetDO Do_Kreslit_ON, 0;
SetDO Do_Kreslit_OFF, 1;
MoveL Offs(Target_drawing_origin,-216,136,-5),v200,fine,PencilHolder\WObj:=PAPER;
WaitRob \InPos;
MoveL Offs(Target_drawing_origin,-220,136,-5),v200,fine,PencilHolder\WObj:=PAPER;
WaitRob \InPos;
MoveL Offs(Target_drawing_origin,-220,136,0),v200,fine,PencilHolder\WObj:=PAPER;
WaitRob \InPos;
SetDO Do_Kreslit_ON, 1;
SetDO Do_Kreslit_OFF, 0;
MoveL Offs(Target_drawing_origin,-240,136,0),v200,fine,PencilHolder\WObj:=PAPER;
WaitRob \InPos;
SetDO Do_Kreslit_ON, 0;
SetDO Do_Kreslit_OFF, 1;
MoveL Offs(Target_drawing_origin,-240,136,-5),v200,fine,PencilHolder\WObj:=PAPER;
WaitRob \InPos;
MoveL Offs(Target_drawing_origin,-252,136,-5),v200,fine,PencilHolder\WObj:=PAPER;
WaitRob \InPos;
MoveL Offs(Target_drawing_origin,-252,136,0),v200,fine,PencilHolder\WObj:=PAPER;
WaitRob \InPos;
SetDO Do_Kreslit_ON, 1;
SetDO Do_Kreslit_OFF, 0;
MoveL Offs(Target_drawing_origin,-112,140,0),v200,fine,PencilHolder\WObj:=PAPER;
WaitRob \InPos;
SetDO Do_Kreslit_ON, 0;
SetDO Do_Kreslit_OFF, 1;
MoveL Offs(Target_drawing_origin,-112,140,-5),v200,fine,PencilHolder\WObj:=PAPER;
WaitRob \InPos;
MoveL Offs(Target_drawing_origin,-120,140,-5),v200,fine,PencilHolder\WObj:=PAPER;
WaitRob \InPos;
MoveL Offs(Target_drawing_origin,-120,140,0),v200,fine,PencilHolder\WObj:=PAPER;
WaitRob \InPos;
SetDO Do_Kreslit_ON, 1;
SetDO Do_Kreslit_OFF, 0;
MoveL Offs(Target_drawing_origin,-140,140,0),v200,fine,PencilHolder\WObj:=PAPER;
WaitRob \InPos;
SetDO Do_Kreslit_ON, 0;
SetDO Do_Kreslit_OFF, 1;
MoveL Offs(Target_drawing_origin,-140,140,-5),v200,fine,PencilHolder\WObj:=PAPER;
WaitRob \InPos;
MoveL Offs(Target_drawing_origin,-164,140,-5),v200,fine,PencilHolder\WObj:=PAPER;
WaitRob \InPos;
MoveL Offs(Target_drawing_origin,-164,140,0),v200,fine,PencilHolder\WObj:=PAPER;
WaitRob \InPos;
SetDO Do_Kreslit_ON, 1;
SetDO Do_Kreslit_OFF, 0;
MoveL Offs(Target_drawing_origin,-188,140,0),v200,fine,PencilHolder\WObj:=PAPER;
WaitRob \InPos;
SetDO Do_Kreslit_ON, 0;
SetDO Do_Kreslit_OFF, 1;
MoveL Offs(Target_drawing_origin,-188,140,-5),v200,fine,PencilHolder\WObj:=PAPER;
WaitRob \InPos;
MoveL Offs(Target_drawing_origin,-196,140,-5),v200,fine,PencilHolder\WObj:=PAPER;
WaitRob \InPos;
MoveL Offs(Target_drawing_origin,-196,140,0),v200,fine,PencilHolder\WObj:=PAPER;
WaitRob \InPos;
SetDO Do_Kreslit_ON, 1;
SetDO Do_Kreslit_OFF, 0;
MoveL Offs(Target_drawing_origin,-216,140,0),v200,fine,PencilHolder\WObj:=PAPER;
WaitRob \InPos;
SetDO Do_Kreslit_ON, 0;
SetDO Do_Kreslit_OFF, 1;
MoveL Offs(Target_drawing_origin,-216,140,-5),v200,fine,PencilHolder\WObj:=PAPER;
WaitRob \InPos;
MoveL Offs(Target_drawing_origin,-220,140,-5),v200,fine,PencilHolder\WObj:=PAPER;
WaitRob \InPos;
MoveL Offs(Target_drawing_origin,-220,140,0),v200,fine,PencilHolder\WObj:=PAPER;
WaitRob \InPos;
SetDO Do_Kreslit_ON, 1;
SetDO Do_Kreslit_OFF, 0;
MoveL Offs(Target_drawing_origin,-240,140,0),v200,fine,PencilHolder\WObj:=PAPER;
WaitRob \InPos;
SetDO Do_Kreslit_ON, 0;
SetDO Do_Kreslit_OFF, 1;
MoveL Offs(Target_drawing_origin,-240,140,-5),v200,fine,PencilHolder\WObj:=PAPER;
WaitRob \InPos;
MoveL Offs(Target_drawing_origin,-252,140,-5),v200,fine,PencilHolder\WObj:=PAPER;
WaitRob \InPos;
MoveL Offs(Target_drawing_origin,-252,140,0),v200,fine,PencilHolder\WObj:=PAPER;
WaitRob \InPos;
SetDO Do_Kreslit_ON, 1;
SetDO Do_Kreslit_OFF, 0;
MoveL Offs(Target_drawing_origin,-112,144,0),v200,fine,PencilHolder\WObj:=PAPER;
WaitRob \InPos;
SetDO Do_Kreslit_ON, 0;
SetDO Do_Kreslit_OFF, 1;
MoveL Offs(Target_drawing_origin,-112,144,-5),v200,fine,PencilHolder\WObj:=PAPER;
WaitRob \InPos;
MoveL Offs(Target_drawing_origin,-120,144,-5),v200,fine,PencilHolder\WObj:=PAPER;
WaitRob \InPos;
MoveL Offs(Target_drawing_origin,-120,144,0),v200,fine,PencilHolder\WObj:=PAPER;
WaitRob \InPos;
SetDO Do_Kreslit_ON, 1;
SetDO Do_Kreslit_OFF, 0;
MoveL Offs(Target_drawing_origin,-140,144,0),v200,fine,PencilHolder\WObj:=PAPER;
WaitRob \InPos;
SetDO Do_Kreslit_ON, 0;
SetDO Do_Kreslit_OFF, 1;
MoveL Offs(Target_drawing_origin,-140,144,-5),v200,fine,PencilHolder\WObj:=PAPER;
WaitRob \InPos;
MoveL Offs(Target_drawing_origin,-164,144,-5),v200,fine,PencilHolder\WObj:=PAPER;
WaitRob \InPos;
MoveL Offs(Target_drawing_origin,-164,144,0),v200,fine,PencilHolder\WObj:=PAPER;
WaitRob \InPos;
SetDO Do_Kreslit_ON, 1;
SetDO Do_Kreslit_OFF, 0;
MoveL Offs(Target_drawing_origin,-216,144,0),v200,fine,PencilHolder\WObj:=PAPER;
WaitRob \InPos;
SetDO Do_Kreslit_ON, 0;
SetDO Do_Kreslit_OFF, 1;
MoveL Offs(Target_drawing_origin,-216,144,-5),v200,fine,PencilHolder\WObj:=PAPER;
WaitRob \InPos;
MoveL Offs(Target_drawing_origin,-220,144,-5),v200,fine,PencilHolder\WObj:=PAPER;
WaitRob \InPos;
MoveL Offs(Target_drawing_origin,-220,144,0),v200,fine,PencilHolder\WObj:=PAPER;
WaitRob \InPos;
SetDO Do_Kreslit_ON, 1;
SetDO Do_Kreslit_OFF, 0;
MoveL Offs(Target_drawing_origin,-240,144,0),v200,fine,PencilHolder\WObj:=PAPER;
WaitRob \InPos;
SetDO Do_Kreslit_ON, 0;
SetDO Do_Kreslit_OFF, 1;
MoveL Offs(Target_drawing_origin,-240,144,-5),v200,fine,PencilHolder\WObj:=PAPER;
WaitRob \InPos;
MoveL Offs(Target_drawing_origin,-252,144,-5),v200,fine,PencilHolder\WObj:=PAPER;
WaitRob \InPos;
MoveL Offs(Target_drawing_origin,-252,144,0),v200,fine,PencilHolder\WObj:=PAPER;
WaitRob \InPos;
SetDO Do_Kreslit_ON, 1;
SetDO Do_Kreslit_OFF, 0;
MoveL Offs(Target_drawing_origin,-112,148,0),v200,fine,PencilHolder\WObj:=PAPER;
WaitRob \InPos;
SetDO Do_Kreslit_ON, 0;
SetDO Do_Kreslit_OFF, 1;
MoveL Offs(Target_drawing_origin,-112,148,-5),v200,fine,PencilHolder\WObj:=PAPER;
WaitRob \InPos;
MoveL Offs(Target_drawing_origin,-120,148,-5),v200,fine,PencilHolder\WObj:=PAPER;
WaitRob \InPos;
MoveL Offs(Target_drawing_origin,-120,148,0),v200,fine,PencilHolder\WObj:=PAPER;
WaitRob \InPos;
SetDO Do_Kreslit_ON, 1;
SetDO Do_Kreslit_OFF, 0;
MoveL Offs(Target_drawing_origin,-140,148,0),v200,fine,PencilHolder\WObj:=PAPER;
WaitRob \InPos;
SetDO Do_Kreslit_ON, 0;
SetDO Do_Kreslit_OFF, 1;
MoveL Offs(Target_drawing_origin,-140,148,-5),v200,fine,PencilHolder\WObj:=PAPER;
WaitRob \InPos;
MoveL Offs(Target_drawing_origin,-164,148,-5),v200,fine,PencilHolder\WObj:=PAPER;
WaitRob \InPos;
MoveL Offs(Target_drawing_origin,-164,148,0),v200,fine,PencilHolder\WObj:=PAPER;
WaitRob \InPos;
SetDO Do_Kreslit_ON, 1;
SetDO Do_Kreslit_OFF, 0;
MoveL Offs(Target_drawing_origin,-216,148,0),v200,fine,PencilHolder\WObj:=PAPER;
WaitRob \InPos;
SetDO Do_Kreslit_ON, 0;
SetDO Do_Kreslit_OFF, 1;
MoveL Offs(Target_drawing_origin,-216,148,-5),v200,fine,PencilHolder\WObj:=PAPER;
WaitRob \InPos;
MoveL Offs(Target_drawing_origin,-220,148,-5),v200,fine,PencilHolder\WObj:=PAPER;
WaitRob \InPos;
MoveL Offs(Target_drawing_origin,-220,148,0),v200,fine,PencilHolder\WObj:=PAPER;
WaitRob \InPos;
SetDO Do_Kreslit_ON, 1;
SetDO Do_Kreslit_OFF, 0;
MoveL Offs(Target_drawing_origin,-240,148,0),v200,fine,PencilHolder\WObj:=PAPER;
WaitRob \InPos;
SetDO Do_Kreslit_ON, 0;
SetDO Do_Kreslit_OFF, 1;
MoveL Offs(Target_drawing_origin,-240,148,-5),v200,fine,PencilHolder\WObj:=PAPER;
WaitRob \InPos;
MoveL Offs(Target_drawing_origin,-252,148,-5),v200,fine,PencilHolder\WObj:=PAPER;
WaitRob \InPos;
MoveL Offs(Target_drawing_origin,-252,148,0),v200,fine,PencilHolder\WObj:=PAPER;
WaitRob \InPos;
SetDO Do_Kreslit_ON, 1;
SetDO Do_Kreslit_OFF, 0;
MoveL Offs(Target_drawing_origin,-112,152,0),v200,fine,PencilHolder\WObj:=PAPER;
WaitRob \InPos;
SetDO Do_Kreslit_ON, 0;
SetDO Do_Kreslit_OFF, 1;
MoveL Offs(Target_drawing_origin,-112,152,-5),v200,fine,PencilHolder\WObj:=PAPER;
WaitRob \InPos;
MoveL Offs(Target_drawing_origin,-120,152,-5),v200,fine,PencilHolder\WObj:=PAPER;
WaitRob \InPos;
MoveL Offs(Target_drawing_origin,-120,152,0),v200,fine,PencilHolder\WObj:=PAPER;
WaitRob \InPos;
SetDO Do_Kreslit_ON, 1;
SetDO Do_Kreslit_OFF, 0;
MoveL Offs(Target_drawing_origin,-140,152,0),v200,fine,PencilHolder\WObj:=PAPER;
WaitRob \InPos;
SetDO Do_Kreslit_ON, 0;
SetDO Do_Kreslit_OFF, 1;
MoveL Offs(Target_drawing_origin,-140,152,-5),v200,fine,PencilHolder\WObj:=PAPER;
WaitRob \InPos;
MoveL Offs(Target_drawing_origin,-168,152,-5),v200,fine,PencilHolder\WObj:=PAPER;
WaitRob \InPos;
MoveL Offs(Target_drawing_origin,-168,152,0),v200,fine,PencilHolder\WObj:=PAPER;
WaitRob \InPos;
SetDO Do_Kreslit_ON, 1;
SetDO Do_Kreslit_OFF, 0;
MoveL Offs(Target_drawing_origin,-216,152,0),v200,fine,PencilHolder\WObj:=PAPER;
WaitRob \InPos;
SetDO Do_Kreslit_ON, 0;
SetDO Do_Kreslit_OFF, 1;
MoveL Offs(Target_drawing_origin,-216,152,-5),v200,fine,PencilHolder\WObj:=PAPER;
WaitRob \InPos;
MoveL Offs(Target_drawing_origin,-220,152,-5),v200,fine,PencilHolder\WObj:=PAPER;
WaitRob \InPos;
MoveL Offs(Target_drawing_origin,-220,152,0),v200,fine,PencilHolder\WObj:=PAPER;
WaitRob \InPos;
SetDO Do_Kreslit_ON, 1;
SetDO Do_Kreslit_OFF, 0;
MoveL Offs(Target_drawing_origin,-240,152,0),v200,fine,PencilHolder\WObj:=PAPER;
WaitRob \InPos;
SetDO Do_Kreslit_ON, 0;
SetDO Do_Kreslit_OFF, 1;
MoveL Offs(Target_drawing_origin,-240,152,-5),v200,fine,PencilHolder\WObj:=PAPER;
WaitRob \InPos;
MoveL Offs(Target_drawing_origin,-252,152,-5),v200,fine,PencilHolder\WObj:=PAPER;
WaitRob \InPos;
MoveL Offs(Target_drawing_origin,-252,152,0),v200,fine,PencilHolder\WObj:=PAPER;
WaitRob \InPos;
SetDO Do_Kreslit_ON, 1;
SetDO Do_Kreslit_OFF, 0;
MoveL Offs(Target_drawing_origin,-112,156,0),v200,fine,PencilHolder\WObj:=PAPER;
WaitRob \InPos;
SetDO Do_Kreslit_ON, 0;
SetDO Do_Kreslit_OFF, 1;
MoveL Offs(Target_drawing_origin,-112,156,-5),v200,fine,PencilHolder\WObj:=PAPER;
WaitRob \InPos;
MoveL Offs(Target_drawing_origin,-120,156,-5),v200,fine,PencilHolder\WObj:=PAPER;
WaitRob \InPos;
MoveL Offs(Target_drawing_origin,-120,156,0),v200,fine,PencilHolder\WObj:=PAPER;
WaitRob \InPos;
SetDO Do_Kreslit_ON, 1;
SetDO Do_Kreslit_OFF, 0;
MoveL Offs(Target_drawing_origin,-140,156,0),v200,fine,PencilHolder\WObj:=PAPER;
WaitRob \InPos;
SetDO Do_Kreslit_ON, 0;
SetDO Do_Kreslit_OFF, 1;
MoveL Offs(Target_drawing_origin,-140,156,-5),v200,fine,PencilHolder\WObj:=PAPER;
WaitRob \InPos;
MoveL Offs(Target_drawing_origin,-172,156,-5),v200,fine,PencilHolder\WObj:=PAPER;
WaitRob \InPos;
MoveL Offs(Target_drawing_origin,-172,156,0),v200,fine,PencilHolder\WObj:=PAPER;
WaitRob \InPos;
SetDO Do_Kreslit_ON, 1;
SetDO Do_Kreslit_OFF, 0;
MoveL Offs(Target_drawing_origin,-212,156,0),v200,fine,PencilHolder\WObj:=PAPER;
WaitRob \InPos;
SetDO Do_Kreslit_ON, 0;
SetDO Do_Kreslit_OFF, 1;
MoveL Offs(Target_drawing_origin,-212,156,-5),v200,fine,PencilHolder\WObj:=PAPER;
WaitRob \InPos;
MoveL Offs(Target_drawing_origin,-220,156,-5),v200,fine,PencilHolder\WObj:=PAPER;
WaitRob \InPos;
MoveL Offs(Target_drawing_origin,-220,156,0),v200,fine,PencilHolder\WObj:=PAPER;
WaitRob \InPos;
SetDO Do_Kreslit_ON, 1;
SetDO Do_Kreslit_OFF, 0;
MoveL Offs(Target_drawing_origin,-240,156,0),v200,fine,PencilHolder\WObj:=PAPER;
WaitRob \InPos;
SetDO Do_Kreslit_ON, 0;
SetDO Do_Kreslit_OFF, 1;
MoveL Offs(Target_drawing_origin,-240,156,-5),v200,fine,PencilHolder\WObj:=PAPER;
WaitRob \InPos;
MoveL Offs(Target_drawing_origin,-252,156,-5),v200,fine,PencilHolder\WObj:=PAPER;
WaitRob \InPos;
MoveL Offs(Target_drawing_origin,-252,156,0),v200,fine,PencilHolder\WObj:=PAPER;
WaitRob \InPos;
SetDO Do_Kreslit_ON, 1;
SetDO Do_Kreslit_OFF, 0;
MoveL Offs(Target_drawing_origin,-112,160,0),v200,fine,PencilHolder\WObj:=PAPER;
WaitRob \InPos;
SetDO Do_Kreslit_ON, 0;
SetDO Do_Kreslit_OFF, 1;
MoveL Offs(Target_drawing_origin,-112,160,-5),v200,fine,PencilHolder\WObj:=PAPER;
WaitRob \InPos;
MoveL Offs(Target_drawing_origin,-252,160,-5),v200,fine,PencilHolder\WObj:=PAPER;
WaitRob \InPos;
MoveL Offs(Target_drawing_origin,-252,160,0),v200,fine,PencilHolder\WObj:=PAPER;
WaitRob \InPos;
SetDO Do_Kreslit_ON, 1;
SetDO Do_Kreslit_OFF, 0;
MoveL Offs(Target_drawing_origin,-112,164,0),v200,fine,PencilHolder\WObj:=PAPER;
WaitRob \InPos;
SetDO Do_Kreslit_ON, 0;
SetDO Do_Kreslit_OFF, 1;
MoveL Offs(Target_drawing_origin,-112,164,-5),v200,fine,PencilHolder\WObj:=PAPER;
WaitRob \InPos;
MoveL Offs(Target_drawing_origin,-252,164,-5),v200,fine,PencilHolder\WObj:=PAPER;
WaitRob \InPos;
MoveL Offs(Target_drawing_origin,-252,164,0),v200,fine,PencilHolder\WObj:=PAPER;
WaitRob \InPos;
SetDO Do_Kreslit_ON, 1;
SetDO Do_Kreslit_OFF, 0;
MoveL Offs(Target_drawing_origin,-112,168,0),v200,fine,PencilHolder\WObj:=PAPER;
WaitRob \InPos;
SetDO Do_Kreslit_ON, 0;
SetDO Do_Kreslit_OFF, 1;
MoveL Offs(Target_drawing_origin,-112,168,-5),v200,fine,PencilHolder\WObj:=PAPER;
WaitRob \InPos;
MoveL Offs(Target_drawing_origin,-252,168,-5),v200,fine,PencilHolder\WObj:=PAPER;
WaitRob \InPos;
MoveL Offs(Target_drawing_origin,-252,168,0),v200,fine,PencilHolder\WObj:=PAPER;
WaitRob \InPos;
SetDO Do_Kreslit_ON, 1;
SetDO Do_Kreslit_OFF, 0;
MoveL Offs(Target_drawing_origin,-112,172,0),v200,fine,PencilHolder\WObj:=PAPER;
WaitRob \InPos;
SetDO Do_Kreslit_ON, 0;
SetDO Do_Kreslit_OFF, 1;
MoveL Offs(Target_drawing_origin,-112,172,-5),v200,fine,PencilHolder\WObj:=PAPER;
WaitRob \InPos;
MoveL Offs(Target_drawing_origin,-252,172,-5),v200,fine,PencilHolder\WObj:=PAPER;
WaitRob \InPos;
MoveL Offs(Target_drawing_origin,-252,172,0),v200,fine,PencilHolder\WObj:=PAPER;
WaitRob \InPos;
SetDO Do_Kreslit_ON, 1;
SetDO Do_Kreslit_OFF, 0;
MoveL Offs(Target_drawing_origin,-112,176,0),v200,fine,PencilHolder\WObj:=PAPER;
WaitRob \InPos;
SetDO Do_Kreslit_ON, 0;
SetDO Do_Kreslit_OFF, 1;
MoveL Offs(Target_drawing_origin,-112,176,-5),v200,fine,PencilHolder\WObj:=PAPER;
WaitRob \InPos;
MoveL Offs(Target_drawing_origin,-252,176,-5),v200,fine,PencilHolder\WObj:=PAPER;
WaitRob \InPos;
MoveL Offs(Target_drawing_origin,-252,176,0),v200,fine,PencilHolder\WObj:=PAPER;
WaitRob \InPos;
SetDO Do_Kreslit_ON, 1;
SetDO Do_Kreslit_OFF, 0;


ENDPROC


ENDMODULE