MODULE Module1
    CONST robtarget Target_drawing_origin:=[[290,10,-2],[1,0,0,0],[0,0,0,0],[9E+09,9E+09,9E+09,9E+09,9E+09,9E+09]];


! Main procedure
PROC main()


! Draw grey
MoveJ Offs(Target_drawing_origin,0,0,5),v100,fine,PencilHolder\WObj:=PAPER;
MoveL Offs(Target_drawing_origin,0,0,5),v100,fine,PencilHolder\WObj:=PAPER;
MoveL Offs(Target_drawing_origin,0,0,0),v100,fine,PencilHolder\WObj:=PAPER;
MoveL Offs(Target_drawing_origin,0,18,0),v100,fine,PencilHolder\WObj:=PAPER;
MoveL Offs(Target_drawing_origin,0,18,5),v100,fine,PencilHolder\WObj:=PAPER;
MoveL Offs(Target_drawing_origin,0,48,5),v100,fine,PencilHolder\WObj:=PAPER;
MoveL Offs(Target_drawing_origin,0,48,0),v100,fine,PencilHolder\WObj:=PAPER;
MoveL Offs(Target_drawing_origin,0,66,0),v100,fine,PencilHolder\WObj:=PAPER;
MoveL Offs(Target_drawing_origin,0,66,5),v100,fine,PencilHolder\WObj:=PAPER;
MoveL Offs(Target_drawing_origin,-1,0,5),v100,fine,PencilHolder\WObj:=PAPER;
MoveL Offs(Target_drawing_origin,-1,0,0),v100,fine,PencilHolder\WObj:=PAPER;
MoveL Offs(Target_drawing_origin,-1,18,0),v100,fine,PencilHolder\WObj:=PAPER;
MoveL Offs(Target_drawing_origin,-1,18,5),v100,fine,PencilHolder\WObj:=PAPER;
MoveL Offs(Target_drawing_origin,-1,48,5),v100,fine,PencilHolder\WObj:=PAPER;
MoveL Offs(Target_drawing_origin,-1,48,0),v100,fine,PencilHolder\WObj:=PAPER;
MoveL Offs(Target_drawing_origin,-1,69,0),v100,fine,PencilHolder\WObj:=PAPER;
MoveL Offs(Target_drawing_origin,-1,69,5),v100,fine,PencilHolder\WObj:=PAPER;
MoveL Offs(Target_drawing_origin,-2,0,5),v100,fine,PencilHolder\WObj:=PAPER;
MoveL Offs(Target_drawing_origin,-2,0,0),v100,fine,PencilHolder\WObj:=PAPER;
MoveL Offs(Target_drawing_origin,-2,18,0),v100,fine,PencilHolder\WObj:=PAPER;
MoveL Offs(Target_drawing_origin,-2,18,5),v100,fine,PencilHolder\WObj:=PAPER;
MoveL Offs(Target_drawing_origin,-2,42,5),v100,fine,PencilHolder\WObj:=PAPER;
MoveL Offs(Target_drawing_origin,-2,42,0),v100,fine,PencilHolder\WObj:=PAPER;
MoveL Offs(Target_drawing_origin,-2,72,0),v100,fine,PencilHolder\WObj:=PAPER;
MoveL Offs(Target_drawing_origin,-2,72,5),v100,fine,PencilHolder\WObj:=PAPER;
MoveL Offs(Target_drawing_origin,-3,0,5),v100,fine,PencilHolder\WObj:=PAPER;
MoveL Offs(Target_drawing_origin,-3,0,0),v100,fine,PencilHolder\WObj:=PAPER;
MoveL Offs(Target_drawing_origin,-3,18,0),v100,fine,PencilHolder\WObj:=PAPER;
MoveL Offs(Target_drawing_origin,-3,18,5),v100,fine,PencilHolder\WObj:=PAPER;
MoveL Offs(Target_drawing_origin,-3,39,5),v100,fine,PencilHolder\WObj:=PAPER;
MoveL Offs(Target_drawing_origin,-3,39,0),v100,fine,PencilHolder\WObj:=PAPER;
MoveL Offs(Target_drawing_origin,-3,75,0),v100,fine,PencilHolder\WObj:=PAPER;
MoveL Offs(Target_drawing_origin,-3,75,5),v100,fine,PencilHolder\WObj:=PAPER;
MoveL Offs(Target_drawing_origin,-4,0,5),v100,fine,PencilHolder\WObj:=PAPER;
MoveL Offs(Target_drawing_origin,-4,0,0),v100,fine,PencilHolder\WObj:=PAPER;
MoveL Offs(Target_drawing_origin,-4,18,0),v100,fine,PencilHolder\WObj:=PAPER;
MoveL Offs(Target_drawing_origin,-4,18,5),v100,fine,PencilHolder\WObj:=PAPER;
MoveL Offs(Target_drawing_origin,-4,36,5),v100,fine,PencilHolder\WObj:=PAPER;
MoveL Offs(Target_drawing_origin,-4,36,0),v100,fine,PencilHolder\WObj:=PAPER;
MoveL Offs(Target_drawing_origin,-4,78,0),v100,fine,PencilHolder\WObj:=PAPER;
MoveL Offs(Target_drawing_origin,-4,78,5),v100,fine,PencilHolder\WObj:=PAPER;
MoveL Offs(Target_drawing_origin,-5,0,5),v100,fine,PencilHolder\WObj:=PAPER;
MoveL Offs(Target_drawing_origin,-5,0,0),v100,fine,PencilHolder\WObj:=PAPER;
MoveL Offs(Target_drawing_origin,-5,15,0),v100,fine,PencilHolder\WObj:=PAPER;
MoveL Offs(Target_drawing_origin,-5,15,5),v100,fine,PencilHolder\WObj:=PAPER;
MoveL Offs(Target_drawing_origin,-5,27,5),v100,fine,PencilHolder\WObj:=PAPER;
MoveL Offs(Target_drawing_origin,-5,27,0),v100,fine,PencilHolder\WObj:=PAPER;
MoveL Offs(Target_drawing_origin,-5,84,0),v100,fine,PencilHolder\WObj:=PAPER;
MoveL Offs(Target_drawing_origin,-5,84,5),v100,fine,PencilHolder\WObj:=PAPER;
MoveL Offs(Target_drawing_origin,-5,210,5),v100,fine,PencilHolder\WObj:=PAPER;
MoveL Offs(Target_drawing_origin,-5,210,0),v100,fine,PencilHolder\WObj:=PAPER;
MoveL Offs(Target_drawing_origin,-5,228,0),v100,fine,PencilHolder\WObj:=PAPER;
MoveL Offs(Target_drawing_origin,-5,228,5),v100,fine,PencilHolder\WObj:=PAPER;
MoveL Offs(Target_drawing_origin,-6,0,5),v100,fine,PencilHolder\WObj:=PAPER;
MoveL Offs(Target_drawing_origin,-6,0,0),v100,fine,PencilHolder\WObj:=PAPER;
MoveL Offs(Target_drawing_origin,-6,12,0),v100,fine,PencilHolder\WObj:=PAPER;
MoveL Offs(Target_drawing_origin,-6,12,5),v100,fine,PencilHolder\WObj:=PAPER;
MoveL Offs(Target_drawing_origin,-6,27,5),v100,fine,PencilHolder\WObj:=PAPER;
MoveL Offs(Target_drawing_origin,-6,27,0),v100,fine,PencilHolder\WObj:=PAPER;
MoveL Offs(Target_drawing_origin,-6,84,0),v100,fine,PencilHolder\WObj:=PAPER;
MoveL Offs(Target_drawing_origin,-6,84,5),v100,fine,PencilHolder\WObj:=PAPER;
MoveL Offs(Target_drawing_origin,-6,210,5),v100,fine,PencilHolder\WObj:=PAPER;
MoveL Offs(Target_drawing_origin,-6,210,0),v100,fine,PencilHolder\WObj:=PAPER;
MoveL Offs(Target_drawing_origin,-6,228,0),v100,fine,PencilHolder\WObj:=PAPER;
MoveL Offs(Target_drawing_origin,-6,228,5),v100,fine,PencilHolder\WObj:=PAPER;
MoveL Offs(Target_drawing_origin,-7,0,5),v100,fine,PencilHolder\WObj:=PAPER;
MoveL Offs(Target_drawing_origin,-7,0,0),v100,fine,PencilHolder\WObj:=PAPER;
MoveL Offs(Target_drawing_origin,-7,12,0),v100,fine,PencilHolder\WObj:=PAPER;
MoveL Offs(Target_drawing_origin,-7,12,5),v100,fine,PencilHolder\WObj:=PAPER;
MoveL Offs(Target_drawing_origin,-7,27,5),v100,fine,PencilHolder\WObj:=PAPER;
MoveL Offs(Target_drawing_origin,-7,27,0),v100,fine,PencilHolder\WObj:=PAPER;
MoveL Offs(Target_drawing_origin,-7,87,0),v100,fine,PencilHolder\WObj:=PAPER;
MoveL Offs(Target_drawing_origin,-7,87,5),v100,fine,PencilHolder\WObj:=PAPER;
MoveL Offs(Target_drawing_origin,-7,204,5),v100,fine,PencilHolder\WObj:=PAPER;
MoveL Offs(Target_drawing_origin,-7,204,0),v100,fine,PencilHolder\WObj:=PAPER;
MoveL Offs(Target_drawing_origin,-7,234,0),v100,fine,PencilHolder\WObj:=PAPER;
MoveL Offs(Target_drawing_origin,-7,234,5),v100,fine,PencilHolder\WObj:=PAPER;
MoveL Offs(Target_drawing_origin,-8,0,5),v100,fine,PencilHolder\WObj:=PAPER;
MoveL Offs(Target_drawing_origin,-8,0,0),v100,fine,PencilHolder\WObj:=PAPER;
MoveL Offs(Target_drawing_origin,-8,15,0),v100,fine,PencilHolder\WObj:=PAPER;
MoveL Offs(Target_drawing_origin,-8,15,5),v100,fine,PencilHolder\WObj:=PAPER;
MoveL Offs(Target_drawing_origin,-8,27,5),v100,fine,PencilHolder\WObj:=PAPER;
MoveL Offs(Target_drawing_origin,-8,27,0),v100,fine,PencilHolder\WObj:=PAPER;
MoveL Offs(Target_drawing_origin,-8,90,0),v100,fine,PencilHolder\WObj:=PAPER;
MoveL Offs(Target_drawing_origin,-8,90,5),v100,fine,PencilHolder\WObj:=PAPER;
MoveL Offs(Target_drawing_origin,-8,204,5),v100,fine,PencilHolder\WObj:=PAPER;
MoveL Offs(Target_drawing_origin,-8,204,0),v100,fine,PencilHolder\WObj:=PAPER;
MoveL Offs(Target_drawing_origin,-8,234,0),v100,fine,PencilHolder\WObj:=PAPER;
MoveL Offs(Target_drawing_origin,-8,234,5),v100,fine,PencilHolder\WObj:=PAPER;
MoveL Offs(Target_drawing_origin,-9,0,5),v100,fine,PencilHolder\WObj:=PAPER;
MoveL Offs(Target_drawing_origin,-9,0,0),v100,fine,PencilHolder\WObj:=PAPER;
MoveL Offs(Target_drawing_origin,-9,90,0),v100,fine,PencilHolder\WObj:=PAPER;
MoveL Offs(Target_drawing_origin,-9,90,5),v100,fine,PencilHolder\WObj:=PAPER;
MoveL Offs(Target_drawing_origin,-9,129,5),v100,fine,PencilHolder\WObj:=PAPER;
MoveL Offs(Target_drawing_origin,-9,129,0),v100,fine,PencilHolder\WObj:=PAPER;
MoveL Offs(Target_drawing_origin,-9,153,0),v100,fine,PencilHolder\WObj:=PAPER;
MoveL Offs(Target_drawing_origin,-9,153,5),v100,fine,PencilHolder\WObj:=PAPER;
MoveL Offs(Target_drawing_origin,-9,198,5),v100,fine,PencilHolder\WObj:=PAPER;
MoveL Offs(Target_drawing_origin,-9,198,0),v100,fine,PencilHolder\WObj:=PAPER;
MoveL Offs(Target_drawing_origin,-9,240,0),v100,fine,PencilHolder\WObj:=PAPER;
MoveL Offs(Target_drawing_origin,-9,240,5),v100,fine,PencilHolder\WObj:=PAPER;
MoveL Offs(Target_drawing_origin,-10,0,5),v100,fine,PencilHolder\WObj:=PAPER;
MoveL Offs(Target_drawing_origin,-10,0,0),v100,fine,PencilHolder\WObj:=PAPER;
MoveL Offs(Target_drawing_origin,-10,90,0),v100,fine,PencilHolder\WObj:=PAPER;
MoveL Offs(Target_drawing_origin,-10,90,5),v100,fine,PencilHolder\WObj:=PAPER;
MoveL Offs(Target_drawing_origin,-10,129,5),v100,fine,PencilHolder\WObj:=PAPER;
MoveL Offs(Target_drawing_origin,-10,129,0),v100,fine,PencilHolder\WObj:=PAPER;
MoveL Offs(Target_drawing_origin,-10,153,0),v100,fine,PencilHolder\WObj:=PAPER;
MoveL Offs(Target_drawing_origin,-10,153,5),v100,fine,PencilHolder\WObj:=PAPER;
MoveL Offs(Target_drawing_origin,-10,198,5),v100,fine,PencilHolder\WObj:=PAPER;
MoveL Offs(Target_drawing_origin,-10,198,0),v100,fine,PencilHolder\WObj:=PAPER;
MoveL Offs(Target_drawing_origin,-10,240,0),v100,fine,PencilHolder\WObj:=PAPER;
MoveL Offs(Target_drawing_origin,-10,240,5),v100,fine,PencilHolder\WObj:=PAPER;
MoveL Offs(Target_drawing_origin,-11,0,5),v100,fine,PencilHolder\WObj:=PAPER;
MoveL Offs(Target_drawing_origin,-11,0,0),v100,fine,PencilHolder\WObj:=PAPER;
MoveL Offs(Target_drawing_origin,-11,51,0),v100,fine,PencilHolder\WObj:=PAPER;
MoveL Offs(Target_drawing_origin,-11,51,5),v100,fine,PencilHolder\WObj:=PAPER;
MoveL Offs(Target_drawing_origin,-11,60,5),v100,fine,PencilHolder\WObj:=PAPER;
MoveL Offs(Target_drawing_origin,-11,60,0),v100,fine,PencilHolder\WObj:=PAPER;
MoveL Offs(Target_drawing_origin,-11,90,0),v100,fine,PencilHolder\WObj:=PAPER;
MoveL Offs(Target_drawing_origin,-11,90,5),v100,fine,PencilHolder\WObj:=PAPER;
MoveL Offs(Target_drawing_origin,-11,123,5),v100,fine,PencilHolder\WObj:=PAPER;
MoveL Offs(Target_drawing_origin,-11,123,0),v100,fine,PencilHolder\WObj:=PAPER;
MoveL Offs(Target_drawing_origin,-11,159,0),v100,fine,PencilHolder\WObj:=PAPER;
MoveL Offs(Target_drawing_origin,-11,159,5),v100,fine,PencilHolder\WObj:=PAPER;
MoveL Offs(Target_drawing_origin,-11,192,5),v100,fine,PencilHolder\WObj:=PAPER;
MoveL Offs(Target_drawing_origin,-11,192,0),v100,fine,PencilHolder\WObj:=PAPER;
MoveL Offs(Target_drawing_origin,-11,240,0),v100,fine,PencilHolder\WObj:=PAPER;
MoveL Offs(Target_drawing_origin,-11,240,5),v100,fine,PencilHolder\WObj:=PAPER;
MoveL Offs(Target_drawing_origin,-12,0,5),v100,fine,PencilHolder\WObj:=PAPER;
MoveL Offs(Target_drawing_origin,-12,0,0),v100,fine,PencilHolder\WObj:=PAPER;
MoveL Offs(Target_drawing_origin,-12,51,0),v100,fine,PencilHolder\WObj:=PAPER;
MoveL Offs(Target_drawing_origin,-12,51,5),v100,fine,PencilHolder\WObj:=PAPER;
MoveL Offs(Target_drawing_origin,-12,60,5),v100,fine,PencilHolder\WObj:=PAPER;
MoveL Offs(Target_drawing_origin,-12,60,0),v100,fine,PencilHolder\WObj:=PAPER;
MoveL Offs(Target_drawing_origin,-12,90,0),v100,fine,PencilHolder\WObj:=PAPER;
MoveL Offs(Target_drawing_origin,-12,90,5),v100,fine,PencilHolder\WObj:=PAPER;
MoveL Offs(Target_drawing_origin,-12,114,5),v100,fine,PencilHolder\WObj:=PAPER;
MoveL Offs(Target_drawing_origin,-12,114,0),v100,fine,PencilHolder\WObj:=PAPER;
MoveL Offs(Target_drawing_origin,-12,162,0),v100,fine,PencilHolder\WObj:=PAPER;
MoveL Offs(Target_drawing_origin,-12,162,5),v100,fine,PencilHolder\WObj:=PAPER;
MoveL Offs(Target_drawing_origin,-12,192,5),v100,fine,PencilHolder\WObj:=PAPER;
MoveL Offs(Target_drawing_origin,-12,192,0),v100,fine,PencilHolder\WObj:=PAPER;
MoveL Offs(Target_drawing_origin,-12,240,0),v100,fine,PencilHolder\WObj:=PAPER;
MoveL Offs(Target_drawing_origin,-12,240,5),v100,fine,PencilHolder\WObj:=PAPER;
MoveL Offs(Target_drawing_origin,-13,0,5),v100,fine,PencilHolder\WObj:=PAPER;
MoveL Offs(Target_drawing_origin,-13,0,0),v100,fine,PencilHolder\WObj:=PAPER;
MoveL Offs(Target_drawing_origin,-13,45,0),v100,fine,PencilHolder\WObj:=PAPER;
MoveL Offs(Target_drawing_origin,-13,45,5),v100,fine,PencilHolder\WObj:=PAPER;
MoveL Offs(Target_drawing_origin,-13,60,5),v100,fine,PencilHolder\WObj:=PAPER;
MoveL Offs(Target_drawing_origin,-13,60,0),v100,fine,PencilHolder\WObj:=PAPER;
MoveL Offs(Target_drawing_origin,-13,90,0),v100,fine,PencilHolder\WObj:=PAPER;
MoveL Offs(Target_drawing_origin,-13,90,5),v100,fine,PencilHolder\WObj:=PAPER;
MoveL Offs(Target_drawing_origin,-13,114,5),v100,fine,PencilHolder\WObj:=PAPER;
MoveL Offs(Target_drawing_origin,-13,114,0),v100,fine,PencilHolder\WObj:=PAPER;
MoveL Offs(Target_drawing_origin,-13,165,0),v100,fine,PencilHolder\WObj:=PAPER;
MoveL Offs(Target_drawing_origin,-13,165,5),v100,fine,PencilHolder\WObj:=PAPER;
MoveL Offs(Target_drawing_origin,-13,192,5),v100,fine,PencilHolder\WObj:=PAPER;
MoveL Offs(Target_drawing_origin,-13,192,0),v100,fine,PencilHolder\WObj:=PAPER;
MoveL Offs(Target_drawing_origin,-13,240,0),v100,fine,PencilHolder\WObj:=PAPER;
MoveL Offs(Target_drawing_origin,-13,240,5),v100,fine,PencilHolder\WObj:=PAPER;
MoveL Offs(Target_drawing_origin,-14,0,5),v100,fine,PencilHolder\WObj:=PAPER;
MoveL Offs(Target_drawing_origin,-14,0,0),v100,fine,PencilHolder\WObj:=PAPER;
MoveL Offs(Target_drawing_origin,-14,42,0),v100,fine,PencilHolder\WObj:=PAPER;
MoveL Offs(Target_drawing_origin,-14,42,5),v100,fine,PencilHolder\WObj:=PAPER;
MoveL Offs(Target_drawing_origin,-14,60,5),v100,fine,PencilHolder\WObj:=PAPER;
MoveL Offs(Target_drawing_origin,-14,60,0),v100,fine,PencilHolder\WObj:=PAPER;
MoveL Offs(Target_drawing_origin,-14,90,0),v100,fine,PencilHolder\WObj:=PAPER;
MoveL Offs(Target_drawing_origin,-14,90,5),v100,fine,PencilHolder\WObj:=PAPER;
MoveL Offs(Target_drawing_origin,-14,108,5),v100,fine,PencilHolder\WObj:=PAPER;
MoveL Offs(Target_drawing_origin,-14,108,0),v100,fine,PencilHolder\WObj:=PAPER;
MoveL Offs(Target_drawing_origin,-14,168,0),v100,fine,PencilHolder\WObj:=PAPER;
MoveL Offs(Target_drawing_origin,-14,168,5),v100,fine,PencilHolder\WObj:=PAPER;
MoveL Offs(Target_drawing_origin,-14,189,5),v100,fine,PencilHolder\WObj:=PAPER;
MoveL Offs(Target_drawing_origin,-14,189,0),v100,fine,PencilHolder\WObj:=PAPER;
MoveL Offs(Target_drawing_origin,-14,240,0),v100,fine,PencilHolder\WObj:=PAPER;
MoveL Offs(Target_drawing_origin,-14,240,5),v100,fine,PencilHolder\WObj:=PAPER;
MoveL Offs(Target_drawing_origin,-15,0,5),v100,fine,PencilHolder\WObj:=PAPER;
MoveL Offs(Target_drawing_origin,-15,0,0),v100,fine,PencilHolder\WObj:=PAPER;
MoveL Offs(Target_drawing_origin,-15,39,0),v100,fine,PencilHolder\WObj:=PAPER;
MoveL Offs(Target_drawing_origin,-15,39,5),v100,fine,PencilHolder\WObj:=PAPER;
MoveL Offs(Target_drawing_origin,-15,60,5),v100,fine,PencilHolder\WObj:=PAPER;
MoveL Offs(Target_drawing_origin,-15,60,0),v100,fine,PencilHolder\WObj:=PAPER;
MoveL Offs(Target_drawing_origin,-15,90,0),v100,fine,PencilHolder\WObj:=PAPER;
MoveL Offs(Target_drawing_origin,-15,90,5),v100,fine,PencilHolder\WObj:=PAPER;
MoveL Offs(Target_drawing_origin,-15,108,5),v100,fine,PencilHolder\WObj:=PAPER;
MoveL Offs(Target_drawing_origin,-15,108,0),v100,fine,PencilHolder\WObj:=PAPER;
MoveL Offs(Target_drawing_origin,-15,168,0),v100,fine,PencilHolder\WObj:=PAPER;
MoveL Offs(Target_drawing_origin,-15,168,5),v100,fine,PencilHolder\WObj:=PAPER;
MoveL Offs(Target_drawing_origin,-15,189,5),v100,fine,PencilHolder\WObj:=PAPER;
MoveL Offs(Target_drawing_origin,-15,189,0),v100,fine,PencilHolder\WObj:=PAPER;
MoveL Offs(Target_drawing_origin,-15,240,0),v100,fine,PencilHolder\WObj:=PAPER;
MoveL Offs(Target_drawing_origin,-15,240,5),v100,fine,PencilHolder\WObj:=PAPER;
MoveL Offs(Target_drawing_origin,-16,0,5),v100,fine,PencilHolder\WObj:=PAPER;
MoveL Offs(Target_drawing_origin,-16,0,0),v100,fine,PencilHolder\WObj:=PAPER;
MoveL Offs(Target_drawing_origin,-16,39,0),v100,fine,PencilHolder\WObj:=PAPER;
MoveL Offs(Target_drawing_origin,-16,39,5),v100,fine,PencilHolder\WObj:=PAPER;
MoveL Offs(Target_drawing_origin,-16,60,5),v100,fine,PencilHolder\WObj:=PAPER;
MoveL Offs(Target_drawing_origin,-16,60,0),v100,fine,PencilHolder\WObj:=PAPER;
MoveL Offs(Target_drawing_origin,-16,90,0),v100,fine,PencilHolder\WObj:=PAPER;
MoveL Offs(Target_drawing_origin,-16,90,5),v100,fine,PencilHolder\WObj:=PAPER;
MoveL Offs(Target_drawing_origin,-16,102,5),v100,fine,PencilHolder\WObj:=PAPER;
MoveL Offs(Target_drawing_origin,-16,102,0),v100,fine,PencilHolder\WObj:=PAPER;
MoveL Offs(Target_drawing_origin,-16,168,0),v100,fine,PencilHolder\WObj:=PAPER;
MoveL Offs(Target_drawing_origin,-16,168,5),v100,fine,PencilHolder\WObj:=PAPER;
MoveL Offs(Target_drawing_origin,-16,189,5),v100,fine,PencilHolder\WObj:=PAPER;
MoveL Offs(Target_drawing_origin,-16,189,0),v100,fine,PencilHolder\WObj:=PAPER;
MoveL Offs(Target_drawing_origin,-16,213,0),v100,fine,PencilHolder\WObj:=PAPER;
MoveL Offs(Target_drawing_origin,-16,213,5),v100,fine,PencilHolder\WObj:=PAPER;
MoveL Offs(Target_drawing_origin,-16,219,5),v100,fine,PencilHolder\WObj:=PAPER;
MoveL Offs(Target_drawing_origin,-16,219,0),v100,fine,PencilHolder\WObj:=PAPER;
MoveL Offs(Target_drawing_origin,-16,240,0),v100,fine,PencilHolder\WObj:=PAPER;
MoveL Offs(Target_drawing_origin,-16,240,5),v100,fine,PencilHolder\WObj:=PAPER;
MoveL Offs(Target_drawing_origin,-17,0,5),v100,fine,PencilHolder\WObj:=PAPER;
MoveL Offs(Target_drawing_origin,-17,0,0),v100,fine,PencilHolder\WObj:=PAPER;
MoveL Offs(Target_drawing_origin,-17,39,0),v100,fine,PencilHolder\WObj:=PAPER;
MoveL Offs(Target_drawing_origin,-17,39,5),v100,fine,PencilHolder\WObj:=PAPER;
MoveL Offs(Target_drawing_origin,-17,60,5),v100,fine,PencilHolder\WObj:=PAPER;
MoveL Offs(Target_drawing_origin,-17,60,0),v100,fine,PencilHolder\WObj:=PAPER;
MoveL Offs(Target_drawing_origin,-17,90,0),v100,fine,PencilHolder\WObj:=PAPER;
MoveL Offs(Target_drawing_origin,-17,90,5),v100,fine,PencilHolder\WObj:=PAPER;
MoveL Offs(Target_drawing_origin,-17,102,5),v100,fine,PencilHolder\WObj:=PAPER;
MoveL Offs(Target_drawing_origin,-17,102,0),v100,fine,PencilHolder\WObj:=PAPER;
MoveL Offs(Target_drawing_origin,-17,171,0),v100,fine,PencilHolder\WObj:=PAPER;
MoveL Offs(Target_drawing_origin,-17,171,5),v100,fine,PencilHolder\WObj:=PAPER;
MoveL Offs(Target_drawing_origin,-17,189,5),v100,fine,PencilHolder\WObj:=PAPER;
MoveL Offs(Target_drawing_origin,-17,189,0),v100,fine,PencilHolder\WObj:=PAPER;
MoveL Offs(Target_drawing_origin,-17,213,0),v100,fine,PencilHolder\WObj:=PAPER;
MoveL Offs(Target_drawing_origin,-17,213,5),v100,fine,PencilHolder\WObj:=PAPER;
MoveL Offs(Target_drawing_origin,-17,219,5),v100,fine,PencilHolder\WObj:=PAPER;
MoveL Offs(Target_drawing_origin,-17,219,0),v100,fine,PencilHolder\WObj:=PAPER;
MoveL Offs(Target_drawing_origin,-17,240,0),v100,fine,PencilHolder\WObj:=PAPER;
MoveL Offs(Target_drawing_origin,-17,240,5),v100,fine,PencilHolder\WObj:=PAPER;
MoveL Offs(Target_drawing_origin,-18,6,5),v100,fine,PencilHolder\WObj:=PAPER;
MoveL Offs(Target_drawing_origin,-18,6,0),v100,fine,PencilHolder\WObj:=PAPER;
MoveL Offs(Target_drawing_origin,-18,36,0),v100,fine,PencilHolder\WObj:=PAPER;
MoveL Offs(Target_drawing_origin,-18,36,5),v100,fine,PencilHolder\WObj:=PAPER;
MoveL Offs(Target_drawing_origin,-18,60,5),v100,fine,PencilHolder\WObj:=PAPER;
MoveL Offs(Target_drawing_origin,-18,60,0),v100,fine,PencilHolder\WObj:=PAPER;
MoveL Offs(Target_drawing_origin,-18,90,0),v100,fine,PencilHolder\WObj:=PAPER;
MoveL Offs(Target_drawing_origin,-18,90,5),v100,fine,PencilHolder\WObj:=PAPER;
MoveL Offs(Target_drawing_origin,-18,102,5),v100,fine,PencilHolder\WObj:=PAPER;
MoveL Offs(Target_drawing_origin,-18,102,0),v100,fine,PencilHolder\WObj:=PAPER;
MoveL Offs(Target_drawing_origin,-18,174,0),v100,fine,PencilHolder\WObj:=PAPER;
MoveL Offs(Target_drawing_origin,-18,174,5),v100,fine,PencilHolder\WObj:=PAPER;
MoveL Offs(Target_drawing_origin,-18,189,5),v100,fine,PencilHolder\WObj:=PAPER;
MoveL Offs(Target_drawing_origin,-18,189,0),v100,fine,PencilHolder\WObj:=PAPER;
MoveL Offs(Target_drawing_origin,-18,213,0),v100,fine,PencilHolder\WObj:=PAPER;
MoveL Offs(Target_drawing_origin,-18,213,5),v100,fine,PencilHolder\WObj:=PAPER;
MoveL Offs(Target_drawing_origin,-18,219,5),v100,fine,PencilHolder\WObj:=PAPER;
MoveL Offs(Target_drawing_origin,-18,219,0),v100,fine,PencilHolder\WObj:=PAPER;
MoveL Offs(Target_drawing_origin,-18,246,0),v100,fine,PencilHolder\WObj:=PAPER;
MoveL Offs(Target_drawing_origin,-18,246,5),v100,fine,PencilHolder\WObj:=PAPER;
MoveL Offs(Target_drawing_origin,-19,6,5),v100,fine,PencilHolder\WObj:=PAPER;
MoveL Offs(Target_drawing_origin,-19,6,0),v100,fine,PencilHolder\WObj:=PAPER;
MoveL Offs(Target_drawing_origin,-19,33,0),v100,fine,PencilHolder\WObj:=PAPER;
MoveL Offs(Target_drawing_origin,-19,33,5),v100,fine,PencilHolder\WObj:=PAPER;
MoveL Offs(Target_drawing_origin,-19,54,5),v100,fine,PencilHolder\WObj:=PAPER;
MoveL Offs(Target_drawing_origin,-19,54,0),v100,fine,PencilHolder\WObj:=PAPER;
MoveL Offs(Target_drawing_origin,-19,90,0),v100,fine,PencilHolder\WObj:=PAPER;
MoveL Offs(Target_drawing_origin,-19,90,5),v100,fine,PencilHolder\WObj:=PAPER;
MoveL Offs(Target_drawing_origin,-19,102,5),v100,fine,PencilHolder\WObj:=PAPER;
MoveL Offs(Target_drawing_origin,-19,102,0),v100,fine,PencilHolder\WObj:=PAPER;
MoveL Offs(Target_drawing_origin,-19,177,0),v100,fine,PencilHolder\WObj:=PAPER;
MoveL Offs(Target_drawing_origin,-19,177,5),v100,fine,PencilHolder\WObj:=PAPER;
MoveL Offs(Target_drawing_origin,-19,189,5),v100,fine,PencilHolder\WObj:=PAPER;
MoveL Offs(Target_drawing_origin,-19,189,0),v100,fine,PencilHolder\WObj:=PAPER;
MoveL Offs(Target_drawing_origin,-19,213,0),v100,fine,PencilHolder\WObj:=PAPER;
MoveL Offs(Target_drawing_origin,-19,213,5),v100,fine,PencilHolder\WObj:=PAPER;
MoveL Offs(Target_drawing_origin,-19,219,5),v100,fine,PencilHolder\WObj:=PAPER;
MoveL Offs(Target_drawing_origin,-19,219,0),v100,fine,PencilHolder\WObj:=PAPER;
MoveL Offs(Target_drawing_origin,-19,246,0),v100,fine,PencilHolder\WObj:=PAPER;
MoveL Offs(Target_drawing_origin,-19,246,5),v100,fine,PencilHolder\WObj:=PAPER;
MoveL Offs(Target_drawing_origin,-20,54,5),v100,fine,PencilHolder\WObj:=PAPER;
MoveL Offs(Target_drawing_origin,-20,54,0),v100,fine,PencilHolder\WObj:=PAPER;
MoveL Offs(Target_drawing_origin,-20,90,0),v100,fine,PencilHolder\WObj:=PAPER;
MoveL Offs(Target_drawing_origin,-20,90,5),v100,fine,PencilHolder\WObj:=PAPER;
MoveL Offs(Target_drawing_origin,-20,102,5),v100,fine,PencilHolder\WObj:=PAPER;
MoveL Offs(Target_drawing_origin,-20,102,0),v100,fine,PencilHolder\WObj:=PAPER;
MoveL Offs(Target_drawing_origin,-20,126,0),v100,fine,PencilHolder\WObj:=PAPER;
MoveL Offs(Target_drawing_origin,-20,126,5),v100,fine,PencilHolder\WObj:=PAPER;
MoveL Offs(Target_drawing_origin,-20,144,5),v100,fine,PencilHolder\WObj:=PAPER;
MoveL Offs(Target_drawing_origin,-20,144,0),v100,fine,PencilHolder\WObj:=PAPER;
MoveL Offs(Target_drawing_origin,-20,180,0),v100,fine,PencilHolder\WObj:=PAPER;
MoveL Offs(Target_drawing_origin,-20,180,5),v100,fine,PencilHolder\WObj:=PAPER;
MoveL Offs(Target_drawing_origin,-20,189,5),v100,fine,PencilHolder\WObj:=PAPER;
MoveL Offs(Target_drawing_origin,-20,189,0),v100,fine,PencilHolder\WObj:=PAPER;
MoveL Offs(Target_drawing_origin,-20,213,0),v100,fine,PencilHolder\WObj:=PAPER;
MoveL Offs(Target_drawing_origin,-20,213,5),v100,fine,PencilHolder\WObj:=PAPER;
MoveL Offs(Target_drawing_origin,-20,219,5),v100,fine,PencilHolder\WObj:=PAPER;
MoveL Offs(Target_drawing_origin,-20,219,0),v100,fine,PencilHolder\WObj:=PAPER;
MoveL Offs(Target_drawing_origin,-20,246,0),v100,fine,PencilHolder\WObj:=PAPER;
MoveL Offs(Target_drawing_origin,-20,246,5),v100,fine,PencilHolder\WObj:=PAPER;
MoveL Offs(Target_drawing_origin,-21,54,5),v100,fine,PencilHolder\WObj:=PAPER;
MoveL Offs(Target_drawing_origin,-21,54,0),v100,fine,PencilHolder\WObj:=PAPER;
MoveL Offs(Target_drawing_origin,-21,84,0),v100,fine,PencilHolder\WObj:=PAPER;
MoveL Offs(Target_drawing_origin,-21,84,5),v100,fine,PencilHolder\WObj:=PAPER;
MoveL Offs(Target_drawing_origin,-21,96,5),v100,fine,PencilHolder\WObj:=PAPER;
MoveL Offs(Target_drawing_origin,-21,96,0),v100,fine,PencilHolder\WObj:=PAPER;
MoveL Offs(Target_drawing_origin,-21,126,0),v100,fine,PencilHolder\WObj:=PAPER;
MoveL Offs(Target_drawing_origin,-21,126,5),v100,fine,PencilHolder\WObj:=PAPER;
MoveL Offs(Target_drawing_origin,-21,150,5),v100,fine,PencilHolder\WObj:=PAPER;
MoveL Offs(Target_drawing_origin,-21,150,0),v100,fine,PencilHolder\WObj:=PAPER;
MoveL Offs(Target_drawing_origin,-21,180,0),v100,fine,PencilHolder\WObj:=PAPER;
MoveL Offs(Target_drawing_origin,-21,180,5),v100,fine,PencilHolder\WObj:=PAPER;
MoveL Offs(Target_drawing_origin,-21,189,5),v100,fine,PencilHolder\WObj:=PAPER;
MoveL Offs(Target_drawing_origin,-21,189,0),v100,fine,PencilHolder\WObj:=PAPER;
MoveL Offs(Target_drawing_origin,-21,207,0),v100,fine,PencilHolder\WObj:=PAPER;
MoveL Offs(Target_drawing_origin,-21,207,5),v100,fine,PencilHolder\WObj:=PAPER;
MoveL Offs(Target_drawing_origin,-21,219,5),v100,fine,PencilHolder\WObj:=PAPER;
MoveL Offs(Target_drawing_origin,-21,219,0),v100,fine,PencilHolder\WObj:=PAPER;
MoveL Offs(Target_drawing_origin,-21,246,0),v100,fine,PencilHolder\WObj:=PAPER;
MoveL Offs(Target_drawing_origin,-21,246,5),v100,fine,PencilHolder\WObj:=PAPER;
MoveL Offs(Target_drawing_origin,-22,54,5),v100,fine,PencilHolder\WObj:=PAPER;
MoveL Offs(Target_drawing_origin,-22,54,0),v100,fine,PencilHolder\WObj:=PAPER;
MoveL Offs(Target_drawing_origin,-22,84,0),v100,fine,PencilHolder\WObj:=PAPER;
MoveL Offs(Target_drawing_origin,-22,84,5),v100,fine,PencilHolder\WObj:=PAPER;
MoveL Offs(Target_drawing_origin,-22,96,5),v100,fine,PencilHolder\WObj:=PAPER;
MoveL Offs(Target_drawing_origin,-22,96,0),v100,fine,PencilHolder\WObj:=PAPER;
MoveL Offs(Target_drawing_origin,-22,126,0),v100,fine,PencilHolder\WObj:=PAPER;
MoveL Offs(Target_drawing_origin,-22,126,5),v100,fine,PencilHolder\WObj:=PAPER;
MoveL Offs(Target_drawing_origin,-22,150,5),v100,fine,PencilHolder\WObj:=PAPER;
MoveL Offs(Target_drawing_origin,-22,150,0),v100,fine,PencilHolder\WObj:=PAPER;
MoveL Offs(Target_drawing_origin,-22,180,0),v100,fine,PencilHolder\WObj:=PAPER;
MoveL Offs(Target_drawing_origin,-22,180,5),v100,fine,PencilHolder\WObj:=PAPER;
MoveL Offs(Target_drawing_origin,-22,189,5),v100,fine,PencilHolder\WObj:=PAPER;
MoveL Offs(Target_drawing_origin,-22,189,0),v100,fine,PencilHolder\WObj:=PAPER;
MoveL Offs(Target_drawing_origin,-22,207,0),v100,fine,PencilHolder\WObj:=PAPER;
MoveL Offs(Target_drawing_origin,-22,207,5),v100,fine,PencilHolder\WObj:=PAPER;
MoveL Offs(Target_drawing_origin,-22,219,5),v100,fine,PencilHolder\WObj:=PAPER;
MoveL Offs(Target_drawing_origin,-22,219,0),v100,fine,PencilHolder\WObj:=PAPER;
MoveL Offs(Target_drawing_origin,-22,246,0),v100,fine,PencilHolder\WObj:=PAPER;
MoveL Offs(Target_drawing_origin,-22,246,5),v100,fine,PencilHolder\WObj:=PAPER;
MoveL Offs(Target_drawing_origin,-23,48,5),v100,fine,PencilHolder\WObj:=PAPER;
MoveL Offs(Target_drawing_origin,-23,48,0),v100,fine,PencilHolder\WObj:=PAPER;
MoveL Offs(Target_drawing_origin,-23,78,0),v100,fine,PencilHolder\WObj:=PAPER;
MoveL Offs(Target_drawing_origin,-23,78,5),v100,fine,PencilHolder\WObj:=PAPER;
MoveL Offs(Target_drawing_origin,-23,96,5),v100,fine,PencilHolder\WObj:=PAPER;
MoveL Offs(Target_drawing_origin,-23,96,0),v100,fine,PencilHolder\WObj:=PAPER;
MoveL Offs(Target_drawing_origin,-23,120,0),v100,fine,PencilHolder\WObj:=PAPER;
MoveL Offs(Target_drawing_origin,-23,120,5),v100,fine,PencilHolder\WObj:=PAPER;
MoveL Offs(Target_drawing_origin,-23,156,5),v100,fine,PencilHolder\WObj:=PAPER;
MoveL Offs(Target_drawing_origin,-23,156,0),v100,fine,PencilHolder\WObj:=PAPER;
MoveL Offs(Target_drawing_origin,-23,180,0),v100,fine,PencilHolder\WObj:=PAPER;
MoveL Offs(Target_drawing_origin,-23,180,5),v100,fine,PencilHolder\WObj:=PAPER;
MoveL Offs(Target_drawing_origin,-23,189,5),v100,fine,PencilHolder\WObj:=PAPER;
MoveL Offs(Target_drawing_origin,-23,189,0),v100,fine,PencilHolder\WObj:=PAPER;
MoveL Offs(Target_drawing_origin,-23,213,0),v100,fine,PencilHolder\WObj:=PAPER;
MoveL Offs(Target_drawing_origin,-23,213,5),v100,fine,PencilHolder\WObj:=PAPER;
MoveL Offs(Target_drawing_origin,-23,225,5),v100,fine,PencilHolder\WObj:=PAPER;
MoveL Offs(Target_drawing_origin,-23,225,0),v100,fine,PencilHolder\WObj:=PAPER;
MoveL Offs(Target_drawing_origin,-23,246,0),v100,fine,PencilHolder\WObj:=PAPER;
MoveL Offs(Target_drawing_origin,-23,246,5),v100,fine,PencilHolder\WObj:=PAPER;
MoveL Offs(Target_drawing_origin,-24,48,5),v100,fine,PencilHolder\WObj:=PAPER;
MoveL Offs(Target_drawing_origin,-24,48,0),v100,fine,PencilHolder\WObj:=PAPER;
MoveL Offs(Target_drawing_origin,-24,78,0),v100,fine,PencilHolder\WObj:=PAPER;
MoveL Offs(Target_drawing_origin,-24,78,5),v100,fine,PencilHolder\WObj:=PAPER;
MoveL Offs(Target_drawing_origin,-24,96,5),v100,fine,PencilHolder\WObj:=PAPER;
MoveL Offs(Target_drawing_origin,-24,96,0),v100,fine,PencilHolder\WObj:=PAPER;
MoveL Offs(Target_drawing_origin,-24,120,0),v100,fine,PencilHolder\WObj:=PAPER;
MoveL Offs(Target_drawing_origin,-24,120,5),v100,fine,PencilHolder\WObj:=PAPER;
MoveL Offs(Target_drawing_origin,-24,156,5),v100,fine,PencilHolder\WObj:=PAPER;
MoveL Offs(Target_drawing_origin,-24,156,0),v100,fine,PencilHolder\WObj:=PAPER;
MoveL Offs(Target_drawing_origin,-24,180,0),v100,fine,PencilHolder\WObj:=PAPER;
MoveL Offs(Target_drawing_origin,-24,180,5),v100,fine,PencilHolder\WObj:=PAPER;
MoveL Offs(Target_drawing_origin,-24,189,5),v100,fine,PencilHolder\WObj:=PAPER;
MoveL Offs(Target_drawing_origin,-24,189,0),v100,fine,PencilHolder\WObj:=PAPER;
MoveL Offs(Target_drawing_origin,-24,213,0),v100,fine,PencilHolder\WObj:=PAPER;
MoveL Offs(Target_drawing_origin,-24,213,5),v100,fine,PencilHolder\WObj:=PAPER;
MoveL Offs(Target_drawing_origin,-24,225,5),v100,fine,PencilHolder\WObj:=PAPER;
MoveL Offs(Target_drawing_origin,-24,225,0),v100,fine,PencilHolder\WObj:=PAPER;
MoveL Offs(Target_drawing_origin,-24,246,0),v100,fine,PencilHolder\WObj:=PAPER;
MoveL Offs(Target_drawing_origin,-24,246,5),v100,fine,PencilHolder\WObj:=PAPER;
MoveL Offs(Target_drawing_origin,-25,42,5),v100,fine,PencilHolder\WObj:=PAPER;
MoveL Offs(Target_drawing_origin,-25,42,0),v100,fine,PencilHolder\WObj:=PAPER;
MoveL Offs(Target_drawing_origin,-25,72,0),v100,fine,PencilHolder\WObj:=PAPER;
MoveL Offs(Target_drawing_origin,-25,72,5),v100,fine,PencilHolder\WObj:=PAPER;
MoveL Offs(Target_drawing_origin,-25,96,5),v100,fine,PencilHolder\WObj:=PAPER;
MoveL Offs(Target_drawing_origin,-25,96,0),v100,fine,PencilHolder\WObj:=PAPER;
MoveL Offs(Target_drawing_origin,-25,120,0),v100,fine,PencilHolder\WObj:=PAPER;
MoveL Offs(Target_drawing_origin,-25,120,5),v100,fine,PencilHolder\WObj:=PAPER;
MoveL Offs(Target_drawing_origin,-25,156,5),v100,fine,PencilHolder\WObj:=PAPER;
MoveL Offs(Target_drawing_origin,-25,156,0),v100,fine,PencilHolder\WObj:=PAPER;
MoveL Offs(Target_drawing_origin,-25,180,0),v100,fine,PencilHolder\WObj:=PAPER;
MoveL Offs(Target_drawing_origin,-25,180,5),v100,fine,PencilHolder\WObj:=PAPER;
MoveL Offs(Target_drawing_origin,-25,189,5),v100,fine,PencilHolder\WObj:=PAPER;
MoveL Offs(Target_drawing_origin,-25,189,0),v100,fine,PencilHolder\WObj:=PAPER;
MoveL Offs(Target_drawing_origin,-25,213,0),v100,fine,PencilHolder\WObj:=PAPER;
MoveL Offs(Target_drawing_origin,-25,213,5),v100,fine,PencilHolder\WObj:=PAPER;
MoveL Offs(Target_drawing_origin,-25,225,5),v100,fine,PencilHolder\WObj:=PAPER;
MoveL Offs(Target_drawing_origin,-25,225,0),v100,fine,PencilHolder\WObj:=PAPER;
MoveL Offs(Target_drawing_origin,-25,246,0),v100,fine,PencilHolder\WObj:=PAPER;
MoveL Offs(Target_drawing_origin,-25,246,5),v100,fine,PencilHolder\WObj:=PAPER;
MoveL Offs(Target_drawing_origin,-26,42,5),v100,fine,PencilHolder\WObj:=PAPER;
MoveL Offs(Target_drawing_origin,-26,42,0),v100,fine,PencilHolder\WObj:=PAPER;
MoveL Offs(Target_drawing_origin,-26,72,0),v100,fine,PencilHolder\WObj:=PAPER;
MoveL Offs(Target_drawing_origin,-26,72,5),v100,fine,PencilHolder\WObj:=PAPER;
MoveL Offs(Target_drawing_origin,-26,96,5),v100,fine,PencilHolder\WObj:=PAPER;
MoveL Offs(Target_drawing_origin,-26,96,0),v100,fine,PencilHolder\WObj:=PAPER;
MoveL Offs(Target_drawing_origin,-26,120,0),v100,fine,PencilHolder\WObj:=PAPER;
MoveL Offs(Target_drawing_origin,-26,120,5),v100,fine,PencilHolder\WObj:=PAPER;
MoveL Offs(Target_drawing_origin,-26,156,5),v100,fine,PencilHolder\WObj:=PAPER;
MoveL Offs(Target_drawing_origin,-26,156,0),v100,fine,PencilHolder\WObj:=PAPER;
MoveL Offs(Target_drawing_origin,-26,180,0),v100,fine,PencilHolder\WObj:=PAPER;
MoveL Offs(Target_drawing_origin,-26,180,5),v100,fine,PencilHolder\WObj:=PAPER;
MoveL Offs(Target_drawing_origin,-26,189,5),v100,fine,PencilHolder\WObj:=PAPER;
MoveL Offs(Target_drawing_origin,-26,189,0),v100,fine,PencilHolder\WObj:=PAPER;
MoveL Offs(Target_drawing_origin,-26,213,0),v100,fine,PencilHolder\WObj:=PAPER;
MoveL Offs(Target_drawing_origin,-26,213,5),v100,fine,PencilHolder\WObj:=PAPER;
MoveL Offs(Target_drawing_origin,-26,225,5),v100,fine,PencilHolder\WObj:=PAPER;
MoveL Offs(Target_drawing_origin,-26,225,0),v100,fine,PencilHolder\WObj:=PAPER;
MoveL Offs(Target_drawing_origin,-26,246,0),v100,fine,PencilHolder\WObj:=PAPER;
MoveL Offs(Target_drawing_origin,-26,246,5),v100,fine,PencilHolder\WObj:=PAPER;
MoveL Offs(Target_drawing_origin,-27,42,5),v100,fine,PencilHolder\WObj:=PAPER;
MoveL Offs(Target_drawing_origin,-27,42,0),v100,fine,PencilHolder\WObj:=PAPER;
MoveL Offs(Target_drawing_origin,-27,72,0),v100,fine,PencilHolder\WObj:=PAPER;
MoveL Offs(Target_drawing_origin,-27,72,5),v100,fine,PencilHolder\WObj:=PAPER;
MoveL Offs(Target_drawing_origin,-27,90,5),v100,fine,PencilHolder\WObj:=PAPER;
MoveL Offs(Target_drawing_origin,-27,90,0),v100,fine,PencilHolder\WObj:=PAPER;
MoveL Offs(Target_drawing_origin,-27,120,0),v100,fine,PencilHolder\WObj:=PAPER;
MoveL Offs(Target_drawing_origin,-27,120,5),v100,fine,PencilHolder\WObj:=PAPER;
MoveL Offs(Target_drawing_origin,-27,156,5),v100,fine,PencilHolder\WObj:=PAPER;
MoveL Offs(Target_drawing_origin,-27,156,0),v100,fine,PencilHolder\WObj:=PAPER;
MoveL Offs(Target_drawing_origin,-27,180,0),v100,fine,PencilHolder\WObj:=PAPER;
MoveL Offs(Target_drawing_origin,-27,180,5),v100,fine,PencilHolder\WObj:=PAPER;
MoveL Offs(Target_drawing_origin,-27,189,5),v100,fine,PencilHolder\WObj:=PAPER;
MoveL Offs(Target_drawing_origin,-27,189,0),v100,fine,PencilHolder\WObj:=PAPER;
MoveL Offs(Target_drawing_origin,-27,213,0),v100,fine,PencilHolder\WObj:=PAPER;
MoveL Offs(Target_drawing_origin,-27,213,5),v100,fine,PencilHolder\WObj:=PAPER;
MoveL Offs(Target_drawing_origin,-27,225,5),v100,fine,PencilHolder\WObj:=PAPER;
MoveL Offs(Target_drawing_origin,-27,225,0),v100,fine,PencilHolder\WObj:=PAPER;
MoveL Offs(Target_drawing_origin,-27,246,0),v100,fine,PencilHolder\WObj:=PAPER;
MoveL Offs(Target_drawing_origin,-27,246,5),v100,fine,PencilHolder\WObj:=PAPER;
MoveL Offs(Target_drawing_origin,-28,42,5),v100,fine,PencilHolder\WObj:=PAPER;
MoveL Offs(Target_drawing_origin,-28,42,0),v100,fine,PencilHolder\WObj:=PAPER;
MoveL Offs(Target_drawing_origin,-28,72,0),v100,fine,PencilHolder\WObj:=PAPER;
MoveL Offs(Target_drawing_origin,-28,72,5),v100,fine,PencilHolder\WObj:=PAPER;
MoveL Offs(Target_drawing_origin,-28,87,5),v100,fine,PencilHolder\WObj:=PAPER;
MoveL Offs(Target_drawing_origin,-28,87,0),v100,fine,PencilHolder\WObj:=PAPER;
MoveL Offs(Target_drawing_origin,-28,120,0),v100,fine,PencilHolder\WObj:=PAPER;
MoveL Offs(Target_drawing_origin,-28,120,5),v100,fine,PencilHolder\WObj:=PAPER;
MoveL Offs(Target_drawing_origin,-28,156,5),v100,fine,PencilHolder\WObj:=PAPER;
MoveL Offs(Target_drawing_origin,-28,156,0),v100,fine,PencilHolder\WObj:=PAPER;
MoveL Offs(Target_drawing_origin,-28,180,0),v100,fine,PencilHolder\WObj:=PAPER;
MoveL Offs(Target_drawing_origin,-28,180,5),v100,fine,PencilHolder\WObj:=PAPER;
MoveL Offs(Target_drawing_origin,-28,189,5),v100,fine,PencilHolder\WObj:=PAPER;
MoveL Offs(Target_drawing_origin,-28,189,0),v100,fine,PencilHolder\WObj:=PAPER;
MoveL Offs(Target_drawing_origin,-28,213,0),v100,fine,PencilHolder\WObj:=PAPER;
MoveL Offs(Target_drawing_origin,-28,213,5),v100,fine,PencilHolder\WObj:=PAPER;
MoveL Offs(Target_drawing_origin,-28,225,5),v100,fine,PencilHolder\WObj:=PAPER;
MoveL Offs(Target_drawing_origin,-28,225,0),v100,fine,PencilHolder\WObj:=PAPER;
MoveL Offs(Target_drawing_origin,-28,246,0),v100,fine,PencilHolder\WObj:=PAPER;
MoveL Offs(Target_drawing_origin,-28,246,5),v100,fine,PencilHolder\WObj:=PAPER;
MoveL Offs(Target_drawing_origin,-29,42,5),v100,fine,PencilHolder\WObj:=PAPER;
MoveL Offs(Target_drawing_origin,-29,42,0),v100,fine,PencilHolder\WObj:=PAPER;
MoveL Offs(Target_drawing_origin,-29,72,0),v100,fine,PencilHolder\WObj:=PAPER;
MoveL Offs(Target_drawing_origin,-29,72,5),v100,fine,PencilHolder\WObj:=PAPER;
MoveL Offs(Target_drawing_origin,-29,87,5),v100,fine,PencilHolder\WObj:=PAPER;
MoveL Offs(Target_drawing_origin,-29,87,0),v100,fine,PencilHolder\WObj:=PAPER;
MoveL Offs(Target_drawing_origin,-29,117,0),v100,fine,PencilHolder\WObj:=PAPER;
MoveL Offs(Target_drawing_origin,-29,117,5),v100,fine,PencilHolder\WObj:=PAPER;
MoveL Offs(Target_drawing_origin,-29,156,5),v100,fine,PencilHolder\WObj:=PAPER;
MoveL Offs(Target_drawing_origin,-29,156,0),v100,fine,PencilHolder\WObj:=PAPER;
MoveL Offs(Target_drawing_origin,-29,180,0),v100,fine,PencilHolder\WObj:=PAPER;
MoveL Offs(Target_drawing_origin,-29,180,5),v100,fine,PencilHolder\WObj:=PAPER;
MoveL Offs(Target_drawing_origin,-29,192,5),v100,fine,PencilHolder\WObj:=PAPER;
MoveL Offs(Target_drawing_origin,-29,192,0),v100,fine,PencilHolder\WObj:=PAPER;
MoveL Offs(Target_drawing_origin,-29,213,0),v100,fine,PencilHolder\WObj:=PAPER;
MoveL Offs(Target_drawing_origin,-29,213,5),v100,fine,PencilHolder\WObj:=PAPER;
MoveL Offs(Target_drawing_origin,-29,225,5),v100,fine,PencilHolder\WObj:=PAPER;
MoveL Offs(Target_drawing_origin,-29,225,0),v100,fine,PencilHolder\WObj:=PAPER;
MoveL Offs(Target_drawing_origin,-29,246,0),v100,fine,PencilHolder\WObj:=PAPER;
MoveL Offs(Target_drawing_origin,-29,246,5),v100,fine,PencilHolder\WObj:=PAPER;
MoveL Offs(Target_drawing_origin,-30,42,5),v100,fine,PencilHolder\WObj:=PAPER;
MoveL Offs(Target_drawing_origin,-30,42,0),v100,fine,PencilHolder\WObj:=PAPER;
MoveL Offs(Target_drawing_origin,-30,117,0),v100,fine,PencilHolder\WObj:=PAPER;
MoveL Offs(Target_drawing_origin,-30,117,5),v100,fine,PencilHolder\WObj:=PAPER;
MoveL Offs(Target_drawing_origin,-30,156,5),v100,fine,PencilHolder\WObj:=PAPER;
MoveL Offs(Target_drawing_origin,-30,156,0),v100,fine,PencilHolder\WObj:=PAPER;
MoveL Offs(Target_drawing_origin,-30,180,0),v100,fine,PencilHolder\WObj:=PAPER;
MoveL Offs(Target_drawing_origin,-30,180,5),v100,fine,PencilHolder\WObj:=PAPER;
MoveL Offs(Target_drawing_origin,-30,192,5),v100,fine,PencilHolder\WObj:=PAPER;
MoveL Offs(Target_drawing_origin,-30,192,0),v100,fine,PencilHolder\WObj:=PAPER;
MoveL Offs(Target_drawing_origin,-30,213,0),v100,fine,PencilHolder\WObj:=PAPER;
MoveL Offs(Target_drawing_origin,-30,213,5),v100,fine,PencilHolder\WObj:=PAPER;
MoveL Offs(Target_drawing_origin,-30,225,5),v100,fine,PencilHolder\WObj:=PAPER;
MoveL Offs(Target_drawing_origin,-30,225,0),v100,fine,PencilHolder\WObj:=PAPER;
MoveL Offs(Target_drawing_origin,-30,246,0),v100,fine,PencilHolder\WObj:=PAPER;
MoveL Offs(Target_drawing_origin,-30,246,5),v100,fine,PencilHolder\WObj:=PAPER;
MoveL Offs(Target_drawing_origin,-31,42,5),v100,fine,PencilHolder\WObj:=PAPER;
MoveL Offs(Target_drawing_origin,-31,42,0),v100,fine,PencilHolder\WObj:=PAPER;
MoveL Offs(Target_drawing_origin,-31,117,0),v100,fine,PencilHolder\WObj:=PAPER;
MoveL Offs(Target_drawing_origin,-31,117,5),v100,fine,PencilHolder\WObj:=PAPER;
MoveL Offs(Target_drawing_origin,-31,156,5),v100,fine,PencilHolder\WObj:=PAPER;
MoveL Offs(Target_drawing_origin,-31,156,0),v100,fine,PencilHolder\WObj:=PAPER;
MoveL Offs(Target_drawing_origin,-31,180,0),v100,fine,PencilHolder\WObj:=PAPER;
MoveL Offs(Target_drawing_origin,-31,180,5),v100,fine,PencilHolder\WObj:=PAPER;
MoveL Offs(Target_drawing_origin,-31,192,5),v100,fine,PencilHolder\WObj:=PAPER;
MoveL Offs(Target_drawing_origin,-31,192,0),v100,fine,PencilHolder\WObj:=PAPER;
MoveL Offs(Target_drawing_origin,-31,213,0),v100,fine,PencilHolder\WObj:=PAPER;
MoveL Offs(Target_drawing_origin,-31,213,5),v100,fine,PencilHolder\WObj:=PAPER;
MoveL Offs(Target_drawing_origin,-31,225,5),v100,fine,PencilHolder\WObj:=PAPER;
MoveL Offs(Target_drawing_origin,-31,225,0),v100,fine,PencilHolder\WObj:=PAPER;
MoveL Offs(Target_drawing_origin,-31,246,0),v100,fine,PencilHolder\WObj:=PAPER;
MoveL Offs(Target_drawing_origin,-31,246,5),v100,fine,PencilHolder\WObj:=PAPER;
MoveL Offs(Target_drawing_origin,-32,48,5),v100,fine,PencilHolder\WObj:=PAPER;
MoveL Offs(Target_drawing_origin,-32,48,0),v100,fine,PencilHolder\WObj:=PAPER;
MoveL Offs(Target_drawing_origin,-32,111,0),v100,fine,PencilHolder\WObj:=PAPER;
MoveL Offs(Target_drawing_origin,-32,111,5),v100,fine,PencilHolder\WObj:=PAPER;
MoveL Offs(Target_drawing_origin,-32,156,5),v100,fine,PencilHolder\WObj:=PAPER;
MoveL Offs(Target_drawing_origin,-32,156,0),v100,fine,PencilHolder\WObj:=PAPER;
MoveL Offs(Target_drawing_origin,-32,180,0),v100,fine,PencilHolder\WObj:=PAPER;
MoveL Offs(Target_drawing_origin,-32,180,5),v100,fine,PencilHolder\WObj:=PAPER;
MoveL Offs(Target_drawing_origin,-32,192,5),v100,fine,PencilHolder\WObj:=PAPER;
MoveL Offs(Target_drawing_origin,-32,192,0),v100,fine,PencilHolder\WObj:=PAPER;
MoveL Offs(Target_drawing_origin,-32,213,0),v100,fine,PencilHolder\WObj:=PAPER;
MoveL Offs(Target_drawing_origin,-32,213,5),v100,fine,PencilHolder\WObj:=PAPER;
MoveL Offs(Target_drawing_origin,-32,225,5),v100,fine,PencilHolder\WObj:=PAPER;
MoveL Offs(Target_drawing_origin,-32,225,0),v100,fine,PencilHolder\WObj:=PAPER;
MoveL Offs(Target_drawing_origin,-32,246,0),v100,fine,PencilHolder\WObj:=PAPER;
MoveL Offs(Target_drawing_origin,-32,246,5),v100,fine,PencilHolder\WObj:=PAPER;
MoveL Offs(Target_drawing_origin,-33,48,5),v100,fine,PencilHolder\WObj:=PAPER;
MoveL Offs(Target_drawing_origin,-33,48,0),v100,fine,PencilHolder\WObj:=PAPER;
MoveL Offs(Target_drawing_origin,-33,111,0),v100,fine,PencilHolder\WObj:=PAPER;
MoveL Offs(Target_drawing_origin,-33,111,5),v100,fine,PencilHolder\WObj:=PAPER;
MoveL Offs(Target_drawing_origin,-33,156,5),v100,fine,PencilHolder\WObj:=PAPER;
MoveL Offs(Target_drawing_origin,-33,156,0),v100,fine,PencilHolder\WObj:=PAPER;
MoveL Offs(Target_drawing_origin,-33,180,0),v100,fine,PencilHolder\WObj:=PAPER;
MoveL Offs(Target_drawing_origin,-33,180,5),v100,fine,PencilHolder\WObj:=PAPER;
MoveL Offs(Target_drawing_origin,-33,192,5),v100,fine,PencilHolder\WObj:=PAPER;
MoveL Offs(Target_drawing_origin,-33,192,0),v100,fine,PencilHolder\WObj:=PAPER;
MoveL Offs(Target_drawing_origin,-33,213,0),v100,fine,PencilHolder\WObj:=PAPER;
MoveL Offs(Target_drawing_origin,-33,213,5),v100,fine,PencilHolder\WObj:=PAPER;
MoveL Offs(Target_drawing_origin,-33,225,5),v100,fine,PencilHolder\WObj:=PAPER;
MoveL Offs(Target_drawing_origin,-33,225,0),v100,fine,PencilHolder\WObj:=PAPER;
MoveL Offs(Target_drawing_origin,-33,246,0),v100,fine,PencilHolder\WObj:=PAPER;
MoveL Offs(Target_drawing_origin,-33,246,5),v100,fine,PencilHolder\WObj:=PAPER;
MoveL Offs(Target_drawing_origin,-34,54,5),v100,fine,PencilHolder\WObj:=PAPER;
MoveL Offs(Target_drawing_origin,-34,54,0),v100,fine,PencilHolder\WObj:=PAPER;
MoveL Offs(Target_drawing_origin,-34,111,0),v100,fine,PencilHolder\WObj:=PAPER;
MoveL Offs(Target_drawing_origin,-34,111,5),v100,fine,PencilHolder\WObj:=PAPER;
MoveL Offs(Target_drawing_origin,-34,156,5),v100,fine,PencilHolder\WObj:=PAPER;
MoveL Offs(Target_drawing_origin,-34,156,0),v100,fine,PencilHolder\WObj:=PAPER;
MoveL Offs(Target_drawing_origin,-34,180,0),v100,fine,PencilHolder\WObj:=PAPER;
MoveL Offs(Target_drawing_origin,-34,180,5),v100,fine,PencilHolder\WObj:=PAPER;
MoveL Offs(Target_drawing_origin,-34,189,5),v100,fine,PencilHolder\WObj:=PAPER;
MoveL Offs(Target_drawing_origin,-34,189,0),v100,fine,PencilHolder\WObj:=PAPER;
MoveL Offs(Target_drawing_origin,-34,213,0),v100,fine,PencilHolder\WObj:=PAPER;
MoveL Offs(Target_drawing_origin,-34,213,5),v100,fine,PencilHolder\WObj:=PAPER;
MoveL Offs(Target_drawing_origin,-34,225,5),v100,fine,PencilHolder\WObj:=PAPER;
MoveL Offs(Target_drawing_origin,-34,225,0),v100,fine,PencilHolder\WObj:=PAPER;
MoveL Offs(Target_drawing_origin,-34,246,0),v100,fine,PencilHolder\WObj:=PAPER;
MoveL Offs(Target_drawing_origin,-34,246,5),v100,fine,PencilHolder\WObj:=PAPER;
MoveL Offs(Target_drawing_origin,-35,54,5),v100,fine,PencilHolder\WObj:=PAPER;
MoveL Offs(Target_drawing_origin,-35,54,0),v100,fine,PencilHolder\WObj:=PAPER;
MoveL Offs(Target_drawing_origin,-35,108,0),v100,fine,PencilHolder\WObj:=PAPER;
MoveL Offs(Target_drawing_origin,-35,108,5),v100,fine,PencilHolder\WObj:=PAPER;
MoveL Offs(Target_drawing_origin,-35,156,5),v100,fine,PencilHolder\WObj:=PAPER;
MoveL Offs(Target_drawing_origin,-35,156,0),v100,fine,PencilHolder\WObj:=PAPER;
MoveL Offs(Target_drawing_origin,-35,180,0),v100,fine,PencilHolder\WObj:=PAPER;
MoveL Offs(Target_drawing_origin,-35,180,5),v100,fine,PencilHolder\WObj:=PAPER;
MoveL Offs(Target_drawing_origin,-35,189,5),v100,fine,PencilHolder\WObj:=PAPER;
MoveL Offs(Target_drawing_origin,-35,189,0),v100,fine,PencilHolder\WObj:=PAPER;
MoveL Offs(Target_drawing_origin,-35,213,0),v100,fine,PencilHolder\WObj:=PAPER;
MoveL Offs(Target_drawing_origin,-35,213,5),v100,fine,PencilHolder\WObj:=PAPER;
MoveL Offs(Target_drawing_origin,-35,225,5),v100,fine,PencilHolder\WObj:=PAPER;
MoveL Offs(Target_drawing_origin,-35,225,0),v100,fine,PencilHolder\WObj:=PAPER;
MoveL Offs(Target_drawing_origin,-35,246,0),v100,fine,PencilHolder\WObj:=PAPER;
MoveL Offs(Target_drawing_origin,-35,246,5),v100,fine,PencilHolder\WObj:=PAPER;
MoveL Offs(Target_drawing_origin,-36,60,5),v100,fine,PencilHolder\WObj:=PAPER;
MoveL Offs(Target_drawing_origin,-36,60,0),v100,fine,PencilHolder\WObj:=PAPER;
MoveL Offs(Target_drawing_origin,-36,105,0),v100,fine,PencilHolder\WObj:=PAPER;
MoveL Offs(Target_drawing_origin,-36,105,5),v100,fine,PencilHolder\WObj:=PAPER;
MoveL Offs(Target_drawing_origin,-36,150,5),v100,fine,PencilHolder\WObj:=PAPER;
MoveL Offs(Target_drawing_origin,-36,150,0),v100,fine,PencilHolder\WObj:=PAPER;
MoveL Offs(Target_drawing_origin,-36,180,0),v100,fine,PencilHolder\WObj:=PAPER;
MoveL Offs(Target_drawing_origin,-36,180,5),v100,fine,PencilHolder\WObj:=PAPER;
MoveL Offs(Target_drawing_origin,-36,189,5),v100,fine,PencilHolder\WObj:=PAPER;
MoveL Offs(Target_drawing_origin,-36,189,0),v100,fine,PencilHolder\WObj:=PAPER;
MoveL Offs(Target_drawing_origin,-36,213,0),v100,fine,PencilHolder\WObj:=PAPER;
MoveL Offs(Target_drawing_origin,-36,213,5),v100,fine,PencilHolder\WObj:=PAPER;
MoveL Offs(Target_drawing_origin,-36,225,5),v100,fine,PencilHolder\WObj:=PAPER;
MoveL Offs(Target_drawing_origin,-36,225,0),v100,fine,PencilHolder\WObj:=PAPER;
MoveL Offs(Target_drawing_origin,-36,246,0),v100,fine,PencilHolder\WObj:=PAPER;
MoveL Offs(Target_drawing_origin,-36,246,5),v100,fine,PencilHolder\WObj:=PAPER;
MoveL Offs(Target_drawing_origin,-37,60,5),v100,fine,PencilHolder\WObj:=PAPER;
MoveL Offs(Target_drawing_origin,-37,60,0),v100,fine,PencilHolder\WObj:=PAPER;
MoveL Offs(Target_drawing_origin,-37,102,0),v100,fine,PencilHolder\WObj:=PAPER;
MoveL Offs(Target_drawing_origin,-37,102,5),v100,fine,PencilHolder\WObj:=PAPER;
MoveL Offs(Target_drawing_origin,-37,150,5),v100,fine,PencilHolder\WObj:=PAPER;
MoveL Offs(Target_drawing_origin,-37,150,0),v100,fine,PencilHolder\WObj:=PAPER;
MoveL Offs(Target_drawing_origin,-37,180,0),v100,fine,PencilHolder\WObj:=PAPER;
MoveL Offs(Target_drawing_origin,-37,180,5),v100,fine,PencilHolder\WObj:=PAPER;
MoveL Offs(Target_drawing_origin,-37,189,5),v100,fine,PencilHolder\WObj:=PAPER;
MoveL Offs(Target_drawing_origin,-37,189,0),v100,fine,PencilHolder\WObj:=PAPER;
MoveL Offs(Target_drawing_origin,-37,213,0),v100,fine,PencilHolder\WObj:=PAPER;
MoveL Offs(Target_drawing_origin,-37,213,5),v100,fine,PencilHolder\WObj:=PAPER;
MoveL Offs(Target_drawing_origin,-37,225,5),v100,fine,PencilHolder\WObj:=PAPER;
MoveL Offs(Target_drawing_origin,-37,225,0),v100,fine,PencilHolder\WObj:=PAPER;
MoveL Offs(Target_drawing_origin,-37,246,0),v100,fine,PencilHolder\WObj:=PAPER;
MoveL Offs(Target_drawing_origin,-37,246,5),v100,fine,PencilHolder\WObj:=PAPER;
MoveL Offs(Target_drawing_origin,-38,63,5),v100,fine,PencilHolder\WObj:=PAPER;
MoveL Offs(Target_drawing_origin,-38,63,0),v100,fine,PencilHolder\WObj:=PAPER;
MoveL Offs(Target_drawing_origin,-38,99,0),v100,fine,PencilHolder\WObj:=PAPER;
MoveL Offs(Target_drawing_origin,-38,99,5),v100,fine,PencilHolder\WObj:=PAPER;
MoveL Offs(Target_drawing_origin,-38,150,5),v100,fine,PencilHolder\WObj:=PAPER;
MoveL Offs(Target_drawing_origin,-38,150,0),v100,fine,PencilHolder\WObj:=PAPER;
MoveL Offs(Target_drawing_origin,-38,180,0),v100,fine,PencilHolder\WObj:=PAPER;
MoveL Offs(Target_drawing_origin,-38,180,5),v100,fine,PencilHolder\WObj:=PAPER;
MoveL Offs(Target_drawing_origin,-38,189,5),v100,fine,PencilHolder\WObj:=PAPER;
MoveL Offs(Target_drawing_origin,-38,189,0),v100,fine,PencilHolder\WObj:=PAPER;
MoveL Offs(Target_drawing_origin,-38,213,0),v100,fine,PencilHolder\WObj:=PAPER;
MoveL Offs(Target_drawing_origin,-38,213,5),v100,fine,PencilHolder\WObj:=PAPER;
MoveL Offs(Target_drawing_origin,-38,225,5),v100,fine,PencilHolder\WObj:=PAPER;
MoveL Offs(Target_drawing_origin,-38,225,0),v100,fine,PencilHolder\WObj:=PAPER;
MoveL Offs(Target_drawing_origin,-38,246,0),v100,fine,PencilHolder\WObj:=PAPER;
MoveL Offs(Target_drawing_origin,-38,246,5),v100,fine,PencilHolder\WObj:=PAPER;
MoveL Offs(Target_drawing_origin,-39,69,5),v100,fine,PencilHolder\WObj:=PAPER;
MoveL Offs(Target_drawing_origin,-39,69,0),v100,fine,PencilHolder\WObj:=PAPER;
MoveL Offs(Target_drawing_origin,-39,93,0),v100,fine,PencilHolder\WObj:=PAPER;
MoveL Offs(Target_drawing_origin,-39,93,5),v100,fine,PencilHolder\WObj:=PAPER;
MoveL Offs(Target_drawing_origin,-39,150,5),v100,fine,PencilHolder\WObj:=PAPER;
MoveL Offs(Target_drawing_origin,-39,150,0),v100,fine,PencilHolder\WObj:=PAPER;
MoveL Offs(Target_drawing_origin,-39,174,0),v100,fine,PencilHolder\WObj:=PAPER;
MoveL Offs(Target_drawing_origin,-39,174,5),v100,fine,PencilHolder\WObj:=PAPER;
MoveL Offs(Target_drawing_origin,-39,183,5),v100,fine,PencilHolder\WObj:=PAPER;
MoveL Offs(Target_drawing_origin,-39,183,0),v100,fine,PencilHolder\WObj:=PAPER;
MoveL Offs(Target_drawing_origin,-39,213,0),v100,fine,PencilHolder\WObj:=PAPER;
MoveL Offs(Target_drawing_origin,-39,213,5),v100,fine,PencilHolder\WObj:=PAPER;
MoveL Offs(Target_drawing_origin,-39,225,5),v100,fine,PencilHolder\WObj:=PAPER;
MoveL Offs(Target_drawing_origin,-39,225,0),v100,fine,PencilHolder\WObj:=PAPER;
MoveL Offs(Target_drawing_origin,-39,246,0),v100,fine,PencilHolder\WObj:=PAPER;
MoveL Offs(Target_drawing_origin,-39,246,5),v100,fine,PencilHolder\WObj:=PAPER;
MoveL Offs(Target_drawing_origin,-40,69,5),v100,fine,PencilHolder\WObj:=PAPER;
MoveL Offs(Target_drawing_origin,-40,69,0),v100,fine,PencilHolder\WObj:=PAPER;
MoveL Offs(Target_drawing_origin,-40,93,0),v100,fine,PencilHolder\WObj:=PAPER;
MoveL Offs(Target_drawing_origin,-40,93,5),v100,fine,PencilHolder\WObj:=PAPER;
MoveL Offs(Target_drawing_origin,-40,150,5),v100,fine,PencilHolder\WObj:=PAPER;
MoveL Offs(Target_drawing_origin,-40,150,0),v100,fine,PencilHolder\WObj:=PAPER;
MoveL Offs(Target_drawing_origin,-40,174,0),v100,fine,PencilHolder\WObj:=PAPER;
MoveL Offs(Target_drawing_origin,-40,174,5),v100,fine,PencilHolder\WObj:=PAPER;
MoveL Offs(Target_drawing_origin,-40,183,5),v100,fine,PencilHolder\WObj:=PAPER;
MoveL Offs(Target_drawing_origin,-40,183,0),v100,fine,PencilHolder\WObj:=PAPER;
MoveL Offs(Target_drawing_origin,-40,213,0),v100,fine,PencilHolder\WObj:=PAPER;
MoveL Offs(Target_drawing_origin,-40,213,5),v100,fine,PencilHolder\WObj:=PAPER;
MoveL Offs(Target_drawing_origin,-40,225,5),v100,fine,PencilHolder\WObj:=PAPER;
MoveL Offs(Target_drawing_origin,-40,225,0),v100,fine,PencilHolder\WObj:=PAPER;
MoveL Offs(Target_drawing_origin,-40,246,0),v100,fine,PencilHolder\WObj:=PAPER;
MoveL Offs(Target_drawing_origin,-40,246,5),v100,fine,PencilHolder\WObj:=PAPER;
MoveL Offs(Target_drawing_origin,-41,150,5),v100,fine,PencilHolder\WObj:=PAPER;
MoveL Offs(Target_drawing_origin,-41,150,0),v100,fine,PencilHolder\WObj:=PAPER;
MoveL Offs(Target_drawing_origin,-41,168,0),v100,fine,PencilHolder\WObj:=PAPER;
MoveL Offs(Target_drawing_origin,-41,168,5),v100,fine,PencilHolder\WObj:=PAPER;
MoveL Offs(Target_drawing_origin,-41,183,5),v100,fine,PencilHolder\WObj:=PAPER;
MoveL Offs(Target_drawing_origin,-41,183,0),v100,fine,PencilHolder\WObj:=PAPER;
MoveL Offs(Target_drawing_origin,-41,207,0),v100,fine,PencilHolder\WObj:=PAPER;
MoveL Offs(Target_drawing_origin,-41,207,5),v100,fine,PencilHolder\WObj:=PAPER;
MoveL Offs(Target_drawing_origin,-41,225,5),v100,fine,PencilHolder\WObj:=PAPER;
MoveL Offs(Target_drawing_origin,-41,225,0),v100,fine,PencilHolder\WObj:=PAPER;
MoveL Offs(Target_drawing_origin,-41,249,0),v100,fine,PencilHolder\WObj:=PAPER;
MoveL Offs(Target_drawing_origin,-41,249,5),v100,fine,PencilHolder\WObj:=PAPER;
MoveL Offs(Target_drawing_origin,-42,150,5),v100,fine,PencilHolder\WObj:=PAPER;
MoveL Offs(Target_drawing_origin,-42,150,0),v100,fine,PencilHolder\WObj:=PAPER;
MoveL Offs(Target_drawing_origin,-42,171,0),v100,fine,PencilHolder\WObj:=PAPER;
MoveL Offs(Target_drawing_origin,-42,171,5),v100,fine,PencilHolder\WObj:=PAPER;
MoveL Offs(Target_drawing_origin,-42,183,5),v100,fine,PencilHolder\WObj:=PAPER;
MoveL Offs(Target_drawing_origin,-42,183,0),v100,fine,PencilHolder\WObj:=PAPER;
MoveL Offs(Target_drawing_origin,-42,207,0),v100,fine,PencilHolder\WObj:=PAPER;
MoveL Offs(Target_drawing_origin,-42,207,5),v100,fine,PencilHolder\WObj:=PAPER;
MoveL Offs(Target_drawing_origin,-42,225,5),v100,fine,PencilHolder\WObj:=PAPER;
MoveL Offs(Target_drawing_origin,-42,225,0),v100,fine,PencilHolder\WObj:=PAPER;
MoveL Offs(Target_drawing_origin,-42,249,0),v100,fine,PencilHolder\WObj:=PAPER;
MoveL Offs(Target_drawing_origin,-42,249,5),v100,fine,PencilHolder\WObj:=PAPER;
MoveL Offs(Target_drawing_origin,-43,150,5),v100,fine,PencilHolder\WObj:=PAPER;
MoveL Offs(Target_drawing_origin,-43,150,0),v100,fine,PencilHolder\WObj:=PAPER;
MoveL Offs(Target_drawing_origin,-43,207,0),v100,fine,PencilHolder\WObj:=PAPER;
MoveL Offs(Target_drawing_origin,-43,207,5),v100,fine,PencilHolder\WObj:=PAPER;
MoveL Offs(Target_drawing_origin,-43,225,5),v100,fine,PencilHolder\WObj:=PAPER;
MoveL Offs(Target_drawing_origin,-43,225,0),v100,fine,PencilHolder\WObj:=PAPER;
MoveL Offs(Target_drawing_origin,-43,249,0),v100,fine,PencilHolder\WObj:=PAPER;
MoveL Offs(Target_drawing_origin,-43,249,5),v100,fine,PencilHolder\WObj:=PAPER;
MoveL Offs(Target_drawing_origin,-44,150,5),v100,fine,PencilHolder\WObj:=PAPER;
MoveL Offs(Target_drawing_origin,-44,150,0),v100,fine,PencilHolder\WObj:=PAPER;
MoveL Offs(Target_drawing_origin,-44,207,0),v100,fine,PencilHolder\WObj:=PAPER;
MoveL Offs(Target_drawing_origin,-44,207,5),v100,fine,PencilHolder\WObj:=PAPER;
MoveL Offs(Target_drawing_origin,-44,225,5),v100,fine,PencilHolder\WObj:=PAPER;
MoveL Offs(Target_drawing_origin,-44,225,0),v100,fine,PencilHolder\WObj:=PAPER;
MoveL Offs(Target_drawing_origin,-44,249,0),v100,fine,PencilHolder\WObj:=PAPER;
MoveL Offs(Target_drawing_origin,-44,249,5),v100,fine,PencilHolder\WObj:=PAPER;
MoveL Offs(Target_drawing_origin,-45,150,5),v100,fine,PencilHolder\WObj:=PAPER;
MoveL Offs(Target_drawing_origin,-45,150,0),v100,fine,PencilHolder\WObj:=PAPER;
MoveL Offs(Target_drawing_origin,-45,207,0),v100,fine,PencilHolder\WObj:=PAPER;
MoveL Offs(Target_drawing_origin,-45,207,5),v100,fine,PencilHolder\WObj:=PAPER;
MoveL Offs(Target_drawing_origin,-45,225,5),v100,fine,PencilHolder\WObj:=PAPER;
MoveL Offs(Target_drawing_origin,-45,225,0),v100,fine,PencilHolder\WObj:=PAPER;
MoveL Offs(Target_drawing_origin,-45,249,0),v100,fine,PencilHolder\WObj:=PAPER;
MoveL Offs(Target_drawing_origin,-45,249,5),v100,fine,PencilHolder\WObj:=PAPER;
MoveL Offs(Target_drawing_origin,-46,150,5),v100,fine,PencilHolder\WObj:=PAPER;
MoveL Offs(Target_drawing_origin,-46,150,0),v100,fine,PencilHolder\WObj:=PAPER;
MoveL Offs(Target_drawing_origin,-46,201,0),v100,fine,PencilHolder\WObj:=PAPER;
MoveL Offs(Target_drawing_origin,-46,201,5),v100,fine,PencilHolder\WObj:=PAPER;
MoveL Offs(Target_drawing_origin,-46,231,5),v100,fine,PencilHolder\WObj:=PAPER;
MoveL Offs(Target_drawing_origin,-46,231,0),v100,fine,PencilHolder\WObj:=PAPER;
MoveL Offs(Target_drawing_origin,-46,249,0),v100,fine,PencilHolder\WObj:=PAPER;
MoveL Offs(Target_drawing_origin,-46,249,5),v100,fine,PencilHolder\WObj:=PAPER;
MoveL Offs(Target_drawing_origin,-47,150,5),v100,fine,PencilHolder\WObj:=PAPER;
MoveL Offs(Target_drawing_origin,-47,150,0),v100,fine,PencilHolder\WObj:=PAPER;
MoveL Offs(Target_drawing_origin,-47,201,0),v100,fine,PencilHolder\WObj:=PAPER;
MoveL Offs(Target_drawing_origin,-47,201,5),v100,fine,PencilHolder\WObj:=PAPER;
MoveL Offs(Target_drawing_origin,-47,231,5),v100,fine,PencilHolder\WObj:=PAPER;
MoveL Offs(Target_drawing_origin,-47,231,0),v100,fine,PencilHolder\WObj:=PAPER;
MoveL Offs(Target_drawing_origin,-47,249,0),v100,fine,PencilHolder\WObj:=PAPER;
MoveL Offs(Target_drawing_origin,-47,249,5),v100,fine,PencilHolder\WObj:=PAPER;
MoveL Offs(Target_drawing_origin,-48,156,5),v100,fine,PencilHolder\WObj:=PAPER;
MoveL Offs(Target_drawing_origin,-48,156,0),v100,fine,PencilHolder\WObj:=PAPER;
MoveL Offs(Target_drawing_origin,-48,195,0),v100,fine,PencilHolder\WObj:=PAPER;
MoveL Offs(Target_drawing_origin,-48,195,5),v100,fine,PencilHolder\WObj:=PAPER;
MoveL Offs(Target_drawing_origin,-48,231,5),v100,fine,PencilHolder\WObj:=PAPER;
MoveL Offs(Target_drawing_origin,-48,231,0),v100,fine,PencilHolder\WObj:=PAPER;
MoveL Offs(Target_drawing_origin,-48,255,0),v100,fine,PencilHolder\WObj:=PAPER;
MoveL Offs(Target_drawing_origin,-48,255,5),v100,fine,PencilHolder\WObj:=PAPER;
MoveL Offs(Target_drawing_origin,-49,156,5),v100,fine,PencilHolder\WObj:=PAPER;
MoveL Offs(Target_drawing_origin,-49,156,0),v100,fine,PencilHolder\WObj:=PAPER;
MoveL Offs(Target_drawing_origin,-49,195,0),v100,fine,PencilHolder\WObj:=PAPER;
MoveL Offs(Target_drawing_origin,-49,195,5),v100,fine,PencilHolder\WObj:=PAPER;
MoveL Offs(Target_drawing_origin,-49,231,5),v100,fine,PencilHolder\WObj:=PAPER;
MoveL Offs(Target_drawing_origin,-49,231,0),v100,fine,PencilHolder\WObj:=PAPER;
MoveL Offs(Target_drawing_origin,-49,255,0),v100,fine,PencilHolder\WObj:=PAPER;
MoveL Offs(Target_drawing_origin,-49,255,5),v100,fine,PencilHolder\WObj:=PAPER;
MoveL Offs(Target_drawing_origin,-50,162,5),v100,fine,PencilHolder\WObj:=PAPER;
MoveL Offs(Target_drawing_origin,-50,162,0),v100,fine,PencilHolder\WObj:=PAPER;
MoveL Offs(Target_drawing_origin,-50,192,0),v100,fine,PencilHolder\WObj:=PAPER;
MoveL Offs(Target_drawing_origin,-50,192,5),v100,fine,PencilHolder\WObj:=PAPER;
MoveL Offs(Target_drawing_origin,-50,231,5),v100,fine,PencilHolder\WObj:=PAPER;
MoveL Offs(Target_drawing_origin,-50,231,0),v100,fine,PencilHolder\WObj:=PAPER;
MoveL Offs(Target_drawing_origin,-50,255,0),v100,fine,PencilHolder\WObj:=PAPER;
MoveL Offs(Target_drawing_origin,-50,255,5),v100,fine,PencilHolder\WObj:=PAPER;
MoveL Offs(Target_drawing_origin,-51,162,5),v100,fine,PencilHolder\WObj:=PAPER;
MoveL Offs(Target_drawing_origin,-51,162,0),v100,fine,PencilHolder\WObj:=PAPER;
MoveL Offs(Target_drawing_origin,-51,189,0),v100,fine,PencilHolder\WObj:=PAPER;
MoveL Offs(Target_drawing_origin,-51,189,5),v100,fine,PencilHolder\WObj:=PAPER;
MoveL Offs(Target_drawing_origin,-51,231,5),v100,fine,PencilHolder\WObj:=PAPER;
MoveL Offs(Target_drawing_origin,-51,231,0),v100,fine,PencilHolder\WObj:=PAPER;
MoveL Offs(Target_drawing_origin,-51,255,0),v100,fine,PencilHolder\WObj:=PAPER;
MoveL Offs(Target_drawing_origin,-51,255,5),v100,fine,PencilHolder\WObj:=PAPER;
MoveL Offs(Target_drawing_origin,-52,231,5),v100,fine,PencilHolder\WObj:=PAPER;
MoveL Offs(Target_drawing_origin,-52,231,0),v100,fine,PencilHolder\WObj:=PAPER;
MoveL Offs(Target_drawing_origin,-52,255,0),v100,fine,PencilHolder\WObj:=PAPER;
MoveL Offs(Target_drawing_origin,-52,255,5),v100,fine,PencilHolder\WObj:=PAPER;
MoveL Offs(Target_drawing_origin,-53,231,5),v100,fine,PencilHolder\WObj:=PAPER;
MoveL Offs(Target_drawing_origin,-53,231,0),v100,fine,PencilHolder\WObj:=PAPER;
MoveL Offs(Target_drawing_origin,-53,255,0),v100,fine,PencilHolder\WObj:=PAPER;
MoveL Offs(Target_drawing_origin,-53,255,5),v100,fine,PencilHolder\WObj:=PAPER;
MoveL Offs(Target_drawing_origin,-54,237,5),v100,fine,PencilHolder\WObj:=PAPER;
MoveL Offs(Target_drawing_origin,-54,237,0),v100,fine,PencilHolder\WObj:=PAPER;
MoveL Offs(Target_drawing_origin,-54,255,0),v100,fine,PencilHolder\WObj:=PAPER;
MoveL Offs(Target_drawing_origin,-54,255,5),v100,fine,PencilHolder\WObj:=PAPER;
MoveL Offs(Target_drawing_origin,-55,237,5),v100,fine,PencilHolder\WObj:=PAPER;
MoveL Offs(Target_drawing_origin,-55,237,0),v100,fine,PencilHolder\WObj:=PAPER;
MoveL Offs(Target_drawing_origin,-55,255,0),v100,fine,PencilHolder\WObj:=PAPER;
MoveL Offs(Target_drawing_origin,-55,255,5),v100,fine,PencilHolder\WObj:=PAPER;
MoveL Offs(Target_drawing_origin,-56,237,5),v100,fine,PencilHolder\WObj:=PAPER;
MoveL Offs(Target_drawing_origin,-56,237,0),v100,fine,PencilHolder\WObj:=PAPER;
MoveL Offs(Target_drawing_origin,-56,255,0),v100,fine,PencilHolder\WObj:=PAPER;
MoveL Offs(Target_drawing_origin,-56,255,5),v100,fine,PencilHolder\WObj:=PAPER;


! Draw black
MoveJ Offs(Target_drawing_origin,0,0,5),v100,fine,PencilHolder\WObj:=PAPER;
MoveL Offs(Target_drawing_origin,0,0,5),v100,fine,PencilHolder\WObj:=PAPER;
MoveL Offs(Target_drawing_origin,0,0,0),v100,fine,PencilHolder\WObj:=PAPER;
MoveL Offs(Target_drawing_origin,-51,0,0),v100,fine,PencilHolder\WObj:=PAPER;
MoveL Offs(Target_drawing_origin,-51,0,5),v100,fine,PencilHolder\WObj:=PAPER;
MoveL Offs(Target_drawing_origin,0,1,5),v100,fine,PencilHolder\WObj:=PAPER;
MoveL Offs(Target_drawing_origin,0,1,0),v100,fine,PencilHolder\WObj:=PAPER;
MoveL Offs(Target_drawing_origin,-51,1,0),v100,fine,PencilHolder\WObj:=PAPER;
MoveL Offs(Target_drawing_origin,-51,1,5),v100,fine,PencilHolder\WObj:=PAPER;
MoveL Offs(Target_drawing_origin,0,2,5),v100,fine,PencilHolder\WObj:=PAPER;
MoveL Offs(Target_drawing_origin,0,2,0),v100,fine,PencilHolder\WObj:=PAPER;
MoveL Offs(Target_drawing_origin,-54,2,0),v100,fine,PencilHolder\WObj:=PAPER;
MoveL Offs(Target_drawing_origin,-54,2,5),v100,fine,PencilHolder\WObj:=PAPER;
MoveL Offs(Target_drawing_origin,0,3,5),v100,fine,PencilHolder\WObj:=PAPER;
MoveL Offs(Target_drawing_origin,0,3,0),v100,fine,PencilHolder\WObj:=PAPER;
MoveL Offs(Target_drawing_origin,-54,3,0),v100,fine,PencilHolder\WObj:=PAPER;
MoveL Offs(Target_drawing_origin,-54,3,5),v100,fine,PencilHolder\WObj:=PAPER;
MoveL Offs(Target_drawing_origin,0,4,5),v100,fine,PencilHolder\WObj:=PAPER;
MoveL Offs(Target_drawing_origin,0,4,0),v100,fine,PencilHolder\WObj:=PAPER;
MoveL Offs(Target_drawing_origin,-54,4,0),v100,fine,PencilHolder\WObj:=PAPER;
MoveL Offs(Target_drawing_origin,-54,4,5),v100,fine,PencilHolder\WObj:=PAPER;
MoveL Offs(Target_drawing_origin,0,5,5),v100,fine,PencilHolder\WObj:=PAPER;
MoveL Offs(Target_drawing_origin,0,5,0),v100,fine,PencilHolder\WObj:=PAPER;
MoveL Offs(Target_drawing_origin,-12,5,0),v100,fine,PencilHolder\WObj:=PAPER;
MoveL Offs(Target_drawing_origin,-12,5,5),v100,fine,PencilHolder\WObj:=PAPER;
MoveL Offs(Target_drawing_origin,-27,5,5),v100,fine,PencilHolder\WObj:=PAPER;
MoveL Offs(Target_drawing_origin,-27,5,0),v100,fine,PencilHolder\WObj:=PAPER;
MoveL Offs(Target_drawing_origin,-54,5,0),v100,fine,PencilHolder\WObj:=PAPER;
MoveL Offs(Target_drawing_origin,-54,5,5),v100,fine,PencilHolder\WObj:=PAPER;
MoveL Offs(Target_drawing_origin,0,6,5),v100,fine,PencilHolder\WObj:=PAPER;
MoveL Offs(Target_drawing_origin,0,6,0),v100,fine,PencilHolder\WObj:=PAPER;
MoveL Offs(Target_drawing_origin,-12,6,0),v100,fine,PencilHolder\WObj:=PAPER;
MoveL Offs(Target_drawing_origin,-12,6,5),v100,fine,PencilHolder\WObj:=PAPER;
MoveL Offs(Target_drawing_origin,-27,6,5),v100,fine,PencilHolder\WObj:=PAPER;
MoveL Offs(Target_drawing_origin,-27,6,0),v100,fine,PencilHolder\WObj:=PAPER;
MoveL Offs(Target_drawing_origin,-54,6,0),v100,fine,PencilHolder\WObj:=PAPER;
MoveL Offs(Target_drawing_origin,-54,6,5),v100,fine,PencilHolder\WObj:=PAPER;
MoveL Offs(Target_drawing_origin,-27,7,5),v100,fine,PencilHolder\WObj:=PAPER;
MoveL Offs(Target_drawing_origin,-27,7,0),v100,fine,PencilHolder\WObj:=PAPER;
MoveL Offs(Target_drawing_origin,-54,7,0),v100,fine,PencilHolder\WObj:=PAPER;
MoveL Offs(Target_drawing_origin,-54,7,5),v100,fine,PencilHolder\WObj:=PAPER;
MoveL Offs(Target_drawing_origin,-27,8,5),v100,fine,PencilHolder\WObj:=PAPER;
MoveL Offs(Target_drawing_origin,-27,8,0),v100,fine,PencilHolder\WObj:=PAPER;
MoveL Offs(Target_drawing_origin,-54,8,0),v100,fine,PencilHolder\WObj:=PAPER;
MoveL Offs(Target_drawing_origin,-54,8,5),v100,fine,PencilHolder\WObj:=PAPER;
MoveL Offs(Target_drawing_origin,-18,9,5),v100,fine,PencilHolder\WObj:=PAPER;
MoveL Offs(Target_drawing_origin,-18,9,0),v100,fine,PencilHolder\WObj:=PAPER;
MoveL Offs(Target_drawing_origin,-54,9,0),v100,fine,PencilHolder\WObj:=PAPER;
MoveL Offs(Target_drawing_origin,-54,9,5),v100,fine,PencilHolder\WObj:=PAPER;
MoveL Offs(Target_drawing_origin,-18,10,5),v100,fine,PencilHolder\WObj:=PAPER;
MoveL Offs(Target_drawing_origin,-18,10,0),v100,fine,PencilHolder\WObj:=PAPER;
MoveL Offs(Target_drawing_origin,-54,10,0),v100,fine,PencilHolder\WObj:=PAPER;
MoveL Offs(Target_drawing_origin,-54,10,5),v100,fine,PencilHolder\WObj:=PAPER;
MoveL Offs(Target_drawing_origin,-18,11,5),v100,fine,PencilHolder\WObj:=PAPER;
MoveL Offs(Target_drawing_origin,-18,11,0),v100,fine,PencilHolder\WObj:=PAPER;
MoveL Offs(Target_drawing_origin,-54,11,0),v100,fine,PencilHolder\WObj:=PAPER;
MoveL Offs(Target_drawing_origin,-54,11,5),v100,fine,PencilHolder\WObj:=PAPER;
MoveL Offs(Target_drawing_origin,-15,12,5),v100,fine,PencilHolder\WObj:=PAPER;
MoveL Offs(Target_drawing_origin,-15,12,0),v100,fine,PencilHolder\WObj:=PAPER;
MoveL Offs(Target_drawing_origin,-51,12,0),v100,fine,PencilHolder\WObj:=PAPER;
MoveL Offs(Target_drawing_origin,-51,12,5),v100,fine,PencilHolder\WObj:=PAPER;
MoveL Offs(Target_drawing_origin,-12,13,5),v100,fine,PencilHolder\WObj:=PAPER;
MoveL Offs(Target_drawing_origin,-12,13,0),v100,fine,PencilHolder\WObj:=PAPER;
MoveL Offs(Target_drawing_origin,-51,13,0),v100,fine,PencilHolder\WObj:=PAPER;
MoveL Offs(Target_drawing_origin,-51,13,5),v100,fine,PencilHolder\WObj:=PAPER;
MoveL Offs(Target_drawing_origin,-9,14,5),v100,fine,PencilHolder\WObj:=PAPER;
MoveL Offs(Target_drawing_origin,-9,14,0),v100,fine,PencilHolder\WObj:=PAPER;
MoveL Offs(Target_drawing_origin,-39,14,0),v100,fine,PencilHolder\WObj:=PAPER;
MoveL Offs(Target_drawing_origin,-39,14,5),v100,fine,PencilHolder\WObj:=PAPER;
MoveL Offs(Target_drawing_origin,-6,15,5),v100,fine,PencilHolder\WObj:=PAPER;
MoveL Offs(Target_drawing_origin,-6,15,0),v100,fine,PencilHolder\WObj:=PAPER;
MoveL Offs(Target_drawing_origin,-39,15,0),v100,fine,PencilHolder\WObj:=PAPER;
MoveL Offs(Target_drawing_origin,-39,15,5),v100,fine,PencilHolder\WObj:=PAPER;
MoveL Offs(Target_drawing_origin,-75,15,5),v100,fine,PencilHolder\WObj:=PAPER;
MoveL Offs(Target_drawing_origin,-75,15,0),v100,fine,PencilHolder\WObj:=PAPER;
MoveL Offs(Target_drawing_origin,-93,15,0),v100,fine,PencilHolder\WObj:=PAPER;
MoveL Offs(Target_drawing_origin,-93,15,5),v100,fine,PencilHolder\WObj:=PAPER;
MoveL Offs(Target_drawing_origin,0,16,5),v100,fine,PencilHolder\WObj:=PAPER;
MoveL Offs(Target_drawing_origin,0,16,0),v100,fine,PencilHolder\WObj:=PAPER;
MoveL Offs(Target_drawing_origin,-33,16,0),v100,fine,PencilHolder\WObj:=PAPER;
MoveL Offs(Target_drawing_origin,-33,16,5),v100,fine,PencilHolder\WObj:=PAPER;
MoveL Offs(Target_drawing_origin,-72,16,5),v100,fine,PencilHolder\WObj:=PAPER;
MoveL Offs(Target_drawing_origin,-72,16,0),v100,fine,PencilHolder\WObj:=PAPER;
MoveL Offs(Target_drawing_origin,-96,16,0),v100,fine,PencilHolder\WObj:=PAPER;
MoveL Offs(Target_drawing_origin,-96,16,5),v100,fine,PencilHolder\WObj:=PAPER;
MoveL Offs(Target_drawing_origin,0,17,5),v100,fine,PencilHolder\WObj:=PAPER;
MoveL Offs(Target_drawing_origin,0,17,0),v100,fine,PencilHolder\WObj:=PAPER;
MoveL Offs(Target_drawing_origin,-33,17,0),v100,fine,PencilHolder\WObj:=PAPER;
MoveL Offs(Target_drawing_origin,-33,17,5),v100,fine,PencilHolder\WObj:=PAPER;
MoveL Offs(Target_drawing_origin,-69,17,5),v100,fine,PencilHolder\WObj:=PAPER;
MoveL Offs(Target_drawing_origin,-69,17,0),v100,fine,PencilHolder\WObj:=PAPER;
MoveL Offs(Target_drawing_origin,-99,17,0),v100,fine,PencilHolder\WObj:=PAPER;
MoveL Offs(Target_drawing_origin,-99,17,5),v100,fine,PencilHolder\WObj:=PAPER;
MoveL Offs(Target_drawing_origin,0,18,5),v100,fine,PencilHolder\WObj:=PAPER;
MoveL Offs(Target_drawing_origin,0,18,0),v100,fine,PencilHolder\WObj:=PAPER;
MoveL Offs(Target_drawing_origin,-27,18,0),v100,fine,PencilHolder\WObj:=PAPER;
MoveL Offs(Target_drawing_origin,-27,18,5),v100,fine,PencilHolder\WObj:=PAPER;
MoveL Offs(Target_drawing_origin,-60,18,5),v100,fine,PencilHolder\WObj:=PAPER;
MoveL Offs(Target_drawing_origin,-60,18,0),v100,fine,PencilHolder\WObj:=PAPER;
MoveL Offs(Target_drawing_origin,-102,18,0),v100,fine,PencilHolder\WObj:=PAPER;
MoveL Offs(Target_drawing_origin,-102,18,5),v100,fine,PencilHolder\WObj:=PAPER;
MoveL Offs(Target_drawing_origin,0,19,5),v100,fine,PencilHolder\WObj:=PAPER;
MoveL Offs(Target_drawing_origin,0,19,0),v100,fine,PencilHolder\WObj:=PAPER;
MoveL Offs(Target_drawing_origin,-30,19,0),v100,fine,PencilHolder\WObj:=PAPER;
MoveL Offs(Target_drawing_origin,-30,19,5),v100,fine,PencilHolder\WObj:=PAPER;
MoveL Offs(Target_drawing_origin,-60,19,5),v100,fine,PencilHolder\WObj:=PAPER;
MoveL Offs(Target_drawing_origin,-60,19,0),v100,fine,PencilHolder\WObj:=PAPER;
MoveL Offs(Target_drawing_origin,-102,19,0),v100,fine,PencilHolder\WObj:=PAPER;
MoveL Offs(Target_drawing_origin,-102,19,5),v100,fine,PencilHolder\WObj:=PAPER;
MoveL Offs(Target_drawing_origin,0,20,5),v100,fine,PencilHolder\WObj:=PAPER;
MoveL Offs(Target_drawing_origin,0,20,0),v100,fine,PencilHolder\WObj:=PAPER;
MoveL Offs(Target_drawing_origin,-108,20,0),v100,fine,PencilHolder\WObj:=PAPER;
MoveL Offs(Target_drawing_origin,-108,20,5),v100,fine,PencilHolder\WObj:=PAPER;
MoveL Offs(Target_drawing_origin,0,21,5),v100,fine,PencilHolder\WObj:=PAPER;
MoveL Offs(Target_drawing_origin,0,21,0),v100,fine,PencilHolder\WObj:=PAPER;
MoveL Offs(Target_drawing_origin,-108,21,0),v100,fine,PencilHolder\WObj:=PAPER;
MoveL Offs(Target_drawing_origin,-108,21,5),v100,fine,PencilHolder\WObj:=PAPER;
MoveL Offs(Target_drawing_origin,0,22,5),v100,fine,PencilHolder\WObj:=PAPER;
MoveL Offs(Target_drawing_origin,0,22,0),v100,fine,PencilHolder\WObj:=PAPER;
MoveL Offs(Target_drawing_origin,-114,22,0),v100,fine,PencilHolder\WObj:=PAPER;
MoveL Offs(Target_drawing_origin,-114,22,5),v100,fine,PencilHolder\WObj:=PAPER;
MoveL Offs(Target_drawing_origin,-6,23,5),v100,fine,PencilHolder\WObj:=PAPER;
MoveL Offs(Target_drawing_origin,-6,23,0),v100,fine,PencilHolder\WObj:=PAPER;
MoveL Offs(Target_drawing_origin,-117,23,0),v100,fine,PencilHolder\WObj:=PAPER;
MoveL Offs(Target_drawing_origin,-117,23,5),v100,fine,PencilHolder\WObj:=PAPER;
MoveL Offs(Target_drawing_origin,-6,24,5),v100,fine,PencilHolder\WObj:=PAPER;
MoveL Offs(Target_drawing_origin,-6,24,0),v100,fine,PencilHolder\WObj:=PAPER;
MoveL Offs(Target_drawing_origin,-120,24,0),v100,fine,PencilHolder\WObj:=PAPER;
MoveL Offs(Target_drawing_origin,-120,24,5),v100,fine,PencilHolder\WObj:=PAPER;
MoveL Offs(Target_drawing_origin,-12,25,5),v100,fine,PencilHolder\WObj:=PAPER;
MoveL Offs(Target_drawing_origin,-12,25,0),v100,fine,PencilHolder\WObj:=PAPER;
MoveL Offs(Target_drawing_origin,-72,25,0),v100,fine,PencilHolder\WObj:=PAPER;
MoveL Offs(Target_drawing_origin,-72,25,5),v100,fine,PencilHolder\WObj:=PAPER;
MoveL Offs(Target_drawing_origin,-93,25,5),v100,fine,PencilHolder\WObj:=PAPER;
MoveL Offs(Target_drawing_origin,-93,25,0),v100,fine,PencilHolder\WObj:=PAPER;
MoveL Offs(Target_drawing_origin,-120,25,0),v100,fine,PencilHolder\WObj:=PAPER;
MoveL Offs(Target_drawing_origin,-120,25,5),v100,fine,PencilHolder\WObj:=PAPER;
MoveL Offs(Target_drawing_origin,-12,26,5),v100,fine,PencilHolder\WObj:=PAPER;
MoveL Offs(Target_drawing_origin,-12,26,0),v100,fine,PencilHolder\WObj:=PAPER;
MoveL Offs(Target_drawing_origin,-72,26,0),v100,fine,PencilHolder\WObj:=PAPER;
MoveL Offs(Target_drawing_origin,-72,26,5),v100,fine,PencilHolder\WObj:=PAPER;
MoveL Offs(Target_drawing_origin,-93,26,5),v100,fine,PencilHolder\WObj:=PAPER;
MoveL Offs(Target_drawing_origin,-93,26,0),v100,fine,PencilHolder\WObj:=PAPER;
MoveL Offs(Target_drawing_origin,-120,26,0),v100,fine,PencilHolder\WObj:=PAPER;
MoveL Offs(Target_drawing_origin,-120,26,5),v100,fine,PencilHolder\WObj:=PAPER;
MoveL Offs(Target_drawing_origin,-18,27,5),v100,fine,PencilHolder\WObj:=PAPER;
MoveL Offs(Target_drawing_origin,-18,27,0),v100,fine,PencilHolder\WObj:=PAPER;
MoveL Offs(Target_drawing_origin,-66,27,0),v100,fine,PencilHolder\WObj:=PAPER;
MoveL Offs(Target_drawing_origin,-66,27,5),v100,fine,PencilHolder\WObj:=PAPER;
MoveL Offs(Target_drawing_origin,-93,27,5),v100,fine,PencilHolder\WObj:=PAPER;
MoveL Offs(Target_drawing_origin,-93,27,0),v100,fine,PencilHolder\WObj:=PAPER;
MoveL Offs(Target_drawing_origin,-120,27,0),v100,fine,PencilHolder\WObj:=PAPER;
MoveL Offs(Target_drawing_origin,-120,27,5),v100,fine,PencilHolder\WObj:=PAPER;
MoveL Offs(Target_drawing_origin,-21,28,5),v100,fine,PencilHolder\WObj:=PAPER;
MoveL Offs(Target_drawing_origin,-21,28,0),v100,fine,PencilHolder\WObj:=PAPER;
MoveL Offs(Target_drawing_origin,-63,28,0),v100,fine,PencilHolder\WObj:=PAPER;
MoveL Offs(Target_drawing_origin,-63,28,5),v100,fine,PencilHolder\WObj:=PAPER;
MoveL Offs(Target_drawing_origin,-90,28,5),v100,fine,PencilHolder\WObj:=PAPER;
MoveL Offs(Target_drawing_origin,-90,28,0),v100,fine,PencilHolder\WObj:=PAPER;
MoveL Offs(Target_drawing_origin,-120,28,0),v100,fine,PencilHolder\WObj:=PAPER;
MoveL Offs(Target_drawing_origin,-120,28,5),v100,fine,PencilHolder\WObj:=PAPER;
MoveL Offs(Target_drawing_origin,-21,29,5),v100,fine,PencilHolder\WObj:=PAPER;
MoveL Offs(Target_drawing_origin,-21,29,0),v100,fine,PencilHolder\WObj:=PAPER;
MoveL Offs(Target_drawing_origin,-60,29,0),v100,fine,PencilHolder\WObj:=PAPER;
MoveL Offs(Target_drawing_origin,-60,29,5),v100,fine,PencilHolder\WObj:=PAPER;
MoveL Offs(Target_drawing_origin,-87,29,5),v100,fine,PencilHolder\WObj:=PAPER;
MoveL Offs(Target_drawing_origin,-87,29,0),v100,fine,PencilHolder\WObj:=PAPER;
MoveL Offs(Target_drawing_origin,-120,29,0),v100,fine,PencilHolder\WObj:=PAPER;
MoveL Offs(Target_drawing_origin,-120,29,5),v100,fine,PencilHolder\WObj:=PAPER;
MoveL Offs(Target_drawing_origin,-84,30,5),v100,fine,PencilHolder\WObj:=PAPER;
MoveL Offs(Target_drawing_origin,-84,30,0),v100,fine,PencilHolder\WObj:=PAPER;
MoveL Offs(Target_drawing_origin,-120,30,0),v100,fine,PencilHolder\WObj:=PAPER;
MoveL Offs(Target_drawing_origin,-120,30,5),v100,fine,PencilHolder\WObj:=PAPER;
MoveL Offs(Target_drawing_origin,-81,31,5),v100,fine,PencilHolder\WObj:=PAPER;
MoveL Offs(Target_drawing_origin,-81,31,0),v100,fine,PencilHolder\WObj:=PAPER;
MoveL Offs(Target_drawing_origin,-120,31,0),v100,fine,PencilHolder\WObj:=PAPER;
MoveL Offs(Target_drawing_origin,-120,31,5),v100,fine,PencilHolder\WObj:=PAPER;
MoveL Offs(Target_drawing_origin,-78,32,5),v100,fine,PencilHolder\WObj:=PAPER;
MoveL Offs(Target_drawing_origin,-78,32,0),v100,fine,PencilHolder\WObj:=PAPER;
MoveL Offs(Target_drawing_origin,-114,32,0),v100,fine,PencilHolder\WObj:=PAPER;
MoveL Offs(Target_drawing_origin,-114,32,5),v100,fine,PencilHolder\WObj:=PAPER;
MoveL Offs(Target_drawing_origin,-66,33,5),v100,fine,PencilHolder\WObj:=PAPER;
MoveL Offs(Target_drawing_origin,-66,33,0),v100,fine,PencilHolder\WObj:=PAPER;
MoveL Offs(Target_drawing_origin,-114,33,0),v100,fine,PencilHolder\WObj:=PAPER;
MoveL Offs(Target_drawing_origin,-114,33,5),v100,fine,PencilHolder\WObj:=PAPER;
MoveL Offs(Target_drawing_origin,-48,34,5),v100,fine,PencilHolder\WObj:=PAPER;
MoveL Offs(Target_drawing_origin,-48,34,0),v100,fine,PencilHolder\WObj:=PAPER;
MoveL Offs(Target_drawing_origin,-108,34,0),v100,fine,PencilHolder\WObj:=PAPER;
MoveL Offs(Target_drawing_origin,-108,34,5),v100,fine,PencilHolder\WObj:=PAPER;
MoveL Offs(Target_drawing_origin,-48,35,5),v100,fine,PencilHolder\WObj:=PAPER;
MoveL Offs(Target_drawing_origin,-48,35,0),v100,fine,PencilHolder\WObj:=PAPER;
MoveL Offs(Target_drawing_origin,-108,35,0),v100,fine,PencilHolder\WObj:=PAPER;
MoveL Offs(Target_drawing_origin,-108,35,5),v100,fine,PencilHolder\WObj:=PAPER;
MoveL Offs(Target_drawing_origin,-45,36,5),v100,fine,PencilHolder\WObj:=PAPER;
MoveL Offs(Target_drawing_origin,-45,36,0),v100,fine,PencilHolder\WObj:=PAPER;
MoveL Offs(Target_drawing_origin,-102,36,0),v100,fine,PencilHolder\WObj:=PAPER;
MoveL Offs(Target_drawing_origin,-102,36,5),v100,fine,PencilHolder\WObj:=PAPER;
MoveL Offs(Target_drawing_origin,-42,37,5),v100,fine,PencilHolder\WObj:=PAPER;
MoveL Offs(Target_drawing_origin,-42,37,0),v100,fine,PencilHolder\WObj:=PAPER;
MoveL Offs(Target_drawing_origin,-93,37,0),v100,fine,PencilHolder\WObj:=PAPER;
MoveL Offs(Target_drawing_origin,-93,37,5),v100,fine,PencilHolder\WObj:=PAPER;
MoveL Offs(Target_drawing_origin,-39,38,5),v100,fine,PencilHolder\WObj:=PAPER;
MoveL Offs(Target_drawing_origin,-39,38,0),v100,fine,PencilHolder\WObj:=PAPER;
MoveL Offs(Target_drawing_origin,-93,38,0),v100,fine,PencilHolder\WObj:=PAPER;
MoveL Offs(Target_drawing_origin,-93,38,5),v100,fine,PencilHolder\WObj:=PAPER;
MoveL Offs(Target_drawing_origin,-39,39,5),v100,fine,PencilHolder\WObj:=PAPER;
MoveL Offs(Target_drawing_origin,-39,39,0),v100,fine,PencilHolder\WObj:=PAPER;
MoveL Offs(Target_drawing_origin,-81,39,0),v100,fine,PencilHolder\WObj:=PAPER;
MoveL Offs(Target_drawing_origin,-81,39,5),v100,fine,PencilHolder\WObj:=PAPER;
MoveL Offs(Target_drawing_origin,-39,40,5),v100,fine,PencilHolder\WObj:=PAPER;
MoveL Offs(Target_drawing_origin,-39,40,0),v100,fine,PencilHolder\WObj:=PAPER;
MoveL Offs(Target_drawing_origin,-81,40,0),v100,fine,PencilHolder\WObj:=PAPER;
MoveL Offs(Target_drawing_origin,-81,40,5),v100,fine,PencilHolder\WObj:=PAPER;
MoveL Offs(Target_drawing_origin,-33,41,5),v100,fine,PencilHolder\WObj:=PAPER;
MoveL Offs(Target_drawing_origin,-33,41,0),v100,fine,PencilHolder\WObj:=PAPER;
MoveL Offs(Target_drawing_origin,-66,41,0),v100,fine,PencilHolder\WObj:=PAPER;
MoveL Offs(Target_drawing_origin,-66,41,5),v100,fine,PencilHolder\WObj:=PAPER;
MoveL Offs(Target_drawing_origin,-33,42,5),v100,fine,PencilHolder\WObj:=PAPER;
MoveL Offs(Target_drawing_origin,-33,42,0),v100,fine,PencilHolder\WObj:=PAPER;
MoveL Offs(Target_drawing_origin,-66,42,0),v100,fine,PencilHolder\WObj:=PAPER;
MoveL Offs(Target_drawing_origin,-66,42,5),v100,fine,PencilHolder\WObj:=PAPER;
MoveL Offs(Target_drawing_origin,-27,43,5),v100,fine,PencilHolder\WObj:=PAPER;
MoveL Offs(Target_drawing_origin,-27,43,0),v100,fine,PencilHolder\WObj:=PAPER;
MoveL Offs(Target_drawing_origin,-54,43,0),v100,fine,PencilHolder\WObj:=PAPER;
MoveL Offs(Target_drawing_origin,-54,43,5),v100,fine,PencilHolder\WObj:=PAPER;
MoveL Offs(Target_drawing_origin,-27,44,5),v100,fine,PencilHolder\WObj:=PAPER;
MoveL Offs(Target_drawing_origin,-27,44,0),v100,fine,PencilHolder\WObj:=PAPER;
MoveL Offs(Target_drawing_origin,-54,44,0),v100,fine,PencilHolder\WObj:=PAPER;
MoveL Offs(Target_drawing_origin,-54,44,5),v100,fine,PencilHolder\WObj:=PAPER;
MoveL Offs(Target_drawing_origin,-27,45,5),v100,fine,PencilHolder\WObj:=PAPER;
MoveL Offs(Target_drawing_origin,-27,45,0),v100,fine,PencilHolder\WObj:=PAPER;
MoveL Offs(Target_drawing_origin,-54,45,0),v100,fine,PencilHolder\WObj:=PAPER;
MoveL Offs(Target_drawing_origin,-54,45,5),v100,fine,PencilHolder\WObj:=PAPER;
MoveL Offs(Target_drawing_origin,-27,46,5),v100,fine,PencilHolder\WObj:=PAPER;
MoveL Offs(Target_drawing_origin,-27,46,0),v100,fine,PencilHolder\WObj:=PAPER;
MoveL Offs(Target_drawing_origin,-54,46,0),v100,fine,PencilHolder\WObj:=PAPER;
MoveL Offs(Target_drawing_origin,-54,46,5),v100,fine,PencilHolder\WObj:=PAPER;
MoveL Offs(Target_drawing_origin,-27,47,5),v100,fine,PencilHolder\WObj:=PAPER;
MoveL Offs(Target_drawing_origin,-27,47,0),v100,fine,PencilHolder\WObj:=PAPER;
MoveL Offs(Target_drawing_origin,-54,47,0),v100,fine,PencilHolder\WObj:=PAPER;
MoveL Offs(Target_drawing_origin,-54,47,5),v100,fine,PencilHolder\WObj:=PAPER;
MoveL Offs(Target_drawing_origin,-27,48,5),v100,fine,PencilHolder\WObj:=PAPER;
MoveL Offs(Target_drawing_origin,-27,48,0),v100,fine,PencilHolder\WObj:=PAPER;
MoveL Offs(Target_drawing_origin,-57,48,0),v100,fine,PencilHolder\WObj:=PAPER;
MoveL Offs(Target_drawing_origin,-57,48,5),v100,fine,PencilHolder\WObj:=PAPER;
MoveL Offs(Target_drawing_origin,-27,49,5),v100,fine,PencilHolder\WObj:=PAPER;
MoveL Offs(Target_drawing_origin,-27,49,0),v100,fine,PencilHolder\WObj:=PAPER;
MoveL Offs(Target_drawing_origin,-60,49,0),v100,fine,PencilHolder\WObj:=PAPER;
MoveL Offs(Target_drawing_origin,-60,49,5),v100,fine,PencilHolder\WObj:=PAPER;
MoveL Offs(Target_drawing_origin,-27,50,5),v100,fine,PencilHolder\WObj:=PAPER;
MoveL Offs(Target_drawing_origin,-27,50,0),v100,fine,PencilHolder\WObj:=PAPER;
MoveL Offs(Target_drawing_origin,-66,50,0),v100,fine,PencilHolder\WObj:=PAPER;
MoveL Offs(Target_drawing_origin,-66,50,5),v100,fine,PencilHolder\WObj:=PAPER;
MoveL Offs(Target_drawing_origin,-108,50,5),v100,fine,PencilHolder\WObj:=PAPER;
MoveL Offs(Target_drawing_origin,-108,50,0),v100,fine,PencilHolder\WObj:=PAPER;
MoveL Offs(Target_drawing_origin,-141,50,0),v100,fine,PencilHolder\WObj:=PAPER;
MoveL Offs(Target_drawing_origin,-141,50,5),v100,fine,PencilHolder\WObj:=PAPER;
MoveL Offs(Target_drawing_origin,-27,51,5),v100,fine,PencilHolder\WObj:=PAPER;
MoveL Offs(Target_drawing_origin,-27,51,0),v100,fine,PencilHolder\WObj:=PAPER;
MoveL Offs(Target_drawing_origin,-66,51,0),v100,fine,PencilHolder\WObj:=PAPER;
MoveL Offs(Target_drawing_origin,-66,51,5),v100,fine,PencilHolder\WObj:=PAPER;
MoveL Offs(Target_drawing_origin,-108,51,5),v100,fine,PencilHolder\WObj:=PAPER;
MoveL Offs(Target_drawing_origin,-108,51,0),v100,fine,PencilHolder\WObj:=PAPER;
MoveL Offs(Target_drawing_origin,-141,51,0),v100,fine,PencilHolder\WObj:=PAPER;
MoveL Offs(Target_drawing_origin,-141,51,5),v100,fine,PencilHolder\WObj:=PAPER;
MoveL Offs(Target_drawing_origin,-33,52,5),v100,fine,PencilHolder\WObj:=PAPER;
MoveL Offs(Target_drawing_origin,-33,52,0),v100,fine,PencilHolder\WObj:=PAPER;
MoveL Offs(Target_drawing_origin,-147,52,0),v100,fine,PencilHolder\WObj:=PAPER;
MoveL Offs(Target_drawing_origin,-147,52,5),v100,fine,PencilHolder\WObj:=PAPER;
MoveL Offs(Target_drawing_origin,-36,53,5),v100,fine,PencilHolder\WObj:=PAPER;
MoveL Offs(Target_drawing_origin,-36,53,0),v100,fine,PencilHolder\WObj:=PAPER;
MoveL Offs(Target_drawing_origin,-147,53,0),v100,fine,PencilHolder\WObj:=PAPER;
MoveL Offs(Target_drawing_origin,-147,53,5),v100,fine,PencilHolder\WObj:=PAPER;
MoveL Offs(Target_drawing_origin,-39,54,5),v100,fine,PencilHolder\WObj:=PAPER;
MoveL Offs(Target_drawing_origin,-39,54,0),v100,fine,PencilHolder\WObj:=PAPER;
MoveL Offs(Target_drawing_origin,-150,54,0),v100,fine,PencilHolder\WObj:=PAPER;
MoveL Offs(Target_drawing_origin,-150,54,5),v100,fine,PencilHolder\WObj:=PAPER;
MoveL Offs(Target_drawing_origin,-42,55,5),v100,fine,PencilHolder\WObj:=PAPER;
MoveL Offs(Target_drawing_origin,-42,55,0),v100,fine,PencilHolder\WObj:=PAPER;
MoveL Offs(Target_drawing_origin,-150,55,0),v100,fine,PencilHolder\WObj:=PAPER;
MoveL Offs(Target_drawing_origin,-150,55,5),v100,fine,PencilHolder\WObj:=PAPER;
MoveL Offs(Target_drawing_origin,-45,56,5),v100,fine,PencilHolder\WObj:=PAPER;
MoveL Offs(Target_drawing_origin,-45,56,0),v100,fine,PencilHolder\WObj:=PAPER;
MoveL Offs(Target_drawing_origin,-150,56,0),v100,fine,PencilHolder\WObj:=PAPER;
MoveL Offs(Target_drawing_origin,-150,56,5),v100,fine,PencilHolder\WObj:=PAPER;
MoveL Offs(Target_drawing_origin,-54,57,5),v100,fine,PencilHolder\WObj:=PAPER;
MoveL Offs(Target_drawing_origin,-54,57,0),v100,fine,PencilHolder\WObj:=PAPER;
MoveL Offs(Target_drawing_origin,-120,57,0),v100,fine,PencilHolder\WObj:=PAPER;
MoveL Offs(Target_drawing_origin,-120,57,5),v100,fine,PencilHolder\WObj:=PAPER;
MoveL Offs(Target_drawing_origin,-129,57,5),v100,fine,PencilHolder\WObj:=PAPER;
MoveL Offs(Target_drawing_origin,-129,57,0),v100,fine,PencilHolder\WObj:=PAPER;
MoveL Offs(Target_drawing_origin,-150,57,0),v100,fine,PencilHolder\WObj:=PAPER;
MoveL Offs(Target_drawing_origin,-150,57,5),v100,fine,PencilHolder\WObj:=PAPER;
MoveL Offs(Target_drawing_origin,-54,58,5),v100,fine,PencilHolder\WObj:=PAPER;
MoveL Offs(Target_drawing_origin,-54,58,0),v100,fine,PencilHolder\WObj:=PAPER;
MoveL Offs(Target_drawing_origin,-120,58,0),v100,fine,PencilHolder\WObj:=PAPER;
MoveL Offs(Target_drawing_origin,-120,58,5),v100,fine,PencilHolder\WObj:=PAPER;
MoveL Offs(Target_drawing_origin,-129,58,5),v100,fine,PencilHolder\WObj:=PAPER;
MoveL Offs(Target_drawing_origin,-129,58,0),v100,fine,PencilHolder\WObj:=PAPER;
MoveL Offs(Target_drawing_origin,-150,58,0),v100,fine,PencilHolder\WObj:=PAPER;
MoveL Offs(Target_drawing_origin,-150,58,5),v100,fine,PencilHolder\WObj:=PAPER;
MoveL Offs(Target_drawing_origin,-60,59,5),v100,fine,PencilHolder\WObj:=PAPER;
MoveL Offs(Target_drawing_origin,-60,59,0),v100,fine,PencilHolder\WObj:=PAPER;
MoveL Offs(Target_drawing_origin,-114,59,0),v100,fine,PencilHolder\WObj:=PAPER;
MoveL Offs(Target_drawing_origin,-114,59,5),v100,fine,PencilHolder\WObj:=PAPER;
MoveL Offs(Target_drawing_origin,-129,59,5),v100,fine,PencilHolder\WObj:=PAPER;
MoveL Offs(Target_drawing_origin,-129,59,0),v100,fine,PencilHolder\WObj:=PAPER;
MoveL Offs(Target_drawing_origin,-150,59,0),v100,fine,PencilHolder\WObj:=PAPER;
MoveL Offs(Target_drawing_origin,-150,59,5),v100,fine,PencilHolder\WObj:=PAPER;
MoveL Offs(Target_drawing_origin,-60,60,5),v100,fine,PencilHolder\WObj:=PAPER;
MoveL Offs(Target_drawing_origin,-60,60,0),v100,fine,PencilHolder\WObj:=PAPER;
MoveL Offs(Target_drawing_origin,-114,60,0),v100,fine,PencilHolder\WObj:=PAPER;
MoveL Offs(Target_drawing_origin,-114,60,5),v100,fine,PencilHolder\WObj:=PAPER;
MoveL Offs(Target_drawing_origin,-129,60,5),v100,fine,PencilHolder\WObj:=PAPER;
MoveL Offs(Target_drawing_origin,-129,60,0),v100,fine,PencilHolder\WObj:=PAPER;
MoveL Offs(Target_drawing_origin,-150,60,0),v100,fine,PencilHolder\WObj:=PAPER;
MoveL Offs(Target_drawing_origin,-150,60,5),v100,fine,PencilHolder\WObj:=PAPER;
MoveL Offs(Target_drawing_origin,-117,61,5),v100,fine,PencilHolder\WObj:=PAPER;
MoveL Offs(Target_drawing_origin,-117,61,0),v100,fine,PencilHolder\WObj:=PAPER;
MoveL Offs(Target_drawing_origin,-150,61,0),v100,fine,PencilHolder\WObj:=PAPER;
MoveL Offs(Target_drawing_origin,-150,61,5),v100,fine,PencilHolder\WObj:=PAPER;
MoveL Offs(Target_drawing_origin,-117,62,5),v100,fine,PencilHolder\WObj:=PAPER;
MoveL Offs(Target_drawing_origin,-117,62,0),v100,fine,PencilHolder\WObj:=PAPER;
MoveL Offs(Target_drawing_origin,-150,62,0),v100,fine,PencilHolder\WObj:=PAPER;
MoveL Offs(Target_drawing_origin,-150,62,5),v100,fine,PencilHolder\WObj:=PAPER;
MoveL Offs(Target_drawing_origin,-45,63,5),v100,fine,PencilHolder\WObj:=PAPER;
MoveL Offs(Target_drawing_origin,-45,63,0),v100,fine,PencilHolder\WObj:=PAPER;
MoveL Offs(Target_drawing_origin,-81,63,0),v100,fine,PencilHolder\WObj:=PAPER;
MoveL Offs(Target_drawing_origin,-81,63,5),v100,fine,PencilHolder\WObj:=PAPER;
MoveL Offs(Target_drawing_origin,-102,63,5),v100,fine,PencilHolder\WObj:=PAPER;
MoveL Offs(Target_drawing_origin,-102,63,0),v100,fine,PencilHolder\WObj:=PAPER;
MoveL Offs(Target_drawing_origin,-150,63,0),v100,fine,PencilHolder\WObj:=PAPER;
MoveL Offs(Target_drawing_origin,-150,63,5),v100,fine,PencilHolder\WObj:=PAPER;
MoveL Offs(Target_drawing_origin,-42,64,5),v100,fine,PencilHolder\WObj:=PAPER;
MoveL Offs(Target_drawing_origin,-42,64,0),v100,fine,PencilHolder\WObj:=PAPER;
MoveL Offs(Target_drawing_origin,-81,64,0),v100,fine,PencilHolder\WObj:=PAPER;
MoveL Offs(Target_drawing_origin,-81,64,5),v100,fine,PencilHolder\WObj:=PAPER;
MoveL Offs(Target_drawing_origin,-102,64,5),v100,fine,PencilHolder\WObj:=PAPER;
MoveL Offs(Target_drawing_origin,-102,64,0),v100,fine,PencilHolder\WObj:=PAPER;
MoveL Offs(Target_drawing_origin,-147,64,0),v100,fine,PencilHolder\WObj:=PAPER;
MoveL Offs(Target_drawing_origin,-147,64,5),v100,fine,PencilHolder\WObj:=PAPER;
MoveL Offs(Target_drawing_origin,-33,65,5),v100,fine,PencilHolder\WObj:=PAPER;
MoveL Offs(Target_drawing_origin,-33,65,0),v100,fine,PencilHolder\WObj:=PAPER;
MoveL Offs(Target_drawing_origin,-147,65,0),v100,fine,PencilHolder\WObj:=PAPER;
MoveL Offs(Target_drawing_origin,-147,65,5),v100,fine,PencilHolder\WObj:=PAPER;
MoveL Offs(Target_drawing_origin,-30,66,5),v100,fine,PencilHolder\WObj:=PAPER;
MoveL Offs(Target_drawing_origin,-30,66,0),v100,fine,PencilHolder\WObj:=PAPER;
MoveL Offs(Target_drawing_origin,-141,66,0),v100,fine,PencilHolder\WObj:=PAPER;
MoveL Offs(Target_drawing_origin,-141,66,5),v100,fine,PencilHolder\WObj:=PAPER;
MoveL Offs(Target_drawing_origin,-27,67,5),v100,fine,PencilHolder\WObj:=PAPER;
MoveL Offs(Target_drawing_origin,-27,67,0),v100,fine,PencilHolder\WObj:=PAPER;
MoveL Offs(Target_drawing_origin,-141,67,0),v100,fine,PencilHolder\WObj:=PAPER;
MoveL Offs(Target_drawing_origin,-141,67,5),v100,fine,PencilHolder\WObj:=PAPER;
MoveL Offs(Target_drawing_origin,-21,68,5),v100,fine,PencilHolder\WObj:=PAPER;
MoveL Offs(Target_drawing_origin,-21,68,0),v100,fine,PencilHolder\WObj:=PAPER;
MoveL Offs(Target_drawing_origin,-135,68,0),v100,fine,PencilHolder\WObj:=PAPER;
MoveL Offs(Target_drawing_origin,-135,68,5),v100,fine,PencilHolder\WObj:=PAPER;
MoveL Offs(Target_drawing_origin,-21,69,5),v100,fine,PencilHolder\WObj:=PAPER;
MoveL Offs(Target_drawing_origin,-21,69,0),v100,fine,PencilHolder\WObj:=PAPER;
MoveL Offs(Target_drawing_origin,-135,69,0),v100,fine,PencilHolder\WObj:=PAPER;
MoveL Offs(Target_drawing_origin,-135,69,5),v100,fine,PencilHolder\WObj:=PAPER;
MoveL Offs(Target_drawing_origin,-18,70,5),v100,fine,PencilHolder\WObj:=PAPER;
MoveL Offs(Target_drawing_origin,-18,70,0),v100,fine,PencilHolder\WObj:=PAPER;
MoveL Offs(Target_drawing_origin,-60,70,0),v100,fine,PencilHolder\WObj:=PAPER;
MoveL Offs(Target_drawing_origin,-60,70,5),v100,fine,PencilHolder\WObj:=PAPER;
MoveL Offs(Target_drawing_origin,-69,70,5),v100,fine,PencilHolder\WObj:=PAPER;
MoveL Offs(Target_drawing_origin,-69,70,0),v100,fine,PencilHolder\WObj:=PAPER;
MoveL Offs(Target_drawing_origin,-120,70,0),v100,fine,PencilHolder\WObj:=PAPER;
MoveL Offs(Target_drawing_origin,-120,70,5),v100,fine,PencilHolder\WObj:=PAPER;
MoveL Offs(Target_drawing_origin,-18,71,5),v100,fine,PencilHolder\WObj:=PAPER;
MoveL Offs(Target_drawing_origin,-18,71,0),v100,fine,PencilHolder\WObj:=PAPER;
MoveL Offs(Target_drawing_origin,-45,71,0),v100,fine,PencilHolder\WObj:=PAPER;
MoveL Offs(Target_drawing_origin,-45,71,5),v100,fine,PencilHolder\WObj:=PAPER;
MoveL Offs(Target_drawing_origin,-18,72,5),v100,fine,PencilHolder\WObj:=PAPER;
MoveL Offs(Target_drawing_origin,-18,72,0),v100,fine,PencilHolder\WObj:=PAPER;
MoveL Offs(Target_drawing_origin,-45,72,0),v100,fine,PencilHolder\WObj:=PAPER;
MoveL Offs(Target_drawing_origin,-45,72,5),v100,fine,PencilHolder\WObj:=PAPER;
MoveL Offs(Target_drawing_origin,-18,73,5),v100,fine,PencilHolder\WObj:=PAPER;
MoveL Offs(Target_drawing_origin,-18,73,0),v100,fine,PencilHolder\WObj:=PAPER;
MoveL Offs(Target_drawing_origin,-45,73,0),v100,fine,PencilHolder\WObj:=PAPER;
MoveL Offs(Target_drawing_origin,-45,73,5),v100,fine,PencilHolder\WObj:=PAPER;
MoveL Offs(Target_drawing_origin,-18,74,5),v100,fine,PencilHolder\WObj:=PAPER;
MoveL Offs(Target_drawing_origin,-18,74,0),v100,fine,PencilHolder\WObj:=PAPER;
MoveL Offs(Target_drawing_origin,-66,74,0),v100,fine,PencilHolder\WObj:=PAPER;
MoveL Offs(Target_drawing_origin,-66,74,5),v100,fine,PencilHolder\WObj:=PAPER;
MoveL Offs(Target_drawing_origin,-18,75,5),v100,fine,PencilHolder\WObj:=PAPER;
MoveL Offs(Target_drawing_origin,-18,75,0),v100,fine,PencilHolder\WObj:=PAPER;
MoveL Offs(Target_drawing_origin,-69,75,0),v100,fine,PencilHolder\WObj:=PAPER;
MoveL Offs(Target_drawing_origin,-69,75,5),v100,fine,PencilHolder\WObj:=PAPER;
MoveL Offs(Target_drawing_origin,-18,76,5),v100,fine,PencilHolder\WObj:=PAPER;
MoveL Offs(Target_drawing_origin,-18,76,0),v100,fine,PencilHolder\WObj:=PAPER;
MoveL Offs(Target_drawing_origin,-135,76,0),v100,fine,PencilHolder\WObj:=PAPER;
MoveL Offs(Target_drawing_origin,-135,76,5),v100,fine,PencilHolder\WObj:=PAPER;
MoveL Offs(Target_drawing_origin,-21,77,5),v100,fine,PencilHolder\WObj:=PAPER;
MoveL Offs(Target_drawing_origin,-21,77,0),v100,fine,PencilHolder\WObj:=PAPER;
MoveL Offs(Target_drawing_origin,-156,77,0),v100,fine,PencilHolder\WObj:=PAPER;
MoveL Offs(Target_drawing_origin,-156,77,5),v100,fine,PencilHolder\WObj:=PAPER;
MoveL Offs(Target_drawing_origin,-24,78,5),v100,fine,PencilHolder\WObj:=PAPER;
MoveL Offs(Target_drawing_origin,-24,78,0),v100,fine,PencilHolder\WObj:=PAPER;
MoveL Offs(Target_drawing_origin,-156,78,0),v100,fine,PencilHolder\WObj:=PAPER;
MoveL Offs(Target_drawing_origin,-156,78,5),v100,fine,PencilHolder\WObj:=PAPER;
MoveL Offs(Target_drawing_origin,-27,79,5),v100,fine,PencilHolder\WObj:=PAPER;
MoveL Offs(Target_drawing_origin,-27,79,0),v100,fine,PencilHolder\WObj:=PAPER;
MoveL Offs(Target_drawing_origin,-168,79,0),v100,fine,PencilHolder\WObj:=PAPER;
MoveL Offs(Target_drawing_origin,-168,79,5),v100,fine,PencilHolder\WObj:=PAPER;
MoveL Offs(Target_drawing_origin,-54,80,5),v100,fine,PencilHolder\WObj:=PAPER;
MoveL Offs(Target_drawing_origin,-54,80,0),v100,fine,PencilHolder\WObj:=PAPER;
MoveL Offs(Target_drawing_origin,-168,80,0),v100,fine,PencilHolder\WObj:=PAPER;
MoveL Offs(Target_drawing_origin,-168,80,5),v100,fine,PencilHolder\WObj:=PAPER;
MoveL Offs(Target_drawing_origin,-54,81,5),v100,fine,PencilHolder\WObj:=PAPER;
MoveL Offs(Target_drawing_origin,-54,81,0),v100,fine,PencilHolder\WObj:=PAPER;
MoveL Offs(Target_drawing_origin,-168,81,0),v100,fine,PencilHolder\WObj:=PAPER;
MoveL Offs(Target_drawing_origin,-168,81,5),v100,fine,PencilHolder\WObj:=PAPER;
MoveL Offs(Target_drawing_origin,-123,82,5),v100,fine,PencilHolder\WObj:=PAPER;
MoveL Offs(Target_drawing_origin,-123,82,0),v100,fine,PencilHolder\WObj:=PAPER;
MoveL Offs(Target_drawing_origin,-168,82,0),v100,fine,PencilHolder\WObj:=PAPER;
MoveL Offs(Target_drawing_origin,-168,82,5),v100,fine,PencilHolder\WObj:=PAPER;
MoveL Offs(Target_drawing_origin,-123,83,5),v100,fine,PencilHolder\WObj:=PAPER;
MoveL Offs(Target_drawing_origin,-123,83,0),v100,fine,PencilHolder\WObj:=PAPER;
MoveL Offs(Target_drawing_origin,-168,83,0),v100,fine,PencilHolder\WObj:=PAPER;
MoveL Offs(Target_drawing_origin,-168,83,5),v100,fine,PencilHolder\WObj:=PAPER;
MoveL Offs(Target_drawing_origin,-144,84,5),v100,fine,PencilHolder\WObj:=PAPER;
MoveL Offs(Target_drawing_origin,-144,84,0),v100,fine,PencilHolder\WObj:=PAPER;
MoveL Offs(Target_drawing_origin,-168,84,0),v100,fine,PencilHolder\WObj:=PAPER;
MoveL Offs(Target_drawing_origin,-168,84,5),v100,fine,PencilHolder\WObj:=PAPER;
MoveL Offs(Target_drawing_origin,-144,85,5),v100,fine,PencilHolder\WObj:=PAPER;
MoveL Offs(Target_drawing_origin,-144,85,0),v100,fine,PencilHolder\WObj:=PAPER;
MoveL Offs(Target_drawing_origin,-168,85,0),v100,fine,PencilHolder\WObj:=PAPER;
MoveL Offs(Target_drawing_origin,-168,85,5),v100,fine,PencilHolder\WObj:=PAPER;


ENDPROC


ENDMODULE