MODULE Module1
    CONST robtarget Target_drawing_origin:=[[290,10,-2],[1,0,0,0],[0,0,0,0],[9E+09,9E+09,9E+09,9E+09,9E+09,9E+09]];


! Main procedure
PROC main()


! Clean
SetDO Do_Clean, 1;
SetDO Do_Clean, 0;
SetDO Do_Kreslit_OFF, 1;
SetDO Do_Kreslit_ON, 0;
! Draw grey
MoveJ Offs(Target_drawing_origin,0,0,-5),v100,fine,PencilHolder\WObj:=PAPER;
MoveL Offs(Target_drawing_origin,0,0,-5),v50,fine,PencilHolder\WObj:=PAPER;
WaitRob \InPos;
MoveL Offs(Target_drawing_origin,0,0,0),v50,fine,PencilHolder\WObj:=PAPER;
WaitRob \InPos;
SetDO Do_Kreslit_ON, 1;
SetDO Do_Kreslit_OFF, 0;
MoveL Offs(Target_drawing_origin,0,240,0),v50,fine,PencilHolder\WObj:=PAPER;
WaitRob \InPos;
SetDO Do_Kreslit_ON, 0;
SetDO Do_Kreslit_OFF, 1;
MoveL Offs(Target_drawing_origin,0,240,-5),v50,fine,PencilHolder\WObj:=PAPER;
WaitRob \InPos;
MoveL Offs(Target_drawing_origin,-20,0,-5),v50,fine,PencilHolder\WObj:=PAPER;
WaitRob \InPos;
MoveL Offs(Target_drawing_origin,-20,0,0),v50,fine,PencilHolder\WObj:=PAPER;
WaitRob \InPos;
SetDO Do_Kreslit_ON, 1;
SetDO Do_Kreslit_OFF, 0;
MoveL Offs(Target_drawing_origin,-20,240,0),v50,fine,PencilHolder\WObj:=PAPER;
WaitRob \InPos;
SetDO Do_Kreslit_ON, 0;
SetDO Do_Kreslit_OFF, 1;
MoveL Offs(Target_drawing_origin,-20,240,-5),v50,fine,PencilHolder\WObj:=PAPER;
WaitRob \InPos;
MoveL Offs(Target_drawing_origin,-40,0,-5),v50,fine,PencilHolder\WObj:=PAPER;
WaitRob \InPos;
MoveL Offs(Target_drawing_origin,-40,0,0),v50,fine,PencilHolder\WObj:=PAPER;
WaitRob \InPos;
SetDO Do_Kreslit_ON, 1;
SetDO Do_Kreslit_OFF, 0;
MoveL Offs(Target_drawing_origin,-40,20,0),v50,fine,PencilHolder\WObj:=PAPER;
WaitRob \InPos;
SetDO Do_Kreslit_ON, 0;
SetDO Do_Kreslit_OFF, 1;
MoveL Offs(Target_drawing_origin,-40,20,-5),v50,fine,PencilHolder\WObj:=PAPER;
WaitRob \InPos;
MoveL Offs(Target_drawing_origin,-40,80,-5),v50,fine,PencilHolder\WObj:=PAPER;
WaitRob \InPos;
MoveL Offs(Target_drawing_origin,-40,80,0),v50,fine,PencilHolder\WObj:=PAPER;
WaitRob \InPos;
SetDO Do_Kreslit_ON, 1;
SetDO Do_Kreslit_OFF, 0;
MoveL Offs(Target_drawing_origin,-40,240,0),v50,fine,PencilHolder\WObj:=PAPER;
WaitRob \InPos;
SetDO Do_Kreslit_ON, 0;
SetDO Do_Kreslit_OFF, 1;
MoveL Offs(Target_drawing_origin,-40,240,-5),v50,fine,PencilHolder\WObj:=PAPER;
WaitRob \InPos;
MoveL Offs(Target_drawing_origin,-60,0,-5),v50,fine,PencilHolder\WObj:=PAPER;
WaitRob \InPos;
MoveL Offs(Target_drawing_origin,-60,0,0),v50,fine,PencilHolder\WObj:=PAPER;
WaitRob \InPos;
SetDO Do_Kreslit_ON, 1;
SetDO Do_Kreslit_OFF, 0;
MoveL Offs(Target_drawing_origin,-60,20,0),v50,fine,PencilHolder\WObj:=PAPER;
WaitRob \InPos;
SetDO Do_Kreslit_ON, 0;
SetDO Do_Kreslit_OFF, 1;
MoveL Offs(Target_drawing_origin,-60,20,-5),v50,fine,PencilHolder\WObj:=PAPER;
WaitRob \InPos;
MoveL Offs(Target_drawing_origin,-60,80,-5),v50,fine,PencilHolder\WObj:=PAPER;
WaitRob \InPos;
MoveL Offs(Target_drawing_origin,-60,80,0),v50,fine,PencilHolder\WObj:=PAPER;
WaitRob \InPos;
SetDO Do_Kreslit_ON, 1;
SetDO Do_Kreslit_OFF, 0;
MoveL Offs(Target_drawing_origin,-60,240,0),v50,fine,PencilHolder\WObj:=PAPER;
WaitRob \InPos;
SetDO Do_Kreslit_ON, 0;
SetDO Do_Kreslit_OFF, 1;
MoveL Offs(Target_drawing_origin,-60,240,-5),v50,fine,PencilHolder\WObj:=PAPER;
WaitRob \InPos;
MoveL Offs(Target_drawing_origin,-80,0,-5),v50,fine,PencilHolder\WObj:=PAPER;
WaitRob \InPos;
MoveL Offs(Target_drawing_origin,-80,0,0),v50,fine,PencilHolder\WObj:=PAPER;
WaitRob \InPos;
SetDO Do_Kreslit_ON, 1;
SetDO Do_Kreslit_OFF, 0;
MoveL Offs(Target_drawing_origin,-80,20,0),v50,fine,PencilHolder\WObj:=PAPER;
WaitRob \InPos;
SetDO Do_Kreslit_ON, 0;
SetDO Do_Kreslit_OFF, 1;
MoveL Offs(Target_drawing_origin,-80,20,-5),v50,fine,PencilHolder\WObj:=PAPER;
WaitRob \InPos;
MoveL Offs(Target_drawing_origin,-80,80,-5),v50,fine,PencilHolder\WObj:=PAPER;
WaitRob \InPos;
MoveL Offs(Target_drawing_origin,-80,80,0),v50,fine,PencilHolder\WObj:=PAPER;
WaitRob \InPos;
SetDO Do_Kreslit_ON, 1;
SetDO Do_Kreslit_OFF, 0;
MoveL Offs(Target_drawing_origin,-80,240,0),v50,fine,PencilHolder\WObj:=PAPER;
WaitRob \InPos;
SetDO Do_Kreslit_ON, 0;
SetDO Do_Kreslit_OFF, 1;
MoveL Offs(Target_drawing_origin,-80,240,-5),v50,fine,PencilHolder\WObj:=PAPER;
WaitRob \InPos;
MoveL Offs(Target_drawing_origin,-100,0,-5),v50,fine,PencilHolder\WObj:=PAPER;
WaitRob \InPos;
MoveL Offs(Target_drawing_origin,-100,0,0),v50,fine,PencilHolder\WObj:=PAPER;
WaitRob \InPos;
SetDO Do_Kreslit_ON, 1;
SetDO Do_Kreslit_OFF, 0;
MoveL Offs(Target_drawing_origin,-100,20,0),v50,fine,PencilHolder\WObj:=PAPER;
WaitRob \InPos;
SetDO Do_Kreslit_ON, 0;
SetDO Do_Kreslit_OFF, 1;
MoveL Offs(Target_drawing_origin,-100,20,-5),v50,fine,PencilHolder\WObj:=PAPER;
WaitRob \InPos;
MoveL Offs(Target_drawing_origin,-100,80,-5),v50,fine,PencilHolder\WObj:=PAPER;
WaitRob \InPos;
MoveL Offs(Target_drawing_origin,-100,80,0),v50,fine,PencilHolder\WObj:=PAPER;
WaitRob \InPos;
SetDO Do_Kreslit_ON, 1;
SetDO Do_Kreslit_OFF, 0;
MoveL Offs(Target_drawing_origin,-100,240,0),v50,fine,PencilHolder\WObj:=PAPER;
WaitRob \InPos;
SetDO Do_Kreslit_ON, 0;
SetDO Do_Kreslit_OFF, 1;
MoveL Offs(Target_drawing_origin,-100,240,-5),v50,fine,PencilHolder\WObj:=PAPER;
WaitRob \InPos;
MoveL Offs(Target_drawing_origin,-120,0,-5),v50,fine,PencilHolder\WObj:=PAPER;
WaitRob \InPos;
MoveL Offs(Target_drawing_origin,-120,0,0),v50,fine,PencilHolder\WObj:=PAPER;
WaitRob \InPos;
SetDO Do_Kreslit_ON, 1;
SetDO Do_Kreslit_OFF, 0;
MoveL Offs(Target_drawing_origin,-120,40,0),v50,fine,PencilHolder\WObj:=PAPER;
WaitRob \InPos;
SetDO Do_Kreslit_ON, 0;
SetDO Do_Kreslit_OFF, 1;
MoveL Offs(Target_drawing_origin,-120,40,-5),v50,fine,PencilHolder\WObj:=PAPER;
WaitRob \InPos;
MoveL Offs(Target_drawing_origin,-120,220,-5),v50,fine,PencilHolder\WObj:=PAPER;
WaitRob \InPos;
MoveL Offs(Target_drawing_origin,-120,220,0),v50,fine,PencilHolder\WObj:=PAPER;
WaitRob \InPos;
SetDO Do_Kreslit_ON, 1;
SetDO Do_Kreslit_OFF, 0;
MoveL Offs(Target_drawing_origin,-120,240,0),v50,fine,PencilHolder\WObj:=PAPER;
WaitRob \InPos;
SetDO Do_Kreslit_ON, 0;
SetDO Do_Kreslit_OFF, 1;
MoveL Offs(Target_drawing_origin,-120,240,-5),v50,fine,PencilHolder\WObj:=PAPER;
WaitRob \InPos;
MoveL Offs(Target_drawing_origin,-140,0,-5),v50,fine,PencilHolder\WObj:=PAPER;
WaitRob \InPos;
MoveL Offs(Target_drawing_origin,-140,0,0),v50,fine,PencilHolder\WObj:=PAPER;
WaitRob \InPos;
SetDO Do_Kreslit_ON, 1;
SetDO Do_Kreslit_OFF, 0;
MoveL Offs(Target_drawing_origin,-140,40,0),v50,fine,PencilHolder\WObj:=PAPER;
WaitRob \InPos;
SetDO Do_Kreslit_ON, 0;
SetDO Do_Kreslit_OFF, 1;
MoveL Offs(Target_drawing_origin,-140,40,-5),v50,fine,PencilHolder\WObj:=PAPER;
WaitRob \InPos;
MoveL Offs(Target_drawing_origin,-140,220,-5),v50,fine,PencilHolder\WObj:=PAPER;
WaitRob \InPos;
MoveL Offs(Target_drawing_origin,-140,220,0),v50,fine,PencilHolder\WObj:=PAPER;
WaitRob \InPos;
SetDO Do_Kreslit_ON, 1;
SetDO Do_Kreslit_OFF, 0;
MoveL Offs(Target_drawing_origin,-140,240,0),v50,fine,PencilHolder\WObj:=PAPER;
WaitRob \InPos;
SetDO Do_Kreslit_ON, 0;
SetDO Do_Kreslit_OFF, 1;
MoveL Offs(Target_drawing_origin,-140,240,-5),v50,fine,PencilHolder\WObj:=PAPER;
WaitRob \InPos;
MoveL Offs(Target_drawing_origin,-160,0,-5),v50,fine,PencilHolder\WObj:=PAPER;
WaitRob \InPos;
MoveL Offs(Target_drawing_origin,-160,0,0),v50,fine,PencilHolder\WObj:=PAPER;
WaitRob \InPos;
SetDO Do_Kreslit_ON, 1;
SetDO Do_Kreslit_OFF, 0;
MoveL Offs(Target_drawing_origin,-160,40,0),v50,fine,PencilHolder\WObj:=PAPER;
WaitRob \InPos;
SetDO Do_Kreslit_ON, 0;
SetDO Do_Kreslit_OFF, 1;
MoveL Offs(Target_drawing_origin,-160,40,-5),v50,fine,PencilHolder\WObj:=PAPER;
WaitRob \InPos;
MoveL Offs(Target_drawing_origin,-160,100,-5),v50,fine,PencilHolder\WObj:=PAPER;
WaitRob \InPos;
MoveL Offs(Target_drawing_origin,-160,100,0),v50,fine,PencilHolder\WObj:=PAPER;
WaitRob \InPos;
SetDO Do_Kreslit_ON, 1;
SetDO Do_Kreslit_OFF, 0;
MoveL Offs(Target_drawing_origin,-160,240,0),v50,fine,PencilHolder\WObj:=PAPER;
WaitRob \InPos;
SetDO Do_Kreslit_ON, 0;
SetDO Do_Kreslit_OFF, 1;
MoveL Offs(Target_drawing_origin,-160,240,-5),v50,fine,PencilHolder\WObj:=PAPER;
WaitRob \InPos;
MoveL Offs(Target_drawing_origin,-180,0,-5),v50,fine,PencilHolder\WObj:=PAPER;
WaitRob \InPos;
MoveL Offs(Target_drawing_origin,-180,0,0),v50,fine,PencilHolder\WObj:=PAPER;
WaitRob \InPos;
SetDO Do_Kreslit_ON, 1;
SetDO Do_Kreslit_OFF, 0;
MoveL Offs(Target_drawing_origin,-180,40,0),v50,fine,PencilHolder\WObj:=PAPER;
WaitRob \InPos;
SetDO Do_Kreslit_ON, 0;
SetDO Do_Kreslit_OFF, 1;
MoveL Offs(Target_drawing_origin,-180,40,-5),v50,fine,PencilHolder\WObj:=PAPER;
WaitRob \InPos;
MoveL Offs(Target_drawing_origin,-180,100,-5),v50,fine,PencilHolder\WObj:=PAPER;
WaitRob \InPos;
MoveL Offs(Target_drawing_origin,-180,100,0),v50,fine,PencilHolder\WObj:=PAPER;
WaitRob \InPos;
SetDO Do_Kreslit_ON, 1;
SetDO Do_Kreslit_OFF, 0;
MoveL Offs(Target_drawing_origin,-180,240,0),v50,fine,PencilHolder\WObj:=PAPER;
WaitRob \InPos;
SetDO Do_Kreslit_ON, 0;
SetDO Do_Kreslit_OFF, 1;
MoveL Offs(Target_drawing_origin,-180,240,-5),v50,fine,PencilHolder\WObj:=PAPER;
WaitRob \InPos;
MoveL Offs(Target_drawing_origin,-200,0,-5),v50,fine,PencilHolder\WObj:=PAPER;
WaitRob \InPos;
MoveL Offs(Target_drawing_origin,-200,0,0),v50,fine,PencilHolder\WObj:=PAPER;
WaitRob \InPos;
SetDO Do_Kreslit_ON, 1;
SetDO Do_Kreslit_OFF, 0;
MoveL Offs(Target_drawing_origin,-200,60,0),v50,fine,PencilHolder\WObj:=PAPER;
WaitRob \InPos;
SetDO Do_Kreslit_ON, 0;
SetDO Do_Kreslit_OFF, 1;
MoveL Offs(Target_drawing_origin,-200,60,-5),v50,fine,PencilHolder\WObj:=PAPER;
WaitRob \InPos;
MoveL Offs(Target_drawing_origin,-200,100,-5),v50,fine,PencilHolder\WObj:=PAPER;
WaitRob \InPos;
MoveL Offs(Target_drawing_origin,-200,100,0),v50,fine,PencilHolder\WObj:=PAPER;
WaitRob \InPos;
SetDO Do_Kreslit_ON, 1;
SetDO Do_Kreslit_OFF, 0;
MoveL Offs(Target_drawing_origin,-200,240,0),v50,fine,PencilHolder\WObj:=PAPER;
WaitRob \InPos;
SetDO Do_Kreslit_ON, 0;
SetDO Do_Kreslit_OFF, 1;
MoveL Offs(Target_drawing_origin,-200,240,-5),v50,fine,PencilHolder\WObj:=PAPER;
WaitRob \InPos;
MoveL Offs(Target_drawing_origin,-220,0,-5),v50,fine,PencilHolder\WObj:=PAPER;
WaitRob \InPos;
MoveL Offs(Target_drawing_origin,-220,0,0),v50,fine,PencilHolder\WObj:=PAPER;
WaitRob \InPos;
SetDO Do_Kreslit_ON, 1;
SetDO Do_Kreslit_OFF, 0;
MoveL Offs(Target_drawing_origin,-220,240,0),v50,fine,PencilHolder\WObj:=PAPER;
WaitRob \InPos;
SetDO Do_Kreslit_ON, 0;
SetDO Do_Kreslit_OFF, 1;
MoveL Offs(Target_drawing_origin,-220,240,-5),v50,fine,PencilHolder\WObj:=PAPER;
WaitRob \InPos;
MoveL Offs(Target_drawing_origin,-240,0,-5),v50,fine,PencilHolder\WObj:=PAPER;
WaitRob \InPos;
MoveL Offs(Target_drawing_origin,-240,0,0),v50,fine,PencilHolder\WObj:=PAPER;
WaitRob \InPos;
SetDO Do_Kreslit_ON, 1;
SetDO Do_Kreslit_OFF, 0;
MoveL Offs(Target_drawing_origin,-240,240,0),v50,fine,PencilHolder\WObj:=PAPER;
WaitRob \InPos;
SetDO Do_Kreslit_ON, 0;
SetDO Do_Kreslit_OFF, 1;
MoveL Offs(Target_drawing_origin,-240,240,-5),v50,fine,PencilHolder\WObj:=PAPER;
WaitRob \InPos;
SetDO Do_Kreslit_OFF, 1;


! Draw black
MoveJ Offs(Target_drawing_origin,0,0,-5),v100,fine,PencilHolder\WObj:=PAPER;
MoveL Offs(Target_drawing_origin,0,0,-5),v50,fine,PencilHolder\WObj:=PAPER;
WaitRob \InPos;
MoveL Offs(Target_drawing_origin,0,0,0),v50,fine,PencilHolder\WObj:=PAPER;
WaitRob \InPos;
SetDO Do_Kreslit_ON, 1;
SetDO Do_Kreslit_OFF, 0;
MoveL Offs(Target_drawing_origin,-240,0,0),v50,fine,PencilHolder\WObj:=PAPER;
WaitRob \InPos;
SetDO Do_Kreslit_ON, 0;
SetDO Do_Kreslit_OFF, 1;
MoveL Offs(Target_drawing_origin,-240,0,-5),v50,fine,PencilHolder\WObj:=PAPER;
WaitRob \InPos;
MoveL Offs(Target_drawing_origin,0,20,-5),v50,fine,PencilHolder\WObj:=PAPER;
WaitRob \InPos;
MoveL Offs(Target_drawing_origin,0,20,0),v50,fine,PencilHolder\WObj:=PAPER;
WaitRob \InPos;
SetDO Do_Kreslit_ON, 1;
SetDO Do_Kreslit_OFF, 0;
MoveL Offs(Target_drawing_origin,-240,20,0),v50,fine,PencilHolder\WObj:=PAPER;
WaitRob \InPos;
SetDO Do_Kreslit_ON, 0;
SetDO Do_Kreslit_OFF, 1;
MoveL Offs(Target_drawing_origin,-240,20,-5),v50,fine,PencilHolder\WObj:=PAPER;
WaitRob \InPos;
MoveL Offs(Target_drawing_origin,0,40,-5),v50,fine,PencilHolder\WObj:=PAPER;
WaitRob \InPos;
MoveL Offs(Target_drawing_origin,0,40,0),v50,fine,PencilHolder\WObj:=PAPER;
WaitRob \InPos;
SetDO Do_Kreslit_ON, 1;
SetDO Do_Kreslit_OFF, 0;
MoveL Offs(Target_drawing_origin,-20,40,0),v50,fine,PencilHolder\WObj:=PAPER;
WaitRob \InPos;
SetDO Do_Kreslit_ON, 0;
SetDO Do_Kreslit_OFF, 1;
MoveL Offs(Target_drawing_origin,-20,40,-5),v50,fine,PencilHolder\WObj:=PAPER;
WaitRob \InPos;
MoveL Offs(Target_drawing_origin,-120,40,-5),v50,fine,PencilHolder\WObj:=PAPER;
WaitRob \InPos;
MoveL Offs(Target_drawing_origin,-120,40,0),v50,fine,PencilHolder\WObj:=PAPER;
WaitRob \InPos;
SetDO Do_Kreslit_ON, 1;
SetDO Do_Kreslit_OFF, 0;
MoveL Offs(Target_drawing_origin,-240,40,0),v50,fine,PencilHolder\WObj:=PAPER;
WaitRob \InPos;
SetDO Do_Kreslit_ON, 0;
SetDO Do_Kreslit_OFF, 1;
MoveL Offs(Target_drawing_origin,-240,40,-5),v50,fine,PencilHolder\WObj:=PAPER;
WaitRob \InPos;
MoveL Offs(Target_drawing_origin,0,60,-5),v50,fine,PencilHolder\WObj:=PAPER;
WaitRob \InPos;
MoveL Offs(Target_drawing_origin,0,60,0),v50,fine,PencilHolder\WObj:=PAPER;
WaitRob \InPos;
SetDO Do_Kreslit_ON, 1;
SetDO Do_Kreslit_OFF, 0;
MoveL Offs(Target_drawing_origin,-20,60,0),v50,fine,PencilHolder\WObj:=PAPER;
WaitRob \InPos;
SetDO Do_Kreslit_ON, 0;
SetDO Do_Kreslit_OFF, 1;
MoveL Offs(Target_drawing_origin,-20,60,-5),v50,fine,PencilHolder\WObj:=PAPER;
WaitRob \InPos;
MoveL Offs(Target_drawing_origin,-200,60,-5),v50,fine,PencilHolder\WObj:=PAPER;
WaitRob \InPos;
MoveL Offs(Target_drawing_origin,-200,60,0),v50,fine,PencilHolder\WObj:=PAPER;
WaitRob \InPos;
SetDO Do_Kreslit_ON, 1;
SetDO Do_Kreslit_OFF, 0;
MoveL Offs(Target_drawing_origin,-240,60,0),v50,fine,PencilHolder\WObj:=PAPER;
WaitRob \InPos;
SetDO Do_Kreslit_ON, 0;
SetDO Do_Kreslit_OFF, 1;
MoveL Offs(Target_drawing_origin,-240,60,-5),v50,fine,PencilHolder\WObj:=PAPER;
WaitRob \InPos;
MoveL Offs(Target_drawing_origin,0,80,-5),v50,fine,PencilHolder\WObj:=PAPER;
WaitRob \InPos;
MoveL Offs(Target_drawing_origin,0,80,0),v50,fine,PencilHolder\WObj:=PAPER;
WaitRob \InPos;
SetDO Do_Kreslit_ON, 1;
SetDO Do_Kreslit_OFF, 0;
MoveL Offs(Target_drawing_origin,-100,80,0),v50,fine,PencilHolder\WObj:=PAPER;
WaitRob \InPos;
SetDO Do_Kreslit_ON, 0;
SetDO Do_Kreslit_OFF, 1;
MoveL Offs(Target_drawing_origin,-100,80,-5),v50,fine,PencilHolder\WObj:=PAPER;
WaitRob \InPos;
MoveL Offs(Target_drawing_origin,-220,80,-5),v50,fine,PencilHolder\WObj:=PAPER;
WaitRob \InPos;
MoveL Offs(Target_drawing_origin,-220,80,0),v50,fine,PencilHolder\WObj:=PAPER;
WaitRob \InPos;
SetDO Do_Kreslit_ON, 1;
SetDO Do_Kreslit_OFF, 0;
MoveL Offs(Target_drawing_origin,-240,80,0),v50,fine,PencilHolder\WObj:=PAPER;
WaitRob \InPos;
SetDO Do_Kreslit_ON, 0;
SetDO Do_Kreslit_OFF, 1;
MoveL Offs(Target_drawing_origin,-240,80,-5),v50,fine,PencilHolder\WObj:=PAPER;
WaitRob \InPos;
MoveL Offs(Target_drawing_origin,0,100,-5),v50,fine,PencilHolder\WObj:=PAPER;
WaitRob \InPos;
MoveL Offs(Target_drawing_origin,0,100,0),v50,fine,PencilHolder\WObj:=PAPER;
WaitRob \InPos;
SetDO Do_Kreslit_ON, 1;
SetDO Do_Kreslit_OFF, 0;
MoveL Offs(Target_drawing_origin,-100,100,0),v50,fine,PencilHolder\WObj:=PAPER;
WaitRob \InPos;
SetDO Do_Kreslit_ON, 0;
SetDO Do_Kreslit_OFF, 1;
MoveL Offs(Target_drawing_origin,-100,100,-5),v50,fine,PencilHolder\WObj:=PAPER;
WaitRob \InPos;
MoveL Offs(Target_drawing_origin,-160,100,-5),v50,fine,PencilHolder\WObj:=PAPER;
WaitRob \InPos;
MoveL Offs(Target_drawing_origin,-160,100,0),v50,fine,PencilHolder\WObj:=PAPER;
WaitRob \InPos;
SetDO Do_Kreslit_ON, 1;
SetDO Do_Kreslit_OFF, 0;
MoveL Offs(Target_drawing_origin,-240,100,0),v50,fine,PencilHolder\WObj:=PAPER;
WaitRob \InPos;
SetDO Do_Kreslit_ON, 0;
SetDO Do_Kreslit_OFF, 1;
MoveL Offs(Target_drawing_origin,-240,100,-5),v50,fine,PencilHolder\WObj:=PAPER;
WaitRob \InPos;
MoveL Offs(Target_drawing_origin,0,120,-5),v50,fine,PencilHolder\WObj:=PAPER;
WaitRob \InPos;
MoveL Offs(Target_drawing_origin,0,120,0),v50,fine,PencilHolder\WObj:=PAPER;
WaitRob \InPos;
SetDO Do_Kreslit_ON, 1;
SetDO Do_Kreslit_OFF, 0;
MoveL Offs(Target_drawing_origin,-100,120,0),v50,fine,PencilHolder\WObj:=PAPER;
WaitRob \InPos;
SetDO Do_Kreslit_ON, 0;
SetDO Do_Kreslit_OFF, 1;
MoveL Offs(Target_drawing_origin,-100,120,-5),v50,fine,PencilHolder\WObj:=PAPER;
WaitRob \InPos;
MoveL Offs(Target_drawing_origin,-160,120,-5),v50,fine,PencilHolder\WObj:=PAPER;
WaitRob \InPos;
MoveL Offs(Target_drawing_origin,-160,120,0),v50,fine,PencilHolder\WObj:=PAPER;
WaitRob \InPos;
SetDO Do_Kreslit_ON, 1;
SetDO Do_Kreslit_OFF, 0;
MoveL Offs(Target_drawing_origin,-240,120,0),v50,fine,PencilHolder\WObj:=PAPER;
WaitRob \InPos;
SetDO Do_Kreslit_ON, 0;
SetDO Do_Kreslit_OFF, 1;
MoveL Offs(Target_drawing_origin,-240,120,-5),v50,fine,PencilHolder\WObj:=PAPER;
WaitRob \InPos;
MoveL Offs(Target_drawing_origin,0,140,-5),v50,fine,PencilHolder\WObj:=PAPER;
WaitRob \InPos;
MoveL Offs(Target_drawing_origin,0,140,0),v50,fine,PencilHolder\WObj:=PAPER;
WaitRob \InPos;
SetDO Do_Kreslit_ON, 1;
SetDO Do_Kreslit_OFF, 0;
MoveL Offs(Target_drawing_origin,-100,140,0),v50,fine,PencilHolder\WObj:=PAPER;
WaitRob \InPos;
SetDO Do_Kreslit_ON, 0;
SetDO Do_Kreslit_OFF, 1;
MoveL Offs(Target_drawing_origin,-100,140,-5),v50,fine,PencilHolder\WObj:=PAPER;
WaitRob \InPos;
MoveL Offs(Target_drawing_origin,-160,140,-5),v50,fine,PencilHolder\WObj:=PAPER;
WaitRob \InPos;
MoveL Offs(Target_drawing_origin,-160,140,0),v50,fine,PencilHolder\WObj:=PAPER;
WaitRob \InPos;
SetDO Do_Kreslit_ON, 1;
SetDO Do_Kreslit_OFF, 0;
MoveL Offs(Target_drawing_origin,-240,140,0),v50,fine,PencilHolder\WObj:=PAPER;
WaitRob \InPos;
SetDO Do_Kreslit_ON, 0;
SetDO Do_Kreslit_OFF, 1;
MoveL Offs(Target_drawing_origin,-240,140,-5),v50,fine,PencilHolder\WObj:=PAPER;
WaitRob \InPos;
MoveL Offs(Target_drawing_origin,0,160,-5),v50,fine,PencilHolder\WObj:=PAPER;
WaitRob \InPos;
MoveL Offs(Target_drawing_origin,0,160,0),v50,fine,PencilHolder\WObj:=PAPER;
WaitRob \InPos;
SetDO Do_Kreslit_ON, 1;
SetDO Do_Kreslit_OFF, 0;
MoveL Offs(Target_drawing_origin,-100,160,0),v50,fine,PencilHolder\WObj:=PAPER;
WaitRob \InPos;
SetDO Do_Kreslit_ON, 0;
SetDO Do_Kreslit_OFF, 1;
MoveL Offs(Target_drawing_origin,-100,160,-5),v50,fine,PencilHolder\WObj:=PAPER;
WaitRob \InPos;
MoveL Offs(Target_drawing_origin,-160,160,-5),v50,fine,PencilHolder\WObj:=PAPER;
WaitRob \InPos;
MoveL Offs(Target_drawing_origin,-160,160,0),v50,fine,PencilHolder\WObj:=PAPER;
WaitRob \InPos;
SetDO Do_Kreslit_ON, 1;
SetDO Do_Kreslit_OFF, 0;
MoveL Offs(Target_drawing_origin,-240,160,0),v50,fine,PencilHolder\WObj:=PAPER;
WaitRob \InPos;
SetDO Do_Kreslit_ON, 0;
SetDO Do_Kreslit_OFF, 1;
MoveL Offs(Target_drawing_origin,-240,160,-5),v50,fine,PencilHolder\WObj:=PAPER;
WaitRob \InPos;
MoveL Offs(Target_drawing_origin,0,180,-5),v50,fine,PencilHolder\WObj:=PAPER;
WaitRob \InPos;
MoveL Offs(Target_drawing_origin,0,180,0),v50,fine,PencilHolder\WObj:=PAPER;
WaitRob \InPos;
SetDO Do_Kreslit_ON, 1;
SetDO Do_Kreslit_OFF, 0;
MoveL Offs(Target_drawing_origin,-100,180,0),v50,fine,PencilHolder\WObj:=PAPER;
WaitRob \InPos;
SetDO Do_Kreslit_ON, 0;
SetDO Do_Kreslit_OFF, 1;
MoveL Offs(Target_drawing_origin,-100,180,-5),v50,fine,PencilHolder\WObj:=PAPER;
WaitRob \InPos;
MoveL Offs(Target_drawing_origin,-160,180,-5),v50,fine,PencilHolder\WObj:=PAPER;
WaitRob \InPos;
MoveL Offs(Target_drawing_origin,-160,180,0),v50,fine,PencilHolder\WObj:=PAPER;
WaitRob \InPos;
SetDO Do_Kreslit_ON, 1;
SetDO Do_Kreslit_OFF, 0;
MoveL Offs(Target_drawing_origin,-240,180,0),v50,fine,PencilHolder\WObj:=PAPER;
WaitRob \InPos;
SetDO Do_Kreslit_ON, 0;
SetDO Do_Kreslit_OFF, 1;
MoveL Offs(Target_drawing_origin,-240,180,-5),v50,fine,PencilHolder\WObj:=PAPER;
WaitRob \InPos;
MoveL Offs(Target_drawing_origin,0,200,-5),v50,fine,PencilHolder\WObj:=PAPER;
WaitRob \InPos;
MoveL Offs(Target_drawing_origin,0,200,0),v50,fine,PencilHolder\WObj:=PAPER;
WaitRob \InPos;
SetDO Do_Kreslit_ON, 1;
SetDO Do_Kreslit_OFF, 0;
MoveL Offs(Target_drawing_origin,-100,200,0),v50,fine,PencilHolder\WObj:=PAPER;
WaitRob \InPos;
SetDO Do_Kreslit_ON, 0;
SetDO Do_Kreslit_OFF, 1;
MoveL Offs(Target_drawing_origin,-100,200,-5),v50,fine,PencilHolder\WObj:=PAPER;
WaitRob \InPos;
MoveL Offs(Target_drawing_origin,-160,200,-5),v50,fine,PencilHolder\WObj:=PAPER;
WaitRob \InPos;
MoveL Offs(Target_drawing_origin,-160,200,0),v50,fine,PencilHolder\WObj:=PAPER;
WaitRob \InPos;
SetDO Do_Kreslit_ON, 1;
SetDO Do_Kreslit_OFF, 0;
MoveL Offs(Target_drawing_origin,-240,200,0),v50,fine,PencilHolder\WObj:=PAPER;
WaitRob \InPos;
SetDO Do_Kreslit_ON, 0;
SetDO Do_Kreslit_OFF, 1;
MoveL Offs(Target_drawing_origin,-240,200,-5),v50,fine,PencilHolder\WObj:=PAPER;
WaitRob \InPos;
MoveL Offs(Target_drawing_origin,0,220,-5),v50,fine,PencilHolder\WObj:=PAPER;
WaitRob \InPos;
MoveL Offs(Target_drawing_origin,0,220,0),v50,fine,PencilHolder\WObj:=PAPER;
WaitRob \InPos;
SetDO Do_Kreslit_ON, 1;
SetDO Do_Kreslit_OFF, 0;
MoveL Offs(Target_drawing_origin,-240,220,0),v50,fine,PencilHolder\WObj:=PAPER;
WaitRob \InPos;
SetDO Do_Kreslit_ON, 0;
SetDO Do_Kreslit_OFF, 1;
MoveL Offs(Target_drawing_origin,-240,220,-5),v50,fine,PencilHolder\WObj:=PAPER;
WaitRob \InPos;
MoveL Offs(Target_drawing_origin,0,240,-5),v50,fine,PencilHolder\WObj:=PAPER;
WaitRob \InPos;
MoveL Offs(Target_drawing_origin,0,240,0),v50,fine,PencilHolder\WObj:=PAPER;
WaitRob \InPos;
SetDO Do_Kreslit_ON, 1;
SetDO Do_Kreslit_OFF, 0;
MoveL Offs(Target_drawing_origin,-240,240,0),v50,fine,PencilHolder\WObj:=PAPER;
WaitRob \InPos;
SetDO Do_Kreslit_ON, 0;
SetDO Do_Kreslit_OFF, 1;
MoveL Offs(Target_drawing_origin,-240,240,-5),v50,fine,PencilHolder\WObj:=PAPER;
WaitRob \InPos;


ENDPROC


ENDMODULE