MODULE Module1
    CONST robtarget Target_drawing_origin:=[[290,10,-2],[1,0,0,0],[0,0,0,0],[9E+09,9E+09,9E+09,9E+09,9E+09,9E+09]];


! Main procedure
PROC main()


! Clean
SetDO Do_Clean, 1;
SetDO Do_Clean, 0;
SetDO Do_Kreslit_OFF, 1;
SetDO Do_Kreslit_ON, 0;
! Draw grey
MoveJ Offs(Target_drawing_origin,0,0,-5),v100,fine,PencilHolder\WObj:=PAPER;
MoveL Offs(Target_drawing_origin,0,0,-5),v100,fine,PencilHolder\WObj:=PAPER;
WaitRob \InPos;
MoveL Offs(Target_drawing_origin,0,0,0),v100,fine,PencilHolder\WObj:=PAPER;
WaitRob \InPos;
SetDO Do_Kreslit_ON, 1;
SetDO Do_Kreslit_OFF, 0;
MoveL Offs(Target_drawing_origin,0,240,0),v100,fine,PencilHolder\WObj:=PAPER;
WaitRob \InPos;
SetDO Do_Kreslit_ON, 0;
SetDO Do_Kreslit_OFF, 1;
MoveL Offs(Target_drawing_origin,0,240,-5),v100,fine,PencilHolder\WObj:=PAPER;
WaitRob \InPos;
MoveL Offs(Target_drawing_origin,-15,0,-5),v100,fine,PencilHolder\WObj:=PAPER;
WaitRob \InPos;
MoveL Offs(Target_drawing_origin,-15,0,0),v100,fine,PencilHolder\WObj:=PAPER;
WaitRob \InPos;
SetDO Do_Kreslit_ON, 1;
SetDO Do_Kreslit_OFF, 0;
MoveL Offs(Target_drawing_origin,-15,240,0),v100,fine,PencilHolder\WObj:=PAPER;
WaitRob \InPos;
SetDO Do_Kreslit_ON, 0;
SetDO Do_Kreslit_OFF, 1;
MoveL Offs(Target_drawing_origin,-15,240,-5),v100,fine,PencilHolder\WObj:=PAPER;
WaitRob \InPos;
MoveL Offs(Target_drawing_origin,-30,0,-5),v100,fine,PencilHolder\WObj:=PAPER;
WaitRob \InPos;
MoveL Offs(Target_drawing_origin,-30,0,0),v100,fine,PencilHolder\WObj:=PAPER;
WaitRob \InPos;
SetDO Do_Kreslit_ON, 1;
SetDO Do_Kreslit_OFF, 0;
MoveL Offs(Target_drawing_origin,-30,30,0),v100,fine,PencilHolder\WObj:=PAPER;
WaitRob \InPos;
SetDO Do_Kreslit_ON, 0;
SetDO Do_Kreslit_OFF, 1;
MoveL Offs(Target_drawing_origin,-30,30,-5),v100,fine,PencilHolder\WObj:=PAPER;
WaitRob \InPos;
MoveL Offs(Target_drawing_origin,-30,60,-5),v100,fine,PencilHolder\WObj:=PAPER;
WaitRob \InPos;
MoveL Offs(Target_drawing_origin,-30,60,0),v100,fine,PencilHolder\WObj:=PAPER;
WaitRob \InPos;
SetDO Do_Kreslit_ON, 1;
SetDO Do_Kreslit_OFF, 0;
MoveL Offs(Target_drawing_origin,-30,240,0),v100,fine,PencilHolder\WObj:=PAPER;
WaitRob \InPos;
SetDO Do_Kreslit_ON, 0;
SetDO Do_Kreslit_OFF, 1;
MoveL Offs(Target_drawing_origin,-30,240,-5),v100,fine,PencilHolder\WObj:=PAPER;
WaitRob \InPos;
MoveL Offs(Target_drawing_origin,-45,0,-5),v100,fine,PencilHolder\WObj:=PAPER;
WaitRob \InPos;
MoveL Offs(Target_drawing_origin,-45,0,0),v100,fine,PencilHolder\WObj:=PAPER;
WaitRob \InPos;
SetDO Do_Kreslit_ON, 1;
SetDO Do_Kreslit_OFF, 0;
MoveL Offs(Target_drawing_origin,-45,30,0),v100,fine,PencilHolder\WObj:=PAPER;
WaitRob \InPos;
SetDO Do_Kreslit_ON, 0;
SetDO Do_Kreslit_OFF, 1;
MoveL Offs(Target_drawing_origin,-45,30,-5),v100,fine,PencilHolder\WObj:=PAPER;
WaitRob \InPos;
MoveL Offs(Target_drawing_origin,-45,75,-5),v100,fine,PencilHolder\WObj:=PAPER;
WaitRob \InPos;
MoveL Offs(Target_drawing_origin,-45,75,0),v100,fine,PencilHolder\WObj:=PAPER;
WaitRob \InPos;
SetDO Do_Kreslit_ON, 1;
SetDO Do_Kreslit_OFF, 0;
MoveL Offs(Target_drawing_origin,-45,240,0),v100,fine,PencilHolder\WObj:=PAPER;
WaitRob \InPos;
SetDO Do_Kreslit_ON, 0;
SetDO Do_Kreslit_OFF, 1;
MoveL Offs(Target_drawing_origin,-45,240,-5),v100,fine,PencilHolder\WObj:=PAPER;
WaitRob \InPos;
MoveL Offs(Target_drawing_origin,-60,0,-5),v100,fine,PencilHolder\WObj:=PAPER;
WaitRob \InPos;
MoveL Offs(Target_drawing_origin,-60,0,0),v100,fine,PencilHolder\WObj:=PAPER;
WaitRob \InPos;
SetDO Do_Kreslit_ON, 1;
SetDO Do_Kreslit_OFF, 0;
MoveL Offs(Target_drawing_origin,-60,30,0),v100,fine,PencilHolder\WObj:=PAPER;
WaitRob \InPos;
SetDO Do_Kreslit_ON, 0;
SetDO Do_Kreslit_OFF, 1;
MoveL Offs(Target_drawing_origin,-60,30,-5),v100,fine,PencilHolder\WObj:=PAPER;
WaitRob \InPos;
MoveL Offs(Target_drawing_origin,-60,75,-5),v100,fine,PencilHolder\WObj:=PAPER;
WaitRob \InPos;
MoveL Offs(Target_drawing_origin,-60,75,0),v100,fine,PencilHolder\WObj:=PAPER;
WaitRob \InPos;
SetDO Do_Kreslit_ON, 1;
SetDO Do_Kreslit_OFF, 0;
MoveL Offs(Target_drawing_origin,-60,240,0),v100,fine,PencilHolder\WObj:=PAPER;
WaitRob \InPos;
SetDO Do_Kreslit_ON, 0;
SetDO Do_Kreslit_OFF, 1;
MoveL Offs(Target_drawing_origin,-60,240,-5),v100,fine,PencilHolder\WObj:=PAPER;
WaitRob \InPos;
MoveL Offs(Target_drawing_origin,-75,0,-5),v100,fine,PencilHolder\WObj:=PAPER;
WaitRob \InPos;
MoveL Offs(Target_drawing_origin,-75,0,0),v100,fine,PencilHolder\WObj:=PAPER;
WaitRob \InPos;
SetDO Do_Kreslit_ON, 1;
SetDO Do_Kreslit_OFF, 0;
MoveL Offs(Target_drawing_origin,-75,30,0),v100,fine,PencilHolder\WObj:=PAPER;
WaitRob \InPos;
SetDO Do_Kreslit_ON, 0;
SetDO Do_Kreslit_OFF, 1;
MoveL Offs(Target_drawing_origin,-75,30,-5),v100,fine,PencilHolder\WObj:=PAPER;
WaitRob \InPos;
MoveL Offs(Target_drawing_origin,-75,75,-5),v100,fine,PencilHolder\WObj:=PAPER;
WaitRob \InPos;
MoveL Offs(Target_drawing_origin,-75,75,0),v100,fine,PencilHolder\WObj:=PAPER;
WaitRob \InPos;
SetDO Do_Kreslit_ON, 1;
SetDO Do_Kreslit_OFF, 0;
MoveL Offs(Target_drawing_origin,-75,240,0),v100,fine,PencilHolder\WObj:=PAPER;
WaitRob \InPos;
SetDO Do_Kreslit_ON, 0;
SetDO Do_Kreslit_OFF, 1;
MoveL Offs(Target_drawing_origin,-75,240,-5),v100,fine,PencilHolder\WObj:=PAPER;
WaitRob \InPos;
MoveL Offs(Target_drawing_origin,-90,0,-5),v100,fine,PencilHolder\WObj:=PAPER;
WaitRob \InPos;
MoveL Offs(Target_drawing_origin,-90,0,0),v100,fine,PencilHolder\WObj:=PAPER;
WaitRob \InPos;
SetDO Do_Kreslit_ON, 1;
SetDO Do_Kreslit_OFF, 0;
MoveL Offs(Target_drawing_origin,-90,30,0),v100,fine,PencilHolder\WObj:=PAPER;
WaitRob \InPos;
SetDO Do_Kreslit_ON, 0;
SetDO Do_Kreslit_OFF, 1;
MoveL Offs(Target_drawing_origin,-90,30,-5),v100,fine,PencilHolder\WObj:=PAPER;
WaitRob \InPos;
MoveL Offs(Target_drawing_origin,-90,75,-5),v100,fine,PencilHolder\WObj:=PAPER;
WaitRob \InPos;
MoveL Offs(Target_drawing_origin,-90,75,0),v100,fine,PencilHolder\WObj:=PAPER;
WaitRob \InPos;
SetDO Do_Kreslit_ON, 1;
SetDO Do_Kreslit_OFF, 0;
MoveL Offs(Target_drawing_origin,-90,240,0),v100,fine,PencilHolder\WObj:=PAPER;
WaitRob \InPos;
SetDO Do_Kreslit_ON, 0;
SetDO Do_Kreslit_OFF, 1;
MoveL Offs(Target_drawing_origin,-90,240,-5),v100,fine,PencilHolder\WObj:=PAPER;
WaitRob \InPos;
MoveL Offs(Target_drawing_origin,-105,0,-5),v100,fine,PencilHolder\WObj:=PAPER;
WaitRob \InPos;
MoveL Offs(Target_drawing_origin,-105,0,0),v100,fine,PencilHolder\WObj:=PAPER;
WaitRob \InPos;
SetDO Do_Kreslit_ON, 1;
SetDO Do_Kreslit_OFF, 0;
MoveL Offs(Target_drawing_origin,-105,30,0),v100,fine,PencilHolder\WObj:=PAPER;
WaitRob \InPos;
SetDO Do_Kreslit_ON, 0;
SetDO Do_Kreslit_OFF, 1;
MoveL Offs(Target_drawing_origin,-105,30,-5),v100,fine,PencilHolder\WObj:=PAPER;
WaitRob \InPos;
MoveL Offs(Target_drawing_origin,-105,75,-5),v100,fine,PencilHolder\WObj:=PAPER;
WaitRob \InPos;
MoveL Offs(Target_drawing_origin,-105,75,0),v100,fine,PencilHolder\WObj:=PAPER;
WaitRob \InPos;
SetDO Do_Kreslit_ON, 1;
SetDO Do_Kreslit_OFF, 0;
MoveL Offs(Target_drawing_origin,-105,240,0),v100,fine,PencilHolder\WObj:=PAPER;
WaitRob \InPos;
SetDO Do_Kreslit_ON, 0;
SetDO Do_Kreslit_OFF, 1;
MoveL Offs(Target_drawing_origin,-105,240,-5),v100,fine,PencilHolder\WObj:=PAPER;
WaitRob \InPos;
MoveL Offs(Target_drawing_origin,-120,0,-5),v100,fine,PencilHolder\WObj:=PAPER;
WaitRob \InPos;
MoveL Offs(Target_drawing_origin,-120,0,0),v100,fine,PencilHolder\WObj:=PAPER;
WaitRob \InPos;
SetDO Do_Kreslit_ON, 1;
SetDO Do_Kreslit_OFF, 0;
MoveL Offs(Target_drawing_origin,-120,60,0),v100,fine,PencilHolder\WObj:=PAPER;
WaitRob \InPos;
SetDO Do_Kreslit_ON, 0;
SetDO Do_Kreslit_OFF, 1;
MoveL Offs(Target_drawing_origin,-120,60,-5),v100,fine,PencilHolder\WObj:=PAPER;
WaitRob \InPos;
MoveL Offs(Target_drawing_origin,-120,210,-5),v100,fine,PencilHolder\WObj:=PAPER;
WaitRob \InPos;
MoveL Offs(Target_drawing_origin,-120,210,0),v100,fine,PencilHolder\WObj:=PAPER;
WaitRob \InPos;
SetDO Do_Kreslit_ON, 1;
SetDO Do_Kreslit_OFF, 0;
MoveL Offs(Target_drawing_origin,-120,240,0),v100,fine,PencilHolder\WObj:=PAPER;
WaitRob \InPos;
SetDO Do_Kreslit_ON, 0;
SetDO Do_Kreslit_OFF, 1;
MoveL Offs(Target_drawing_origin,-120,240,-5),v100,fine,PencilHolder\WObj:=PAPER;
WaitRob \InPos;
MoveL Offs(Target_drawing_origin,-135,0,-5),v100,fine,PencilHolder\WObj:=PAPER;
WaitRob \InPos;
MoveL Offs(Target_drawing_origin,-135,0,0),v100,fine,PencilHolder\WObj:=PAPER;
WaitRob \InPos;
SetDO Do_Kreslit_ON, 1;
SetDO Do_Kreslit_OFF, 0;
MoveL Offs(Target_drawing_origin,-135,60,0),v100,fine,PencilHolder\WObj:=PAPER;
WaitRob \InPos;
SetDO Do_Kreslit_ON, 0;
SetDO Do_Kreslit_OFF, 1;
MoveL Offs(Target_drawing_origin,-135,60,-5),v100,fine,PencilHolder\WObj:=PAPER;
WaitRob \InPos;
MoveL Offs(Target_drawing_origin,-135,210,-5),v100,fine,PencilHolder\WObj:=PAPER;
WaitRob \InPos;
MoveL Offs(Target_drawing_origin,-135,210,0),v100,fine,PencilHolder\WObj:=PAPER;
WaitRob \InPos;
SetDO Do_Kreslit_ON, 1;
SetDO Do_Kreslit_OFF, 0;
MoveL Offs(Target_drawing_origin,-135,240,0),v100,fine,PencilHolder\WObj:=PAPER;
WaitRob \InPos;
SetDO Do_Kreslit_ON, 0;
SetDO Do_Kreslit_OFF, 1;
MoveL Offs(Target_drawing_origin,-135,240,-5),v100,fine,PencilHolder\WObj:=PAPER;
WaitRob \InPos;
MoveL Offs(Target_drawing_origin,-150,0,-5),v100,fine,PencilHolder\WObj:=PAPER;
WaitRob \InPos;
MoveL Offs(Target_drawing_origin,-150,0,0),v100,fine,PencilHolder\WObj:=PAPER;
WaitRob \InPos;
SetDO Do_Kreslit_ON, 1;
SetDO Do_Kreslit_OFF, 0;
MoveL Offs(Target_drawing_origin,-150,60,0),v100,fine,PencilHolder\WObj:=PAPER;
WaitRob \InPos;
SetDO Do_Kreslit_ON, 0;
SetDO Do_Kreslit_OFF, 1;
MoveL Offs(Target_drawing_origin,-150,60,-5),v100,fine,PencilHolder\WObj:=PAPER;
WaitRob \InPos;
MoveL Offs(Target_drawing_origin,-150,105,-5),v100,fine,PencilHolder\WObj:=PAPER;
WaitRob \InPos;
MoveL Offs(Target_drawing_origin,-150,105,0),v100,fine,PencilHolder\WObj:=PAPER;
WaitRob \InPos;
SetDO Do_Kreslit_ON, 1;
SetDO Do_Kreslit_OFF, 0;
MoveL Offs(Target_drawing_origin,-150,240,0),v100,fine,PencilHolder\WObj:=PAPER;
WaitRob \InPos;
SetDO Do_Kreslit_ON, 0;
SetDO Do_Kreslit_OFF, 1;
MoveL Offs(Target_drawing_origin,-150,240,-5),v100,fine,PencilHolder\WObj:=PAPER;
WaitRob \InPos;
MoveL Offs(Target_drawing_origin,-165,0,-5),v100,fine,PencilHolder\WObj:=PAPER;
WaitRob \InPos;
MoveL Offs(Target_drawing_origin,-165,0,0),v100,fine,PencilHolder\WObj:=PAPER;
WaitRob \InPos;
SetDO Do_Kreslit_ON, 1;
SetDO Do_Kreslit_OFF, 0;
MoveL Offs(Target_drawing_origin,-165,60,0),v100,fine,PencilHolder\WObj:=PAPER;
WaitRob \InPos;
SetDO Do_Kreslit_ON, 0;
SetDO Do_Kreslit_OFF, 1;
MoveL Offs(Target_drawing_origin,-165,60,-5),v100,fine,PencilHolder\WObj:=PAPER;
WaitRob \InPos;
MoveL Offs(Target_drawing_origin,-165,90,-5),v100,fine,PencilHolder\WObj:=PAPER;
WaitRob \InPos;
MoveL Offs(Target_drawing_origin,-165,90,0),v100,fine,PencilHolder\WObj:=PAPER;
WaitRob \InPos;
SetDO Do_Kreslit_ON, 1;
SetDO Do_Kreslit_OFF, 0;
MoveL Offs(Target_drawing_origin,-165,240,0),v100,fine,PencilHolder\WObj:=PAPER;
WaitRob \InPos;
SetDO Do_Kreslit_ON, 0;
SetDO Do_Kreslit_OFF, 1;
MoveL Offs(Target_drawing_origin,-165,240,-5),v100,fine,PencilHolder\WObj:=PAPER;
WaitRob \InPos;
MoveL Offs(Target_drawing_origin,-180,0,-5),v100,fine,PencilHolder\WObj:=PAPER;
WaitRob \InPos;
MoveL Offs(Target_drawing_origin,-180,0,0),v100,fine,PencilHolder\WObj:=PAPER;
WaitRob \InPos;
SetDO Do_Kreslit_ON, 1;
SetDO Do_Kreslit_OFF, 0;
MoveL Offs(Target_drawing_origin,-180,60,0),v100,fine,PencilHolder\WObj:=PAPER;
WaitRob \InPos;
SetDO Do_Kreslit_ON, 0;
SetDO Do_Kreslit_OFF, 1;
MoveL Offs(Target_drawing_origin,-180,60,-5),v100,fine,PencilHolder\WObj:=PAPER;
WaitRob \InPos;
MoveL Offs(Target_drawing_origin,-180,90,-5),v100,fine,PencilHolder\WObj:=PAPER;
WaitRob \InPos;
MoveL Offs(Target_drawing_origin,-180,90,0),v100,fine,PencilHolder\WObj:=PAPER;
WaitRob \InPos;
SetDO Do_Kreslit_ON, 1;
SetDO Do_Kreslit_OFF, 0;
MoveL Offs(Target_drawing_origin,-180,240,0),v100,fine,PencilHolder\WObj:=PAPER;
WaitRob \InPos;
SetDO Do_Kreslit_ON, 0;
SetDO Do_Kreslit_OFF, 1;
MoveL Offs(Target_drawing_origin,-180,240,-5),v100,fine,PencilHolder\WObj:=PAPER;
WaitRob \InPos;
MoveL Offs(Target_drawing_origin,-195,0,-5),v100,fine,PencilHolder\WObj:=PAPER;
WaitRob \InPos;
MoveL Offs(Target_drawing_origin,-195,0,0),v100,fine,PencilHolder\WObj:=PAPER;
WaitRob \InPos;
SetDO Do_Kreslit_ON, 1;
SetDO Do_Kreslit_OFF, 0;
MoveL Offs(Target_drawing_origin,-195,60,0),v100,fine,PencilHolder\WObj:=PAPER;
WaitRob \InPos;
SetDO Do_Kreslit_ON, 0;
SetDO Do_Kreslit_OFF, 1;
MoveL Offs(Target_drawing_origin,-195,60,-5),v100,fine,PencilHolder\WObj:=PAPER;
WaitRob \InPos;
MoveL Offs(Target_drawing_origin,-195,90,-5),v100,fine,PencilHolder\WObj:=PAPER;
WaitRob \InPos;
MoveL Offs(Target_drawing_origin,-195,90,0),v100,fine,PencilHolder\WObj:=PAPER;
WaitRob \InPos;
SetDO Do_Kreslit_ON, 1;
SetDO Do_Kreslit_OFF, 0;
MoveL Offs(Target_drawing_origin,-195,240,0),v100,fine,PencilHolder\WObj:=PAPER;
WaitRob \InPos;
SetDO Do_Kreslit_ON, 0;
SetDO Do_Kreslit_OFF, 1;
MoveL Offs(Target_drawing_origin,-195,240,-5),v100,fine,PencilHolder\WObj:=PAPER;
WaitRob \InPos;
MoveL Offs(Target_drawing_origin,-210,0,-5),v100,fine,PencilHolder\WObj:=PAPER;
WaitRob \InPos;
MoveL Offs(Target_drawing_origin,-210,0,0),v100,fine,PencilHolder\WObj:=PAPER;
WaitRob \InPos;
SetDO Do_Kreslit_ON, 1;
SetDO Do_Kreslit_OFF, 0;
MoveL Offs(Target_drawing_origin,-210,240,0),v100,fine,PencilHolder\WObj:=PAPER;
WaitRob \InPos;
SetDO Do_Kreslit_ON, 0;
SetDO Do_Kreslit_OFF, 1;
MoveL Offs(Target_drawing_origin,-210,240,-5),v100,fine,PencilHolder\WObj:=PAPER;
WaitRob \InPos;
MoveL Offs(Target_drawing_origin,-225,0,-5),v100,fine,PencilHolder\WObj:=PAPER;
WaitRob \InPos;
MoveL Offs(Target_drawing_origin,-225,0,0),v100,fine,PencilHolder\WObj:=PAPER;
WaitRob \InPos;
SetDO Do_Kreslit_ON, 1;
SetDO Do_Kreslit_OFF, 0;
MoveL Offs(Target_drawing_origin,-225,240,0),v100,fine,PencilHolder\WObj:=PAPER;
WaitRob \InPos;
SetDO Do_Kreslit_ON, 0;
SetDO Do_Kreslit_OFF, 1;
MoveL Offs(Target_drawing_origin,-225,240,-5),v100,fine,PencilHolder\WObj:=PAPER;
WaitRob \InPos;
MoveL Offs(Target_drawing_origin,-240,0,-5),v100,fine,PencilHolder\WObj:=PAPER;
WaitRob \InPos;
MoveL Offs(Target_drawing_origin,-240,0,0),v100,fine,PencilHolder\WObj:=PAPER;
WaitRob \InPos;
SetDO Do_Kreslit_ON, 1;
SetDO Do_Kreslit_OFF, 0;
MoveL Offs(Target_drawing_origin,-240,240,0),v100,fine,PencilHolder\WObj:=PAPER;
WaitRob \InPos;
SetDO Do_Kreslit_ON, 0;
SetDO Do_Kreslit_OFF, 1;
MoveL Offs(Target_drawing_origin,-240,240,-5),v100,fine,PencilHolder\WObj:=PAPER;
WaitRob \InPos;
SetDO Do_Kreslit_OFF, 1;


! Draw black
MoveJ Offs(Target_drawing_origin,0,0,-5),v100,fine,PencilHolder\WObj:=PAPER;


ENDPROC


ENDMODULE